P3
400 225
255
175 198 0
174 197 0
173 196 0
174 198 0
173 196 0
174 197 0
174 198 0
172 196 0
175 198 0
173 197 0
175 198 0
172 196 0
174 197 0
173 196 0
174 197 0
173 196 0
172 196 0
174 197 0
172 195 0
173 196 0
173 197 0
175 198 0
175 198 0
174 198 0
174 197 0
174 197 0
173 196 0
176 198 0
175 198 0
174 197 0
175 198 0
173 196 0
170 194 0
173 197 0
172 196 0
174 197 0
175 198 0
171 195 0
173 196 0
173 196 0
173 197 0
172 196 0
174 197 0
174 198 0
173 196 0
175 198 0
174 197 0
174 197 0
173 197 0
175 198 0
175 197 0
175 198 0
173 195 0
174 197 0
172 196 0
172 195 0
175 198 0
174 197 0
175 198 0
175 198 0
171 195 0
172 196 0
171 195 0
176 198 0
174 197 0
173 197 0
172 196 0
175 198 0
174 197 0
173 196 0
175 198 0
174 198 0
174 198 0
175 198 0
175 198 0
174 197 0
176 198 0
174 197 0
173 197 0
172 196 0
174 197 0
171 195 0
173 196 0
173 197 0
173 197 0
174 197 0
174 197 0
174 197 0
174 197 0
174 197 0
174 198 0
173 196 0
174 197 0
175 198 0
174 198 0
173 197 0
175 198 0
172 196 0
174 197 0
174 198 0
174 197 0
173 197 0
175 198 0
173 197 0
175 198 0
175 198 0
173 196 0
172 195 0
172 196 0
172 196 0
174 197 0
173 196 0
175 198 0
171 194 0
173 197 0
173 197 0
172 195 0
175 197 0
173 197 0
176 199 0
173 196 0
173 197 0
175 198 0
172 195 0
174 197 0
174 197 0
174 197 0
174 197 0
171 195 0
175 198 0
173 197 0
174 197 0
173 197 0
172 194 0
173 196 0
173 197 0
172 195 0
174 197 0
172 195 0
172 195 0
173 196 0
173 197 0
173 197 0
172 195 0
172 196 0
174 197 0
173 196 0
175 197 0
173 197 0
174 197 0
174 197 0
173 196 0
173 196 0
175 198 0
173 196 0
174 197 0
171 194 0
174 197 0
172 196 0
173 197 0
170 194 0
173 197 0
173 197 0
174 197 0
174 198 0
175 197 0
171 193 0
174 197 0
171 194 0
172 195 0
173 196 0
173 197 0
172 197 0
172 195 0
174 197 0
172 196 0
174 198 0
174 197 0
174 197 0
170 194 0
173 196 0
171 195 0
172 195 0
172 194 0
172 195 0
172 195 0
175 198 0
173 197 0
173 197 0
175 198 0
174 197 0
175 198 0
174 197 0
172 196 0
175 197 0
173 196 0
174 196 0
172 195 0
174 197 0
174 196 0
172 195 0
173 197 0
173 196 0
174 197 0
172 196 0
173 196 0
172 195 0
173 196 0
172 195 0
173 197 0
172 195 0
172 195 0
172 194 0
173 196 0
170 194 0
171 194 0
172 195 0
172 195 0
172 195 0
172 196 0
173 196 0
172 194 0
176 198 0
172 196 0
174 197 0
172 196 0
173 197 0
172 195 0
173 196 0
175 198 0
173 197 0
169 193 0
172 196 0
174 198 0
174 197 0
174 197 0
172 195 0
175 198 0
173 196 0
174 194 19
171 194 16
168 189 25
167 187 28
167 186 29
164 182 28
164 179 37
159 171 49
160 172 48
145 158 44
159 167 65
155 163 60
151 158 61
156 160 71
158 160 75
150 152 73
154 153 84
149 146 78
148 145 83
154 151 87
147 141 87
155 149 91
142 137 83
147 143 85
153 147 90
151 147 94
149 144 91
146 141 90
158 153 98
160 156 99
157 153 101
156 152 97
157 153 98
160 154 98
164 158 103
156 151 99
159 155 103
156 153 101
165 160 104
160 156 103
165 161 106
161 158 105
158 155 103
168 164 107
162 160 106
159 156 104
158 155 103
161 157 104
162 158 105
159 156 103
163 160 106
163 160 108
165 162 108
164 161 108
164 161 107
162 159 106
162 160 107
157 155 104
163 160 107
165 162 108
159 157 104
162 159 106
165 162 108
163 161 108
162 160 107
166 164 109
167 165 110
164 162 108
162 161 108
164 162 108
159 157 105
169 166 111
161 158 106
162 160 107
164 162 109
170 167 112
154 151 101
165 163 109
163 161 108
164 162 108
166 164 109
163 161 108
165 163 109
158 156 104
167 165 110
164 161 108
165 162 108
160 159 107
158 156 104
163 161 108
166 164 109
164 162 108
167 164 109
166 163 108
164 162 109
163 160 107
162 159 106
157 153 102
162 160 106
155 153 101
160 157 104
163 161 107
163 160 106
163 160 106
167 162 108
158 154 103
160 156 103
157 154 101
157 153 99
164 159 104
163 159 104
159 156 103
163 160 104
160 155 101
158 155 102
158 154 101
161 157 103
158 154 99
163 158 99
160 156 101
149 145 93
162 156 99
140 135 87
151 146 93
158 153 98
162 155 97
154 149 92
157 152 97
152 147 94
150 144 92
146 139 86
148 142 88
144 138 86
151 148 82
155 154 82
148 150 74
149 150 71
152 158 66
156 163 64
162 169 61
158 169 53
158 171 48
161 176 41
168 182 48
164 182 34
171 191 34
170 191 16
173 196 0
173 196 11
174 197 0
175 198 0
172 196 0
174 198 0
173 197 0
173 197 0
174 197 0
175 198 0
173 196 0
174 198 0
174 197 0
172 195 0
173 197 0
174 197 0
174 197 0
173 197 0
175 198 0
173 197 0
174 197 0
173 197 0
175 197 0
174 197 0
175 198 0
172 196 0
173 197 0
174 196 0
176 199 0
173 196 0
176 198 0
174 198 0
175 197 0
174 196 0
176 199 0
175 198 0
176 199 0
174 197 0
175 198 0
174 197 0
173 196 0
173 197 0
175 198 0
173 197 0
172 196 0
174 198 0
171 196 0
175 198 0
174 197 0
174 197 0
172 196 0
172 196 0
175 198 0
175 198 0
173 197 0
174 197 0
175 198 0
175 198 0
173 196 0
173 197 0
176 198 0
176 198 0
173 196 0
175 198 0
173 197 0
172 195 0
174 197 0
173 197 0
172 197 0
173 196 0
172 196 0
173 197 0
171 195 0
173 197 0
173 196 0
174 198 0
172 197 0
173 196 0
172 196 0
173 197 0
175 198 0
174 197 0
174 197 0
174 197 0
174 198 0
172 196 0
172 195 0
172 196 0
174 197 0
173 197 0
174 197 0
175 198 0
174 197 0
173 197 0
174 198 0
172 196 0
173 196 0
175 198 0
171 194 0
175 198 0
174 198 0
172 196 0
173 196 0
175 198 0
173 197 0
174 198 0
174 198 0
172 196 0
173 196 0
175 198 0
174 198 0
172 195 0
172 196 0
173 197 0
174 197 0
174 198 0
174 197 0
172 196 0
175 198 0
174 197 0
172 197 0
173 196 0
172 195 0
173 197 0
176 198 0
175 198 0
175 197 0
171 196 0
174 197 0
173 196 0
173 196 0
174 197 0
174 197 0
174 197 0
173 196 0
174 198 0
173 196 0
170 194 0
172 195 0
171 195 0
172 196 0
173 196 0
175 198 0
173 196 0
175 197 0
175 197 0
175 198 0
173 197 0
171 195 0
175 198 0
174 197 0
173 197 0
174 198 0
172 195 0
174 197 0
173 196 0
174 197 0
174 197 0
172 196 0
172 196 0
174 198 0
172 195 0
175 198 0
171 194 0
175 198 0
175 198 0
173 197 0
173 196 0
175 197 0
173 196 0
174 197 0
172 196 0
175 198 0
170 193 0
171 195 0
174 197 0
174 197 0
172 195 0
173 196 0
172 195 0
173 197 0
172 196 0
174 196 0
172 195 0
173 197 0
174 197 0
172 196 0
172 196 0
174 197 0
172 193 0
172 195 0
173 197 0
174 197 0
172 196 0
174 197 0
174 196 0
174 197 0
174 197 0
173 197 0
173 196 0
174 197 0
175 197 0
171 194 0
174 197 0
174 196 0
172 196 0
173 195 0
172 196 0
172 195 0
171 195 0
174 196 0
171 193 0
173 196 0
171 195 0
175 198 0
171 195 0
173 195 0
173 197 0
172 195 0
174 197 0
176 198 0
174 196 0
171 194 0
174 197 0
174 196 0
171 194 0
173 195 0
172 194 0
173 196 0
172 195 0
173 196 0
172 195 0
173 197 0
174 198 0
173 196 0
172 196 0
171 195 0
173 196 0
173 197 0
172 196 0
172 195 0
174 196 0
174 197 0
172 195 0
171 194 0
174 197 0
174 196 0
173 197 0
172 195 0
174 195 0
174 197 0
171 194 0
170 193 11
169 191 11
170 192 22
167 188 25
169 189 32
166 186 34
161 174 42
164 180 42
164 179 49
155 167 45
162 171 64
161 168 68
150 154 65
153 156 66
148 149 72
153 153 79
152 154 76
146 142 80
150 146 87
146 143 83
144 140 85
144 139 85
146 141 86
153 147 91
157 151 93
154 149 93
152 147 91
153 149 92
152 148 95
152 147 93
149 144 92
156 152 100
149 145 95
158 154 101
155 151 97
148 144 94
159 155 100
166 161 105
153 150 98
160 155 101
156 153 98
159 155 101
152 150 98
156 152 100
160 156 103
157 154 102
167 162 107
160 156 104
157 155 103
158 155 103
163 160 106
163 160 106
162 159 106
162 159 106
164 161 107
163 160 107
165 162 108
154 153 103
164 161 107
164 161 108
161 158 106
162 159 106
165 163 109
166 163 108
162 160 107
164 161 107
165 162 109
168 164 109
161 159 106
165 164 110
164 162 108
165 163 109
163 160 107
164 161 107
163 161 108
165 163 109
163 161 108
163 161 108
160 158 105
165 163 109
162 160 107
168 165 110
167 164 109
167 165 110
168 166 111
167 164 109
163 160 107
162 160 107
162 159 106
166 163 109
164 161 108
168 165 110
160 157 105
163 161 107
165 162 108
167 163 109
164 161 107
165 162 108
158 156 104
166 163 109
159 155 103
161 159 106
167 164 109
157 154 101
163 160 106
163 159 105
157 155 103
164 161 106
161 157 103
163 160 104
154 150 99
161 157 104
159 157 104
155 150 99
162 158 104
156 153 100
164 159 103
155 152 98
161 157 101
159 154 101
161 157 101
157 152 97
153 148 95
161 156 101
157 152 95
159 153 95
144 139 88
141 135 85
142 137 86
156 150 93
148 142 87
161 154 100
157 150 94
157 150 93
153 148 90
154 150 87
162 160 83
153 151 78
156 157 73
153 157 67
154 158 71
160 168 61
155 166 54
156 170 42
164 179 44
163 179 42
161 179 28
170 191 28
169 191 0
169 190 19
172 195 11
174 197 0
173 197 0
172 196 0
173 197 0
174 197 0
175 198 0
173 196 0
174 197 0
173 197 0
173 197 0
175 198 0
175 198 0
174 197 0
174 197 0
174 197 0
174 198 0
176 199 0
175 198 0
174 197 0
173 197 0
173 196 0
173 197 0
175 198 0
174 197 0
174 198 0
173 196 0
172 195 0
173 197 0
174 197 0
175 198 0
172 196 0
172 196 0
174 198 0
176 198 0
174 198 0
174 198 0
173 196 0
175 198 0
175 198 0
174 197 0
173 196 0
173 197 0
172 195 0
173 197 0
174 197 0
174 197 0
171 195 0
172 195 0
173 196 0
173 196 0
173 196 0
174 197 0
172 196 0
174 197 0
173 196 0
170 194 0
174 197 0
172 196 0
171 195 0
174 198 0
174 197 0
174 197 0
175 198 0
176 199 0
171 194 0
173 196 0
174 198 0
171 195 0
173 196 0
174 197 0
175 198 0
175 198 0
174 197 0
172 196 0
175 198 0
174 198 0
173 196 0
175 197 0
173 197 0
174 197 0
175 198 0
175 198 0
175 197 0
174 197 0
172 196 0
173 197 0
172 196 0
174 197 0
174 197 0
171 194 0
173 196 0
175 198 0
172 196 0
171 194 0
173 196 0
175 198 0
174 197 0
175 198 0
175 198 0
171 195 0
171 195 0
172 195 0
173 197 0
174 198 0
175 198 0
171 195 0
174 198 0
174 198 0
171 194 0
174 197 0
173 197 0
174 198 0
173 197 0
175 198 0
173 197 0
172 196 0
174 197 0
174 197 0
173 197 0
172 196 0
172 196 0
170 193 0
174 197 0
172 196 0
174 197 0
173 196 0
174 197 0
173 197 0
173 197 0
172 196 0
171 195 0
173 196 0
174 198 0
176 198 0
174 197 0
173 197 0
175 198 0
171 195 0
174 197 0
173 195 0
172 197 0
173 196 0
171 195 0
173 197 0
175 198 0
174 197 0
173 196 0
176 198 0
173 197 0
174 197 0
173 196 0
173 196 0
174 197 0
172 196 0
172 196 0
175 197 0
175 198 0
174 198 0
174 197 0
173 197 0
171 195 0
172 195 0
174 198 0
172 196 0
175 198 0
173 196 0
171 194 0
172 196 0
172 196 0
172 193 0
173 196 0
176 198 0
172 194 0
173 196 0
174 197 0
171 194 0
172 196 0
173 196 0
172 195 0
174 197 0
174 197 0
173 196 0
172 195 0
171 194 0
173 196 0
173 197 0
174 198 0
171 194 0
173 197 0
173 196 0
173 196 0
173 196 0
172 196 0
173 196 0
170 194 0
174 198 0
172 195 0
174 197 0
174 196 0
174 197 0
171 194 0
172 195 0
172 195 0
172 196 0
173 197 0
172 196 0
173 195 0
173 195 0
173 196 0
174 197 0
173 196 0
173 196 0
172 195 0
172 195 0
172 196 0
171 195 0
172 196 0
172 194 0
170 193 0
174 197 0
172 195 0
172 195 0
173 196 0
170 194 0
173 196 0
173 196 0
173 197 0
175 197 0
173 197 0
172 196 0
172 197 0
173 197 0
175 197 0
172 197 0
174 197 0
173 196 0
174 197 0
173 197 0
173 195 0
173 196 0
172 196 0
172 196 0
175 197 0
173 196 0
174 197 0
169 194 0
173 196 0
174 197 0
171 193 11
171 192 16
170 190 22
173 193 28
158 176 25
167 185 36
161 178 39
166 183 30
157 172 41
159 170 52
156 167 57
159 167 57
153 158 64
150 155 61
150 154 72
154 154 74
155 155 79
152 150 77
140 136 78
151 146 83
147 141 84
157 151 91
144 139 86
142 138 85
143 139 86
147 143 90
153 147 93
148 144 92
143 138 86
159 154 99
159 153 99
156 151 98
157 152 97
162 158 103
150 146 96
158 154 100
158 155 102
160 155 101
160 156 102
157 153 99
157 153 101
162 158 102
167 163 108
156 153 101
162 159 104
157 153 102
158 155 102
163 159 106
170 166 109
162 157 103
164 161 108
162 159 105
165 162 107
159 155 103
158 156 105
166 162 108
162 160 106
162 159 105
168 165 110
158 156 105
162 159 107
162 159 107
162 160 107
159 157 105
170 166 111
167 165 110
164 161 108
168 166 111
165 163 109
160 157 105
168 165 110
166 163 109
166 164 110
166 164 109
165 163 109
163 161 108
163 161 108
167 164 109
163 160 107
163 161 108
164 162 108
167 165 110
166 164 109
164 162 109
166 164 109
167 164 109
166 163 109
161 159 106
166 163 109
169 166 110
167 164 109
161 158 105
164 161 108
164 161 107
166 163 109
166 163 108
161 158 105
169 166 110
166 163 109
169 167 111
158 155 103
166 163 108
163 161 107
164 160 106
162 159 106
159 155 103
162 159 105
165 162 107
160 157 103
162 158 104
164 160 104
164 160 106
164 159 104
167 163 108
162 158 102
157 153 100
157 152 99
157 153 98
166 161 105
161 155 99
166 161 103
153 149 95
151 147 95
157 153 99
163 157 102
155 149 94
156 150 95
160 156 97
147 142 87
150 144 93
157 151 95
151 146 89
150 146 92
156 149 92
145 140 81
149 143 87
148 144 89
153 150 84
154 150 83
147 149 70
156 158 72
159 164 63
151 156 63
154 165 54
156 169 48
158 171 53
161 176 44
160 176 34
164 184 28
171 193 11
173 195 22
173 196 0
174 197 0
175 198 0
174 197 0
174 196 0
173 196 0
172 196 0
173 197 0
175 198 0
174 197 0
174 197 0
176 198 0
172 197 0
173 196 0
173 197 0
174 197 0
172 197 0
175 198 0
175 198 0
173 197 0
174 198 0
174 197 0
174 198 0
174 198 0
175 198 0
174 197 0
176 199 0
173 196 0
173 197 0
173 197 0
174 197 0
175 198 0
174 197 0
172 195 0
174 197 0
175 198 0
172 196 0
173 196 0
172 196 0
175 198 0
174 197 0
173 197 0
173 197 0
173 197 0
173 197 0
173 197 0
173 197 0
174 197 0
174 198 0
172 196 0
173 197 0
174 197 0
174 197 0
175 198 0
174 197 0
175 198 0
173 197 0
172 196 0
173 197 0
173 196 0
171 195 0
173 197 0
173 196 0
175 198 0
172 196 0
174 197 0
172 196 0
172 196 0
173 197 0
170 194 0
175 198 0
172 196 0
174 198 0
175 198 0
174 197 0
174 197 0
172 196 0
173 196 0
172 195 0
173 196 0
170 194 0
173 196 0
175 198 0
173 196 0
172 196 0
173 197 0
173 196 0
174 197 0
175 198 0
173 197 0
173 196 0
172 196 0
172 195 0
173 196 0
174 197 0
171 194 0
172 196 0
174 198 0
171 194 0
172 196 0
172 196 0
172 195 0
173 196 0
174 197 0
172 196 0
175 198 0
172 195 0
174 197 0
171 195 0
171 195 0
173 197 0
172 196 0
174 198 0
173 196 0
175 198 0
174 198 0
172 196 0
172 196 0
173 196 0
173 197 0
174 197 0
173 197 0
173 197 0
172 196 0
173 196 0
173 196 0
174 197 0
173 196 0
172 196 0
175 198 0
173 197 0
171 194 0
172 195 0
174 197 0
173 196 0
173 196 0
172 195 0
175 198 0
173 196 0
174 197 0
172 194 0
171 194 0
175 197 0
171 194 0
173 197 0
172 196 0
173 196 0
171 194 0
171 194 0
171 195 0
171 194 0
170 193 0
174 198 0
172 195 0
173 196 0
173 196 0
172 195 0
176 198 0
173 196 0
174 197 0
174 197 0
172 196 0
172 196 0
171 194 0
172 195 0
171 195 0
173 196 0
173 196 0
174 197 0
174 196 0
173 196 0
173 197 0
174 198 0
173 197 0
172 195 0
172 195 0
173 196 0
174 197 0
173 196 0
174 197 0
170 194 0
171 195 0
173 197 0
172 196 0
173 197 0
175 198 0
169 193 0
171 195 0
174 197 0
175 198 0
172 196 0
172 195 0
172 196 0
172 194 0
173 196 0
175 198 0
172 195 0
173 196 0
173 197 0
171 194 0
173 197 0
172 195 0
173 197 0
172 196 0
174 197 0
173 196 0
176 198 0
176 198 0
173 196 0
172 195 0
172 195 0
171 195 0
171 195 0
174 197 0
173 196 0
173 196 0
173 196 0
174 196 0
173 196 0
172 195 0
173 196 0
173 197 0
172 195 0
173 197 0
173 197 0
171 195 0
172 195 0
173 197 0
174 198 0
174 197 0
173 197 0
174 196 0
172 195 0
172 195 0
172 195 0
172 195 0
174 197 0
171 194 0
173 197 0
173 196 0
173 196 0
173 195 0
173 196 0
173 197 0
171 194 0
172 196 0
173 196 0
172 195 0
172 196 0
174 196 11
171 193 11
166 186 11
170 189 25
167 185 42
164 179 44
162 175 45
158 173 42
163 178 47
160 171 52
150 159 57
160 166 61
149 157 59
150 153 70
138 140 64
156 155 83
152 150 81
149 146 82
153 149 88
156 149 91
153 147 89
143 139 86
157 151 95
151 145 90
143 138 87
155 150 93
151 145 92
147 142 88
156 151 97
152 148 94
159 154 99
164 159 102
163 157 102
156 153 101
162 157 103
159 155 101
154 150 98
158 154 101
160 156 102
158 154 101
156 151 98
154 151 98
161 156 102
156 153 102
162 158 103
165 162 106
164 160 106
159 155 103
157 154 103
162 159 106
162 159 105
163 160 106
165 162 108
167 163 108
166 163 108
167 163 108
167 164 110
159 157 104
164 162 108
162 160 107
159 156 104
165 162 108
165 163 109
164 162 108
163 160 106
167 164 109
164 162 108
169 166 111
163 160 107
164 161 108
160 159 107
167 165 110
164 162 108
167 164 110
164 161 108
164 162 108
170 167 112
166 164 110
168 165 110
165 163 109
165 163 109
167 166 111
170 167 112
162 160 107
166 164 109
165 163 109
164 162 109
165 162 108
165 163 109
161 159 106
170 167 111
163 161 108
169 164 109
163 160 107
162 160 106
168 165 109
164 161 107
158 156 104
166 163 109
165 163 109
171 167 111
165 162 108
158 156 104
164 160 106
167 163 108
163 159 106
169 165 109
166 162 107
169 165 108
160 155 103
163 160 106
162 159 104
158 155 102
166 162 104
160 157 103
161 156 99
163 159 104
163 160 105
161 157 103
158 153 99
164 159 103
157 153 99
157 152 98
154 151 97
162 156 99
155 151 99
155 150 97
152 146 93
153 149 95
152 146 93
153 149 93
152 147 93
153 147 92
159 153 96
148 143 85
145 139 82
145 139 83
143 139 79
150 145 83
150 145 80
149 152 66
157 162 71
158 165 61
150 158 53
149 160 49
162 176 49
160 176 39
166 179 52
167 184 28
170 189 30
169 190 25
172 195 0
174 197 0
173 196 0
174 198 0
175 198 0
171 195 0
174 197 0
176 199 0
175 198 0
171 194 0
174 197 0
173 196 0
175 197 0
172 195 0
172 196 0
175 198 0
174 197 0
174 198 0
173 197 0
173 197 0
175 198 0
173 196 0
170 194 0
173 197 0
174 197 0
173 197 0
173 196 0
173 196 0
175 198 0
172 196 0
174 198 0
174 198 0
173 196 0
174 198 0
174 197 0
173 196 0
174 198 0
174 196 0
172 196 0
173 196 0
172 196 0
174 197 0
172 196 0
174 197 0
173 197 0
172 196 0
172 196 0
173 196 0
172 196 0
175 198 0
175 198 0
174 197 0
173 196 0
174 197 0
172 195 0
173 196 0
175 198 0
175 198 0
175 198 0
174 198 0
171 196 0
173 197 0
173 195 0
174 197 0
174 198 0
175 198 0
174 198 0
174 197 0
173 196 0
173 197 0
173 197 0
175 198 0
174 197 0
173 196 0
174 197 0
174 198 0
171 195 0
171 195 0
174 197 0
173 196 0
173 197 0
174 197 0
174 197 0
169 193 0
174 197 0
172 196 0
171 195 0
171 195 0
173 197 0
174 197 0
173 197 0
175 197 0
174 197 0
171 195 0
172 195 0
174 197 0
173 197 0
173 196 0
174 198 0
174 197 0
173 197 0
174 198 0
172 196 0
172 195 0
173 196 0
174 197 0
171 195 0
174 197 0
175 198 0
174 198 0
174 195 0
171 194 0
171 195 0
174 197 0
174 197 0
173 197 0
174 197 0
170 194 0
174 197 0
173 197 0
175 197 0
171 195 0
172 196 0
175 197 0
171 195 0
171 196 0
173 196 0
172 195 0
174 198 0
173 196 0
172 195 0
173 197 0
173 196 0
173 197 0
175 198 0
174 197 0
174 198 0
172 195 0
176 198 0
173 197 0
174 197 0
173 196 0
174 197 0
170 194 0
176 198 0
173 196 0
174 197 0
172 195 0
175 198 0
173 195 0
172 196 0
174 197 0
170 194 0
173 197 0
173 196 0
170 194 0
173 197 0
174 197 0
174 196 0
173 196 0
170 194 0
174 197 0
175 198 0
172 196 0
173 196 0
173 197 0
173 197 0
172 197 0
171 195 0
172 195 0
171 195 0
175 197 0
172 195 0
171 195 0
174 197 0
172 195 0
173 196 0
172 195 0
172 195 0
173 196 0
171 195 0
172 195 0
174 198 0
174 197 0
172 196 0
170 194 0
173 196 0
174 197 0
169 192 0
173 195 0
173 197 0
170 193 0
173 196 0
171 195 0
173 197 0
170 193 0
172 195 0
174 198 0
173 196 0
173 196 0
174 197 0
172 194 0
171 195 0
172 195 0
174 198 0
173 196 0
171 195 0
175 198 0
173 197 0
174 197 0
172 196 0
173 197 0
173 196 0
172 195 0
173 197 0
173 196 0
174 197 0
173 197 0
169 192 0
172 195 0
173 195 0
175 198 0
173 196 0
173 196 0
174 198 0
172 195 0
170 194 0
171 194 0
173 197 0
174 197 0
173 196 0
174 197 0
171 195 0
170 193 0
173 197 0
171 195 0
174 196 0
174 197 0
174 196 0
175 198 0
173 197 0
174 197 0
173 197 0
173 195 0
171 195 0
173 197 0
173 196 0
172 195 0
170 195 11
171 193 11
168 188 30
165 186 16
166 184 28
169 187 42
165 182 36
166 181 46
156 172 30
150 160 51
159 171 49
155 162 66
150 156 61
145 148 64
150 151 67
150 151 72
137 137 67
141 140 69
151 149 86
145 140 79
152 146 93
148 143 87
148 142 88
157 151 95
147 143 89
155 149 92
151 146 93
154 148 95
150 145 92
147 143 94
150 146 93
154 150 98
153 148 96
153 149 94
154 151 98
153 150 97
159 153 100
162 158 101
157 153 99
157 154 103
151 148 98
155 151 98
164 160 105
158 154 102
161 157 103
161 158 105
158 155 104
154 152 102
161 157 103
167 163 106
156 154 102
160 157 105
164 161 107
159 156 104
162 159 106
170 167 111
168 164 110
157 154 102
163 160 107
166 164 110
162 159 106
165 163 109
161 159 107
162 159 106
165 162 109
168 165 110
165 162 108
165 163 109
163 160 106
160 158 106
165 163 109
167 165 110
161 158 106
165 162 108
171 167 111
163 161 107
165 162 109
165 162 108
163 160 107
165 162 108
168 165 110
167 164 110
162 159 106
164 161 108
170 167 111
164 161 108
169 166 110
162 161 108
161 159 106
165 162 108
163 160 107
169 166 110
162 161 108
164 161 108
167 164 109
166 163 108
165 163 109
162 160 106
167 164 109
161 159 106
166 163 108
165 162 108
167 164 109
158 155 103
166 163 108
165 163 108
170 165 109
163 160 106
163 159 105
160 158 103
162 157 103
164 160 104
164 160 106
161 158 104
165 161 106
159 155 101
160 157 103
171 166 108
159 155 101
157 152 98
165 160 101
161 157 101
160 155 101
156 152 99
162 157 101
154 150 95
160 156 99
161 156 98
152 148 95
147 142 88
152 148 94
157 152 95
152 147 93
155 149 94
149 144 89
154 149 93
162 155 96
143 137 84
141 135 80
155 149 87
144 141 80
144 144 67
152 153 79
144 150 61
153 160 59
159 168 59
160 171 54
163 176 51
161 175 49
158 176 34
172 191 30
168 188 22
173 194 16
170 192 0
172 195 0
172 196 0
174 198 0
174 197 0
175 197 0
173 196 0
175 198 0
173 197 0
173 196 0
174 198 0
173 195 0
173 196 0
172 196 0
175 198 0
173 197 0
174 197 0
174 197 0
174 197 0
174 198 0
175 198 0
177 199 0
173 197 0
171 195 0
175 197 0
174 197 0
175 198 0
175 198 0
175 198 0
174 197 0
172 196 0
174 198 0
176 198 0
174 198 0
175 198 0
172 196 0
173 197 0
174 197 0
173 196 0
173 197 0
172 195 0
175 197 0
173 197 0
174 197 0
174 198 0
173 197 0
172 196 0
173 196 0
172 196 0
173 197 0
172 196 0
171 194 0
173 196 0
174 197 0
174 197 0
172 196 0
174 197 0
173 197 0
173 196 0
173 197 0
173 197 0
172 197 0
173 197 0
174 197 0
172 195 0
172 196 0
175 198 0
174 198 0
173 196 0
174 198 0
173 197 0
171 195 0
176 198 0
172 195 0
173 197 0
175 198 0
175 197 0
174 197 0
172 196 0
172 195 0
174 197 0
175 198 0
174 198 0
174 197 0
173 197 0
174 198 0
174 197 0
175 198 0
174 198 0
173 197 0
173 196 0
173 197 0
174 198 0
174 198 0
174 197 0
173 197 0
174 197 0
174 197 0
174 198 0
173 196 0
172 196 0
173 196 0
172 196 0
174 198 0
175 198 0
171 194 0
173 197 0
173 196 0
174 197 0
172 196 0
174 197 0
173 197 0
173 197 0
169 191 0
173 196 0
172 195 0
176 198 0
175 198 0
173 197 0
171 195 0
172 196 0
173 196 0
171 194 0
173 197 0
174 198 0
173 196 0
175 197 0
175 198 0
174 197 0
174 197 0
174 197 0
172 196 0
171 195 0
173 196 0
173 196 0
173 196 0
172 196 0
175 198 0
175 197 0
174 197 0
174 198 0
176 198 0
174 197 0
172 195 0
171 195 0
174 198 0
174 197 0
174 197 0
173 197 0
172 196 0
174 197 0
172 196 0
173 196 0
172 195 0
173 197 0
173 196 0
172 194 0
174 197 0
175 198 0
171 194 0
174 197 0
171 195 0
172 196 0
173 196 0
172 194 0
173 197 0
173 196 0
175 198 0
173 197 0
174 196 0
171 195 0
173 196 0
174 197 0
174 198 0
171 194 0
174 197 0
175 197 0
174 197 0
173 197 0
173 196 0
173 196 0
175 198 0
172 195 0
176 198 0
172 196 0
174 196 0
173 196 0
171 194 25
173 196 0
174 197 0
170 194 0
173 197 0
173 197 0
174 197 0
172 196 0
171 193 0
171 194 0
172 195 0
174 197 0
172 196 0
174 197 0
172 196 0
174 197 0
172 195 0
173 197 0
173 197 0
172 195 0
173 197 0
172 196 0
172 195 0
172 195 0
173 196 0
172 195 0
172 195 0
170 193 0
173 197 0
174 197 0
173 196 0
175 197 0
173 197 0
173 197 0
173 196 0
172 196 0
171 194 0
173 196 0
173 196 0
171 195 0
172 195 0
173 196 0
172 194 0
173 196 0
172 195 0
171 194 0
171 195 0
175 197 0
170 194 0
174 197 0
173 196 0
170 194 0
172 194 0
174 197 0
173 195 0
171 195 0
167 190 0
171 195 0
175 198 0
173 196 0
168 191 11
170 191 22
170 191 11
162 183 19
170 188 38
161 176 39
166 179 48
157 171 42
163 176 56
157 171 44
156 166 56
160 169 60
148 152 63
147 150 70
144 146 70
145 147 70
151 146 83
144 140 80
144 140 82
146 142 88
145 139 82
155 149 89
152 147 90
153 147 90
152 146 89
144 140 87
154 149 94
153 149 93
151 148 94
149 145 94
156 151 98
155 151 96
150 147 97
151 147 95
157 153 100
150 146 96
159 155 103
162 158 104
157 154 102
159 156 101
163 159 104
162 158 103
161 157 104
156 153 102
161 157 104
166 162 104
157 154 103
161 158 104
159 156 104
160 157 105
166 163 108
163 160 106
160 157 105
163 161 107
160 157 106
163 161 108
164 160 106
166 163 108
166 163 109
166 163 109
169 165 110
166 163 109
160 157 105
159 158 106
165 162 107
165 163 109
164 162 108
167 164 109
166 162 108
166 164 109
164 162 109
170 167 111
164 162 108
165 162 108
164 161 108
167 164 110
166 163 109
165 163 109
168 166 111
168 166 111
166 163 109
164 162 108
166 164 110
167 164 109
164 161 107
168 166 111
167 164 109
164 162 108
165 162 109
163 160 107
169 166 110
166 163 109
164 161 107
158 156 104
159 157 104
164 161 106
168 165 110
169 167 111
166 162 108
168 165 110
166 162 108
163 160 106
168 164 109
164 161 108
163 160 106
168 166 110
165 162 108
166 162 108
163 160 106
168 164 108
164 160 105
160 156 103
165 161 107
161 158 104
163 158 101
167 163 105
163 158 104
162 159 105
162 158 104
165 160 104
158 154 101
161 156 101
160 155 100
157 152 97
156 152 99
153 149 97
163 158 103
154 149 96
158 152 97
156 150 94
158 153 97
162 157 98
158 153 93
152 146 92
150 145 91
151 146 88
163 155 99
155 151 90
144 139 84
144 139 84
152 146 89
148 146 75
160 158 81
151 151 72
151 159 63
155 163 59
155 165 57
159 170 54
165 179 48
164 182 42
170 188 36
172 191 34
174 193 28
173 193 19
173 196 0
174 197 0
176 198 0
173 196 0
173 197 0
173 197 0
174 197 0
172 196 0
174 198 0
175 198 0
174 198 0
173 197 0
174 197 0
173 196 0
173 197 0
173 197 0
174 197 0
173 196 0
175 198 0
174 198 0
173 197 0
175 198 0
174 198 0
174 197 0
173 196 0
174 197 0
174 198 0
175 198 0
172 196 0
174 198 0
174 196 0
176 199 0
175 198 0
172 196 0
175 198 0
173 196 0
174 197 0
173 196 0
172 196 0
174 198 0
173 197 0
173 197 0
173 197 0
173 197 0
175 198 0
174 197 0
172 196 0
173 196 0
175 197 0
174 197 0
174 198 0
175 198 0
172 196 0
174 197 0
172 196 0
174 197 0
174 197 0
174 196 0
173 197 0
175 197 0
173 197 0
175 198 0
173 196 0
174 197 0
174 197 0
172 196 0
172 196 0
172 196 0
173 196 0
174 197 0
174 197 0
174 197 0
170 194 0
172 196 0
171 195 0
173 197 0
175 197 0
172 196 0
176 198 0
173 196 0
171 194 0
172 196 0
173 197 0
174 197 0
171 195 0
171 195 0
172 196 0
172 196 0
174 197 0
172 196 0
174 198 0
174 197 0
175 198 0
173 197 0
175 197 0
173 196 0
172 195 0
174 197 0
176 198 0
173 196 0
172 195 0
171 196 0
173 196 0
170 194 0
174 197 0
174 197 0
173 197 0
175 198 0
174 197 0
173 196 0
175 198 0
174 198 0
173 196 0
174 197 0
173 197 0
174 197 0
175 197 0
173 196 0
173 196 0
173 197 0
174 196 0
172 196 0
172 195 0
175 198 0
172 196 0
172 196 0
175 198 0
172 196 0
174 197 0
170 195 0
174 197 0
173 196 0
173 197 0
172 195 0
173 196 0
173 196 0
174 196 0
174 197 0
174 197 0
172 195 0
173 196 0
172 196 0
175 198 0
173 197 0
171 194 0
173 196 0
175 198 0
175 198 0
173 196 0
171 195 0
174 197 0
174 197 0
172 195 0
173 196 0
173 195 0
174 196 0
171 194 0
170 194 0
173 197 0
172 195 0
171 195 0
171 194 0
173 197 0
174 196 0
174 197 0
174 197 0
171 194 0
174 197 0
171 194 0
173 195 0
172 195 0
171 194 18
172 195 25
169 194 18
170 194 31
169 193 40
167 190 47
166 189 47
169 192 47
163 187 60
162 185 65
157 181 82
165 188 62
163 186 54
159 182 74
168 192 44
162 186 63
164 188 57
165 189 51
164 187 60
166 189 54
164 188 60
168 192 40
163 186 51
169 193 31
171 195 0
172 195 25
172 196 0
172 195 0
173 196 0
172 196 0
170 193 0
174 197 0
170 193 0
172 195 0
172 196 0
170 194 0
173 196 0
170 194 0
170 193 0
173 196 0
173 196 0
170 194 0
173 196 0
174 197 0
170 192 0
174 196 0
173 196 0
171 194 0
173 197 0
171 196 0
172 196 0
172 196 0
170 193 0
171 194 0
172 195 0
173 197 0
171 194 0
173 196 0
172 195 0
172 195 0
172 195 0
171 195 0
174 197 0
173 196 0
172 196 0
171 194 0
171 194 0
173 195 0
174 197 0
175 198 0
171 193 0
173 196 0
171 193 0
171 194 0
169 192 0
170 192 0
167 189 22
169 190 11
164 183 19
166 186 30
156 173 38
161 177 42
160 172 57
156 167 47
156 165 55
152 162 51
151 155 66
150 151 71
155 157 73
150 150 70
151 149 78
157 153 86
138 134 75
143 139 86
155 149 89
146 141 89
155 150 89
145 141 84
154 149 92
141 137 87
149 146 91
149 144 93
144 140 90
148 144 93
158 153 98
161 156 99
154 150 97
156 151 98
164 160 104
154 150 98
160 156 99
155 152 99
157 153 101
156 152 100
153 150 101
149 147 100
155 151 100
160 156 103
160 157 105
162 159 105
164 160 105
167 163 109
161 157 105
161 157 104
161 159 105
156 155 103
165 161 108
162 160 107
164 160 107
166 162 108
163 160 107
159 157 105
163 161 108
168 164 110
161 158 105
164 162 108
165 163 109
170 167 112
167 164 109
166 163 109
167 164 109
172 168 112
166 163 110
164 161 108
166 164 110
167 164 109
159 158 106
171 168 112
165 162 108
166 164 110
160 158 106
170 167 111
162 159 106
169 166 110
173 170 113
168 166 110
164 161 107
168 165 110
169 165 110
167 164 109
172 169 112
167 164 109
167 164 110
169 166 110
167 164 109
167 165 110
167 163 109
164 162 108
164 162 108
171 168 112
173 169 112
167 165 109
164 161 106
167 164 109
173 169 112
167 164 109
162 160 107
164 161 107
171 167 111
161 159 106
155 153 102
166 163 108
164 160 106
163 160 106
165 160 105
160 157 103
166 162 105
164 160 104
159 156 103
158 155 101
163 158 103
160 156 102
161 157 102
157 153 99
163 158 102
162 158 104
159 155 101
160 156 102
151 147 93
160 154 97
156 150 97
163 158 101
162 157 100
152 148 90
160 154 97
154 149 94
160 154 98
164 158 97
163 158 98
151 145 92
152 148 90
146 142 87
153 148 89
142 137 82
146 141 82
153 148 86
152 148 79
144 143 71
154 155 74
158 165 65
154 162 63
153 164 51
159 171 51
169 182 52
163 179 42
164 181 36
164 183 30
170 189 34
176 195 30
172 194 22
173 197 0
174 196 0
174 197 0
173 196 0
174 197 0
175 198 0
173 196 0
173 196 0
174 197 0
173 197 0
174 197 0
173 197 0
173 197 0
172 196 0
173 197 0
176 198 0
173 197 0
174 197 0
174 198 0
173 197 0
174 197 0
173 196 0
176 198 0
173 197 0
175 197 0
172 196 0
174 198 0
172 195 0
170 194 0
173 196 0
174 197 0
173 197 0
173 197 0
174 198 0
173 197 0
171 195 0
173 197 0
173 197 0
173 197 0
172 196 0
175 197 0
174 197 0
174 197 0
173 196 0
174 197 0
173 196 0
170 194 0
172 196 0
174 198 0
172 196 0
174 197 0
172 196 0
174 197 0
175 198 0
172 196 0
174 198 0
174 197 0
174 197 0
175 198 0
172 196 0
172 196 0
175 198 0
172 196 0
171 195 0
173 196 0
174 197 0
172 195 0
172 195 0
172 195 0
173 196 0
175 198 0
173 196 0
174 197 0
171 195 0
172 196 0
175 198 0
171 195 0
172 195 0
172 196 0
174 197 0
171 195 0
172 196 0
173 196 0
175 197 0
172 196 0
173 197 0
175 198 0
174 197 0
172 196 0
174 196 0
175 198 0
172 196 0
174 197 0
170 194 0
171 195 0
170 193 0
173 197 0
170 193 0
172 196 0
174 197 0
173 197 0
173 195 0
174 198 0
171 195 0
172 196 0
172 196 0
174 197 0
174 198 0
173 197 0
175 198 0
174 197 0
174 198 0
172 196 0
174 197 0
172 196 0
172 196 0
174 198 0
171 195 0
174 197 0
176 199 0
173 196 0
175 198 0
174 197 0
175 198 0
169 192 0
171 195 0
174 198 0
173 196 0
172 196 0
172 195 0
172 195 0
174 197 0
172 196 0
172 196 0
173 197 0
173 197 0
172 195 0
173 196 0
174 197 0
170 194 0
173 196 0
171 195 0
173 196 0
174 197 0
174 197 0
172 195 0
174 198 0
173 196 0
172 195 0
174 197 0
172 195 0
175 198 0
172 196 0
172 196 0
172 195 0
172 196 0
173 196 0
174 197 0
172 195 0
170 193 0
171 194 0
173 197 0
171 195 0
173 197 0
175 198 0
171 194 18
172 196 18
172 195 40
163 187 67
166 189 51
169 191 54
153 177 84
160 184 72
150 174 94
146 171 99
146 170 100
152 175 95
142 167 111
147 171 102
133 159 122
136 161 118
139 164 111
137 162 118
126 152 130
136 161 120
137 162 120
135 161 120
132 158 124
142 167 105
148 173 94
145 169 101
144 169 103
147 171 100
147 172 99
159 183 74
153 178 90
163 186 62
164 188 57
168 191 44
163 187 57
169 193 36
171 195 0
173 196 0
173 197 0
173 197 0
172 195 0
174 197 0
172 196 0
172 196 0
174 197 0
171 194 0
174 196 0
173 196 0
172 195 0
174 197 0
172 196 0
175 198 0
172 196 0
174 197 0
172 195 0
173 196 0
174 197 0
173 197 0
173 197 0
173 196 0
173 196 0
172 195 0
173 197 0
172 196 0
172 196 0
173 196 0
174 196 0
172 196 0
171 195 0
173 196 0
174 197 0
175 198 0
173 195 0
172 196 0
174 197 0
174 197 0
172 195 0
172 195 0
172 196 0
173 196 11
170 191 28
164 185 16
168 188 30
166 185 32
161 175 37
166 183 37
153 165 46
158 170 48
155 163 60
143 148 56
154 159 67
142 149 51
156 157 76
143 145 71
143 141 77
151 148 82
157 153 88
145 140 78
146 140 86
147 142 86
150 144 88
145 140 87
148 143 90
146 141 85
153 148 92
148 144 90
149 145 92
149 146 95
148 144 91
155 151 94
159 154 96
161 155 99
157 152 97
156 153 99
157 153 100
156 152 98
160 156 102
154 151 99
161 157 104
156 152 99
160 156 103
166 161 105
162 159 106
164 161 106
161 158 105
163 160 106
159 156 104
162 160 107
163 160 107
165 162 107
160 158 106
159 157 106
163 160 106
166 162 108
166 163 109
162 160 107
170 167 111
168 165 110
167 164 109
168 165 110
165 163 109
160 157 105
161 158 105
160 158 105
165 162 108
170 167 111
166 164 110
166 163 108
167 164 109
163 161 108
162 160 108
164 162 109
166 164 110
166 163 109
170 167 112
170 166 110
168 164 109
166 164 109
168 165 109
169 166 110
167 164 109
163 161 107
166 164 109
168 166 110
171 167 111
166 163 109
166 163 109
168 165 109
164 162 108
166 163 108
168 166 110
166 164 110
163 161 108
165 162 108
167 164 109
161 159 106
163 160 106
166 164 109
162 159 106
170 167 110
170 166 110
169 167 111
164 162 108
167 163 108
162 159 105
161 159 106
168 164 108
166 163 108
165 162 106
163 159 104
164 160 105
168 164 108
164 160 106
165 160 104
166 162 106
169 163 106
165 162 107
166 162 106
168 164 106
161 157 103
159 155 101
154 149 94
164 159 100
157 152 99
158 153 98
160 155 99
156 152 97
159 154 96
160 155 100
164 158 99
162 156 99
157 152 95
159 154 95
157 151 93
148 143 88
151 145 91
161 155 94
159 153 98
146 141 87
149 143 81
145 140 85
150 147 84
155 149 84
149 147 78
147 148 72
153 158 67
159 166 64
156 164 59
160 172 53
162 176 45
164 181 36
167 186 32
167 188 25
169 191 19
172 193 25
173 196 0
173 197 0
174 197 0
172 194 0
173 196 0
173 195 0
173 197 0
175 198 0
172 196 0
175 198 0
174 197 0
175 198 0
174 197 0
175 197 0
171 195 0
175 198 0
174 196 0
174 197 0
173 197 0
175 198 0
174 198 0
173 197 0
175 198 0
175 198 0
173 197 0
173 196 0
174 197 0
172 196 0
174 198 0
174 197 0
175 198 0
174 197 0
176 198 0
174 197 0
173 197 0
174 197 0
173 197 0
176 198 0
175 198 0
173 196 0
175 198 0
173 197 0
172 196 0
173 196 0
174 197 0
173 197 0
173 197 0
173 197 0
174 197 0
173 196 0
174 197 0
172 196 0
173 197 0
174 198 0
172 196 0
173 197 0
172 196 0
174 198 0
172 194 0
174 198 0
174 198 0
172 196 0
173 196 0
173 197 0
174 198 0
173 196 0
173 196 0
173 197 0
173 197 0
173 195 0
174 197 0
174 197 0
173 196 0
172 195 0
174 196 0
174 198 0
173 196 0
174 197 0
175 198 0
172 196 0
172 195 0
172 195 0
171 195 0
173 196 0
175 198 0
174 197 0
172 195 0
174 197 0
173 197 0
172 196 0
174 198 0
171 194 0
174 197 0
172 195 0
171 195 0
171 195 0
174 197 0
174 197 0
173 196 0
174 198 0
172 196 0
174 198 0
173 196 0
173 197 0
174 197 0
173 196 0
174 197 0
174 197 0
171 195 0
174 197 0
171 194 0
172 195 0
174 197 0
174 197 0
173 197 0
170 193 0
174 197 0
173 197 0
171 194 0
174 198 0
174 197 0
174 197 0
174 197 0
171 194 0
170 194 0
172 195 0
174 197 0
174 197 0
174 197 0
174 197 0
173 196 0
173 196 0
174 197 0
174 197 0
172 196 0
175 198 0
174 198 0
175 198 0
172 196 0
174 197 0
174 197 0
169 192 0
173 196 0
175 198 0
174 198 0
174 197 0
176 198 0
172 195 0
174 197 0
171 194 0
172 195 0
174 197 0
173 195 0
174 197 0
171 195 0
171 194 0
172 195 0
171 195 0
174 197 0
173 197 0
171 194 25
171 195 25
168 191 40
166 189 44
164 188 57
158 182 78
154 178 90
150 175 92
139 164 113
130 155 126
121 148 137
123 149 133
111 138 149
115 142 145
108 136 152
100 129 157
99 128 158
94 124 162
96 125 161
95 125 161
94 123 163
85 116 167
89 119 163
85 116 166
84 115 169
97 126 159
91 121 164
98 127 157
98 127 157
105 133 154
101 130 155
113 141 142
107 136 149
118 144 140
129 155 129
125 150 134
118 145 138
147 171 100
145 170 105
141 166 108
158 181 81
164 186 67
156 180 80
161 185 67
168 192 44
173 196 0
171 195 18
173 197 0
174 196 0
175 197 0
173 196 0
172 194 0
172 196 0
171 194 0
171 195 0
171 193 0
174 198 0
172 196 0
172 195 0
173 196 0
172 194 0
174 197 0
171 195 0
175 197 0
172 195 0
173 196 0
173 196 0
175 198 0
174 197 0
170 193 0
170 193 0
173 197 0
175 198 0
172 195 0
174 197 0
172 195 0
173 197 0
170 193 0
169 192 0
171 193 0
171 194 0
172 195 0
171 194 0
172 195 0
170 194 0
166 186 19
168 186 30
161 178 34
170 185 39
163 180 35
163 177 42
153 166 45
159 170 53
161 167 66
152 161 53
154 159 66
149 153 64
147 150 68
148 147 75
149 147 82
149 145 81
145 141 81
148 143 86
150 145 85
140 136 84
146 142 86
148 143 89
145 140 82
149 144 91
150 146 91
147 143 89
162 156 100
151 146 91
147 144 91
157 153 97
162 156 99
156 152 100
160 155 100
151 148 96
165 160 104
151 148 98
156 153 102
157 154 102
154 150 100
152 149 98
156 152 101
156 152 99
164 160 104
159 156 104
164 160 105
161 158 104
160 157 106
156 153 102
159 156 104
160 158 106
168 165 110
163 159 106
155 153 103
161 158 106
168 164 109
168 165 110
161 159 107
159 158 107
161 158 105
166 164 109
165 162 108
167 165 110
161 159 106
170 167 111
164 162 108
167 165 111
165 163 108
171 168 112
166 163 108
170 167 111
162 160 107
165 163 109
171 168 112
167 165 110
168 165 110
166 163 108
166 163 108
171 168 112
171 168 112
170 167 111
167 165 110
164 162 108
165 162 108
167 164 110
167 164 109
167 164 110
166 163 109
165 162 108
165 162 108
168 165 110
165 161 107
167 164 109
165 162 108
166 163 108
169 166 110
160 157 104
167 164 109
165 162 108
166 163 108
167 164 109
165 161 106
163 161 105
162 159 105
171 167 110
171 166 109
171 166 110
165 162 107
169 165 109
165 162 106
165 162 106
165 162 106
156 153 101
162 159 104
164 160 104
164 159 104
165 161 106
167 164 108
166 161 102
158 155 99
170 164 106
159 155 99
163 158 101
162 157 100
157 153 99
167 162 103
154 150 95
157 151 97
156 152 95
157 153 100
165 159 102
159 152 95
146 140 85
157 151 95
151 146 90
145 140 87
159 152 95
158 152 93
142 138 84
153 148 90
159 153 93
147 141 85
152 146 87
146 141 79
157 156 82
157 158 75
150 152 75
152 157 67
155 163 59
156 168 52
158 171 49
164 179 44
164 180 41
164 181 32
170 190 22
170 191 22
171 193 11
173 196 0
173 196 0
173 197 0
174 196 0
174 197 0
173 197 0
175 197 0
173 196 0
173 196 0
173 197 0
172 195 0
172 196 0
172 196 0
175 198 0
173 197 0
173 196 0
173 196 0
172 196 0
173 196 0
172 196 0
172 195 0
173 196 0
174 198 0
173 196 0
174 197 0
173 196 0
175 198 0
175 198 0
174 198 0
172 196 0
175 197 0
174 197 0
173 197 0
174 197 0
172 196 0
175 198 0
174 198 0
173 197 0
171 195 0
174 198 0
173 197 0
171 196 0
174 197 0
174 197 0
174 198 0
173 196 0
173 196 0
170 194 0
175 198 0
174 197 0
173 197 0
175 198 0
172 196 0
175 198 0
174 198 0
173 197 0
173 196 0
177 199 0
174 198 0
173 195 0
174 198 0
173 196 0
172 196 0
173 197 0
175 198 0
176 199 0
173 197 0
174 197 0
175 198 0
173 197 0
175 198 0
173 196 0
172 196 0
173 197 0
173 196 0
175 198 0
174 197 0
174 198 0
173 196 0
175 198 0
172 195 0
172 195 0
172 196 0
175 198 0
174 197 0
175 198 0
173 196 0
173 197 0
174 197 0
172 197 0
173 196 0
171 194 0
172 196 0
173 196 0
173 196 0
171 195 0
173 197 0
174 197 0
172 195 0
174 197 0
173 197 0
172 196 0
174 197 0
170 193 0
175 198 0
174 197 0
175 198 0
175 198 0
175 198 0
173 197 0
173 196 0
175 198 0
174 197 0
174 196 0
173 197 0
175 198 0
173 196 0
173 197 0
171 194 0
173 196 0
173 197 0
173 196 0
172 195 0
171 194 0
175 198 0
172 195 0
174 197 0
171 194 0
172 196 0
171 195 0
172 196 0
174 197 0
173 196 0
174 198 0
172 195 0
171 194 0
173 196 0
170 194 0
173 197 0
172 195 0
173 196 0
172 195 0
172 195 0
173 197 0
173 197 0
172 196 0
174 197 0
173 197 0
174 197 0
176 199 0
174 196 0
171 194 0
174 197 0
174 197 0
172 196 0
174 197 18
174 197 25
169 193 36
169 192 31
161 185 67
159 183 78
145 171 100
143 167 108
136 161 120
127 153 126
114 140 147
108 136 151
99 128 159
86 118 167
82 114 168
73 107 175
75 108 175
63 100 179
61 98 181
62 99 181
62 99 181
61 99 181
61 99 181
62 99 181
62 99 181
62 99 181
61 99 181
61 99 181
61 98 180
62 99 180
61 98 181
61 98 180
62 99 180
62 99 181
62 99 181
70 105 176
70 104 176
72 106 173
84 116 169
80 112 170
82 114 167
88 119 163
97 127 158
112 140 147
119 145 140
131 156 124
131 156 127
142 166 108
151 175 94
152 176 92
158 182 78
161 184 65
165 188 40
169 192 31
173 195 0
170 194 0
174 197 0
173 196 0
174 198 0
173 196 0
174 196 0
172 195 0
170 192 0
175 198 0
173 196 0
171 193 0
172 196 0
172 196 0
173 196 0
171 195 0
174 197 0
172 195 0
173 196 0
174 197 0
175 198 0
174 197 0
173 196 0
173 196 0
174 197 0
170 193 0
173 197 0
174 197 0
174 197 0
173 196 0
173 196 0
171 194 0
172 193 0
171 193 0
170 192 19
169 189 22
169 187 30
166 185 32
159 177 28
154 168 40
162 173 52
153 163 49
162 170 58
150 157 57
154 162 60
150 156 62
141 147 59
147 147 73
150 148 76
146 143 80
146 142 84
141 136 79
142 138 81
149 144 85
150 144 88
137 132 81
145 140 88
143 139 88
147 143 89
157 152 97
147 142 89
151 147 93
141 138 89
148 144 93
154 150 100
152 147 96
154 150 98
156 151 98
159 155 102
148 144 92
147 145 95
157 154 102
165 161 105
150 147 96
156 153 101
162 158 104
160 157 103
151 149 100
150 147 98
163 159 105
160 158 105
159 156 103
162 159 106
165 161 107
162 159 106
165 161 107
161 158 105
162 159 106
163 161 108
163 160 107
166 163 108
162 160 107
167 163 109
160 157 105
164 162 109
167 164 109
163 160 107
168 165 109
161 158 105
170 167 111
165 162 108
165 162 108
167 164 110
166 163 109
169 166 111
164 162 108
167 164 110
168 165 110
165 163 109
165 162 108
167 165 110
171 169 112
172 169 112
169 166 110
169 167 112
168 166 110
169 167 112
169 166 110
171 168 112
172 169 112
166 163 109
165 163 109
169 165 109
168 166 110
168 166 110
166 164 109
170 167 111
171 169 112
167 164 109
166 163 108
170 166 110
168 166 110
164 161 106
169 165 109
163 160 106
169 165 109
168 164 108
163 160 106
163 160 106
163 159 104
164 161 107
163 160 105
167 163 108
163 159 105
165 161 106
169 164 108
166 162 106
165 162 106
164 160 104
169 165 109
164 159 104
162 157 101
167 162 106
164 158 103
161 157 101
157 153 99
166 161 105
162 156 101
160 155 99
164 158 103
160 156 99
161 156 98
156 151 95
161 156 99
158 153 96
153 148 90
152 147 95
161 155 96
162 156 98
155 149 93
157 151 93
153 148 90
144 138 85
149 143 85
147 142 85
146 140 86
144 137 84
149 145 83
160 155 89
141 140 70
151 152 69
150 152 70
146 152 56
158 166 57
157 169 51
162 176 39
166 180 47
167 184 37
168 187 30
171 192 19
171 192 25
173 197 0
174 196 0
173 196 0
173 196 0
174 197 0
173 197 0
173 197 0
174 197 0
173 196 0
174 197 0
174 198 0
173 196 0
172 196 0
173 197 0
173 196 0
174 196 0
174 198 0
173 197 0
172 196 0
173 197 0
174 197 0
173 197 0
173 196 0
172 196 0
175 198 0
173 197 0
172 196 0
173 197 0
175 198 0
173 196 0
173 197 0
174 197 0
175 198 0
173 197 0
173 196 0
175 198 0
173 197 0
173 197 0
173 197 0
173 197 0
171 194 0
172 196 0
173 196 0
174 198 0
175 198 0
173 196 0
174 196 0
173 196 0
174 197 0
173 197 0
174 197 0
173 196 0
175 198 0
173 197 0
172 195 0
173 196 0
172 196 0
174 197 0
172 196 0
172 196 0
175 198 0
173 197 0
173 197 0
170 194 0
173 197 0
175 198 0
176 198 0
175 198 0
173 197 0
175 198 0
174 197 0
173 197 0
173 196 0
172 196 0
174 197 0
172 196 0
172 196 0
171 195 0
172 197 0
171 195 0
171 195 0
173 197 0
173 197 0
174 197 0
174 198 0
174 198 0
174 197 0
173 195 0
173 196 0
174 197 0
174 197 0
174 198 0
171 195 0
173 197 0
172 196 0
175 198 0
175 198 0
173 197 0
174 198 0
172 195 0
176 199 0
174 196 0
172 196 0
173 196 0
174 197 0
170 195 0
174 198 0
172 195 0
173 196 0
171 195 0
174 197 0
175 198 0
174 197 0
175 198 0
173 195 0
171 194 0
171 195 0
172 196 0
174 197 0
174 198 0
174 197 0
171 195 0
172 196 0
173 197 0
170 194 0
172 195 0
172 196 0
172 195 0
174 198 0
174 197 0
171 194 0
173 197 0
173 196 0
173 196 0
170 193 0
170 195 0
174 197 0
173 196 0
174 197 0
175 197 0
175 198 0
173 197 0
171 194 0
171 195 0
173 197 0
173 197 0
174 197 0
173 197 0
175 198 0
174 197 0
172 196 0
172 196 0
174 198 0
169 192 44
164 188 54
160 184 72
154 178 88
155 178 86
138 163 114
124 151 133
121 147 137
117 143 144
88 120 165
87 118 167
71 106 175
65 102 179
66 102 179
61 99 180
62 99 181
61 98 181
61 98 181
62 99 181
61 99 181
62 99 181
62 99 181
61 98 181
61 99 181
61 99 181
62 99 181
61 99 181
61 99 181
62 99 181
62 99 181
61 98 180
61 99 181
61 99 181
61 99 181
61 99 181
62 99 180
61 98 181
62 99 181
61 99 181
62 99 181
62 99 180
62 99 180
62 99 180
62 99 180
65 101 178
63 100 178
67 103 176
77 109 170
88 118 167
98 127 157
119 146 140
125 151 130
135 160 116
135 160 115
155 179 86
164 187 60
170 192 40
170 192 36
169 193 36
171 195 0
173 195 0
173 197 0
174 197 0
173 197 0
174 197 0
172 195 0
171 193 0
171 194 0
171 195 0
175 197 0
171 195 0
170 193 0
173 197 0
172 195 0
172 195 0
169 193 0
172 195 0
174 197 0
174 197 0
174 197 0
173 195 0
169 193 0
174 197 0
173 196 0
172 195 0
173 196 0
171 194 0
172 195 11
172 195 0
173 195 11
169 189 16
162 183 28
166 183 30
167 186 30
156 170 41
159 173 45
166 177 54
152 163 48
154 160 53
146 152 58
155 160 64
156 158 75
146 146 72
148 145 78
146 145 76
145 140 83
141 137 79
155 149 91
147 143 88
145 141 89
149 144 90
149 144 91
142 137 85
142 138 83
148 144 94
146 142 91
154 150 95
154 149 96
143 140 91
157 152 97
146 143 91
160 155 102
166 161 105
156 152 97
155 151 98
162 156 100
156 152 97
155 152 98
152 149 99
158 154 101
153 150 100
160 157 105
162 158 104
161 158 104
164 160 106
160 158 105
161 158 104
155 153 103
158 155 103
155 154 104
163 160 106
161 157 105
163 160 108
158 156 105
163 161 108
159 156 104
162 160 107
167 164 110
168 165 110
166 163 108
166 164 109
168 164 109
168 165 110
167 164 110
166 163 109
165 162 108
165 163 109
168 165 111
167 164 110
163 161 108
169 166 110
168 166 110
167 164 109
169 166 111
168 165 110
171 168 112
170 167 112
171 168 112
168 164 109
173 170 113
168 166 110
167 164 109
171 168 112
171 167 111
166 163 108
171 167 111
170 167 111
171 168 112
171 167 110
170 167 111
166 163 109
166 164 109
162 160 107
171 167 110
167 164 109
163 161 107
165 162 108
169 166 110
166 163 109
167 164 108
169 165 109
163 159 105
170 166 110
170 166 110
168 165 109
170 166 110
168 164 107
167 163 106
173 168 110
168 164 108
166 161 106
167 164 106
171 167 110
164 160 105
166 161 104
164 160 103
163 159 104
166 162 105
162 158 103
165 162 105
164 160 104
161 156 100
163 157 102
160 155 99
169 164 103
149 145 95
162 158 100
167 160 102
158 153 97
160 156 99
159 153 98
162 157 97
150 144 89
157 152 96
153 147 93
161 155 95
148 143 84
155 149 91
144 140 84
154 148 90
148 142 84
157 150 91
145 140 75
142 137 79
151 147 84
152 149 80
152 153 76
156 158 67
151 153 66
159 169 58
149 159 48
155 168 41
160 172 49
164 180 36
164 184 25
169 189 25
175 196 22
171 194 11
174 197 0
174 197 0
175 197 0
173 196 0
173 196 0
175 198 0
173 197 0
173 197 0
173 197 0
173 196 0
172 196 0
174 198 0
172 196 0
174 198 0
173 196 0
175 198 0
173 197 0
173 197 0
174 198 0
174 197 0
173 196 0
174 197 0
174 197 0
174 198 0
172 196 0
173 197 0
174 198 0
171 195 0
175 198 0
171 195 0
173 197 0
173 197 0
172 196 0
174 197 0
174 197 0
173 196 0
174 197 0
174 197 0
174 197 0
171 195 0
174 197 0
172 196 0
173 196 0
173 196 0
174 197 0
174 197 0
175 198 0
173 197 0
173 196 0
174 197 0
172 196 0
174 197 0
175 198 0
174 197 0
172 195 0
172 195 0
173 196 0
173 196 0
172 196 0
173 196 0
174 197 0
174 197 0
171 194 0
172 196 0
175 198 0
173 196 0
174 197 0
174 197 0
175 198 0
172 195 0
173 197 0
174 197 0
173 197 0
172 196 0
172 196 0
174 198 0
174 197 0
173 196 0
171 195 0
174 198 0
171 196 0
171 195 0
172 195 0
172 196 0
169 194 0
175 198 0
176 198 0
171 194 0
175 197 0
172 195 0
171 195 0
171 195 0
173 197 0
173 197 0
173 196 0
174 197 0
173 196 0
172 195 0
170 194 0
171 196 0
172 195 0
175 198 0
174 197 0
172 196 0
169 193 0
173 196 0
171 195 0
173 196 0
172 196 0
172 196 0
172 195 0
174 197 0
172 196 0
172 195 0
172 195 0
171 194 0
173 196 0
173 195 0
173 197 0
172 196 0
173 196 0
174 197 0
174 197 0
172 196 0
173 196 0
170 194 0
171 195 0
175 198 0
172 196 0
173 196 0
170 194 0
173 197 0
172 195 0
173 197 0
172 195 0
173 197 0
173 197 0
174 197 0
174 197 0
173 196 0
174 197 0
172 196 0
174 197 0
174 197 0
172 195 0
171 195 0
171 194 0
174 197 0
172 195 18
169 192 36
169 193 36
167 191 47
158 181 82
150 173 99
144 168 108
130 155 130
113 140 147
100 129 156
91 121 164
73 107 175
62 99 181
61 99 181
61 99 180
61 99 181
61 98 181
61 99 181
61 99 181
61 98 181
61 99 181
61 99 181
62 99 181
61 99 181
61 98 181
61 99 181
61 98 181
61 99 181
61 99 181
62 99 181
62 99 181
61 99 181
62 99 181
62 99 181
62 99 181
61 99 181
61 99 181
62 99 181
61 99 181
62 99 181
61 99 181
62 99 181
61 99 181
61 99 181
61 99 181
62 99 180
62 99 180
61 98 180
61 98 180
62 99 181
62 99 181
62 99 180
61 98 179
61 98 179
82 115 169
77 109 169
91 122 164
111 138 147
120 146 135
132 157 121
139 163 113
152 175 90
159 183 70
164 188 47
168 192 25
173 195 0
174 197 0
172 195 0
174 196 0
171 193 0
173 196 0
172 195 0
172 196 0
173 196 0
172 195 0
173 196 0
173 197 0
173 195 0
167 190 0
172 196 0
171 194 0
174 197 0
174 196 0
174 197 0
174 197 0
171 194 0
173 196 0
173 196 0
173 197 0
174 196 0
172 196 0
173 197 0
167 187 19
169 190 19
170 190 22
167 187 22
166 183 36
160 179 22
157 171 36
152 162 44
161 174 53
158 167 49
153 160 64
142 149 60
147 153 61
147 150 67
139 140 70
146 143 78
141 138 73
156 151 87
145 139 78
150 146 89
157 151 93
146 141 87
149 144 88
143 138 84
146 142 87
157 152 97
144 140 88
147 143 92
145 141 93
151 147 93
157 153 99
149 145 94
154 150 96
149 146 93
154 150 98
151 147 96
152 149 97
151 148 93
160 157 101
156 153 100
152 150 100
157 153 98
158 155 103
159 155 103
155 152 102
158 155 103
157 155 105
162 159 107
156 154 103
156 154 103
162 159 106
163 160 106
161 157 103
160 158 106
167 163 108
159 157 106
166 162 108
163 160 107
161 159 106
167 165 109
166 164 110
161 158 106
165 162 108
169 166 111
166 163 110
165 163 109
162 158 106
166 163 109
158 156 104
167 164 110
165 163 109
171 167 110
161 159 107
167 165 110
172 168 112
168 165 110
164 162 108
168 165 110
164 161 108
168 165 110
165 163 109
171 168 113
164 161 108
170 167 110
166 163 108
168 164 109
170 167 111
165 162 108
168 165 110
172 169 112
170 167 112
170 167 111
167 163 108
170 166 110
169 165 109
169 166 110
166 163 108
164 161 107
170 167 111
168 165 109
164 161 108
165 162 106
169 166 110
167 164 109
167 164 108
168 164 108
165 161 106
166 162 106
163 160 104
165 161 106
169 166 109
169 165 108
164 161 106
168 164 106
169 165 108
162 159 104
171 165 106
168 163 106
164 160 105
163 159 100
159 154 99
161 156 101
166 161 103
163 159 102
160 156 99
167 161 102
158 154 99
159 155 100
164 159 101
164 159 99
160 153 97
167 161 101
153 149 92
161 156 95
152 147 90
151 146 88
159 152 95
151 145 92
152 146 93
151 144 84
156 150 88
155 149 91
146 141 84
151 144 87
154 148 87
141 136 80
146 140 81
152 149 76
152 149 82
137 141 58
149 150 67
154 160 62
157 165 60
163 177 48
160 175 44
168 183 37
165 183 39
165 185 25
168 190 19
170 193 11
174 196 16
174 197 0
176 199 0
174 197 0
172 196 0
174 197 0
173 197 0
172 195 0
176 198 0
173 196 0
173 197 0
175 198 0
173 196 0
173 196 0
174 197 0
174 196 0
174 198 0
174 197 0
174 197 0
174 198 0
174 197 0
174 198 0
174 197 0
176 199 0
174 197 0
172 195 0
174 197 0
173 197 0
172 196 0
172 196 0
172 195 0
174 197 0
172 196 0
175 198 0
172 196 0
174 197 0
170 195 0
172 196 0
175 198 0
175 198 0
172 195 0
173 196 0
173 196 0
174 197 0
173 197 0
170 193 0
173 196 0
173 196 0
175 198 0
172 196 0
175 198 0
174 198 0
174 197 0
170 194 0
175 198 0
173 196 0
175 197 0
173 197 0
173 196 0
174 197 0
174 197 0
173 196 0
172 196 0
173 196 0
174 197 0
172 195 0
172 196 0
174 197 0
173 197 0
173 197 0
173 196 0
172 196 0
173 197 0
174 198 0
174 197 0
174 197 0
172 196 0
172 195 0
173 196 0
173 197 0
172 196 0
174 197 0
173 197 0
172 195 0
172 196 0
173 197 0
173 197 0
172 195 0
176 198 0
175 198 0
171 196 0
174 197 0
172 196 0
172 195 0
174 197 0
174 197 0
173 197 0
176 198 0
173 197 0
171 196 0
173 196 0
172 196 0
171 195 0
174 197 0
175 197 0
175 198 0
174 197 0
172 196 0
172 195 0
171 194 0
173 196 0
174 197 0
171 195 0
173 196 0
172 196 0
172 194 0
172 196 0
174 196 0
171 195 0
175 198 0
173 196 0
174 197 0
171 195 0
172 196 0
172 196 0
171 194 0
172 194 0
172 195 0
171 194 0
173 197 0
173 196 0
172 196 0
175 198 0
173 196 0
173 196 0
173 196 0
172 196 0
174 197 0
172 196 0
172 196 0
172 195 0
174 197 0
170 193 0
175 197 0
172 196 0
171 195 0
173 197 18
167 191 40
165 189 51
157 181 78
142 166 111
128 155 129
129 155 127
111 139 147
81 113 170
74 108 174
68 103 178
61 99 181
61 99 181
61 98 178
61 98 180
62 99 181
62 99 180
61 99 181
61 98 181
61 99 181
62 99 181
61 99 181
61 98 181
61 98 181
61 99 181
61 99 181
62 99 181
62 99 181
61 99 181
61 99 181
62 99 181
61 98 181
61 99 181
61 99 181
62 99 181
61 99 181
61 98 180
61 99 181
61 98 181
62 99 181
61 98 180
62 99 181
62 99 181
61 98 180
61 98 181
62 99 181
62 99 180
61 99 181
61 98 180
62 99 181
61 98 180
61 98 180
62 99 181
61 98 178
61 98 179
62 99 180
62 99 180
61 98 179
62 99 180
70 104 175
72 106 175
88 118 165
104 132 150
103 130 151
132 157 125
145 169 101
154 178 88
156 180 83
163 186 57
170 193 31
171 194 0
173 196 0
172 195 0
173 196 0
173 195 0
174 197 0
173 196 0
174 197 0
174 196 0
172 196 0
173 196 0
169 192 0
171 195 0
171 194 0
171 194 0
173 196 0
172 195 0
169 192 0
173 196 0
174 197 0
172 194 0
174 197 0
169 192 0
170 192 11
169 191 19
168 188 25
165 184 32
170 188 34
166 183 31
160 177 34
161 175 45
154 165 45
156 170 42
158 167 56
156 163 61
152 159 56
144 145 68
151 153 71
139 138 72
131 130 64
134 131 71
141 136 79
144 138 85
134 130 76
141 137 83
142 138 85
148 145 89
148 143 88
147 143 88
153 148 92
147 143 90
147 143 88
153 149 94
152 148 93
151 146 91
150 147 95
148 145 96
142 140 95
149 147 98
154 150 98
160 156 102
161 157 104
151 147 98
153 150 99
150 147 98
151 149 100
161 158 105
159 157 103
162 160 107
157 154 102
151 148 99
159 156 104
152 150 102
162 159 107
154 152 101
156 154 103
164 161 106
159 157 105
163 161 108
168 165 109
159 157 105
162 158 106
158 155 104
163 160 108
167 165 110
167 164 110
162 161 109
168 166 111
168 164 110
160 158 106
164 161 108
165 163 110
166 164 109
164 162 108
168 164 110
167 165 111
167 164 109
169 166 110
170 168 112
166 164 109
170 167 112
171 168 111
170 166 110
168 165 109
169 167 112
167 164 109
169 166 111
170 167 111
170 167 111
172 168 111
166 163 108
170 168 112
166 163 109
171 167 111
172 169 112
171 167 111
170 167 111
168 165 110
168 165 109
167 164 109
168 164 108
170 166 110
170 166 110
168 165 109
169 166 110
166 162 107
166 163 107
172 168 111
168 164 108
163 159 105
162 158 105
166 163 106
164 161 106
165 161 107
164 161 105
166 163 108
161 158 104
165 161 106
171 166 109
166 163 106
169 164 108
165 161 104
167 163 104
166 162 103
161 158 101
169 163 104
167 161 104
159 155 99
164 160 102
160 155 98
160 156 102
155 151 93
155 150 93
171 166 106
165 159 102
162 158 102
147 142 87
162 156 96
154 150 93
151 146 93
156 151 94
160 154 93
162 156 99
161 155 95
153 146 88
152 147 88
157 151 95
149 143 87
152 146 84
149 142 79
146 141 81
140 134 75
160 158 84
159 161 73
159 160 78
151 157 65
152 163 53
162 170 60
164 175 53
162 177 34
161 179 22
166 187 19
170 190 25
171 193 0
170 192 16
173 196 0
173 197 0
173 196 0
174 196 0
174 197 0
173 196 0
173 195 0
172 196 0
174 197 0
173 196 0
174 197 0
175 197 0
172 196 0
172 196 0
174 197 0
172 196 0
173 197 0
174 197 0
172 196 0
174 197 0
172 195 0
173 196 0
172 196 0
173 197 0
172 196 0
175 198 0
174 197 0
173 197 0
174 197 0
175 198 0
173 197 0
175 198 0
175 197 0
173 197 0
175 198 0
173 197 0
174 197 0
175 198 0
173 197 0
176 199 0
174 197 0
173 197 0
174 197 0
173 197 0
175 198 0
174 197 0
175 198 0
172 196 0
172 196 0
173 197 0
174 196 0
172 196 0
171 195 0
174 197 0
172 194 0
173 197 0
173 197 0
172 196 0
171 195 0
174 197 0
173 197 0
175 197 0
174 197 0
173 197 0
175 198 0
173 196 0
173 197 0
171 195 0
173 197 0
172 196 0
174 197 0
173 197 0
174 197 0
173 196 0
173 196 0
173 197 0
174 197 0
173 197 0
173 197 0
172 195 0
171 195 0
173 196 0
172 195 0
173 197 0
172 196 0
174 197 0
173 196 0
176 198 0
174 196 0
173 197 0
172 195 0
171 195 0
173 196 0
173 197 0
171 195 0
173 196 0
173 196 0
174 197 0
175 198 0
174 198 0
172 196 0
172 196 0
172 196 0
172 195 0
174 197 0
172 196 0
172 195 0
171 195 0
173 197 0
172 196 0
173 196 0
174 197 0
174 197 0
173 197 0
174 197 0
172 196 0
171 194 0
175 197 0
172 196 0
172 196 0
172 196 0
175 198 0
174 197 0
173 196 0
170 193 0
171 195 0
172 195 0
173 197 0
172 195 0
173 196 0
173 195 0
172 196 0
173 195 0
171 195 0
173 196 0
172 196 0
173 197 0
167 191 0
173 196 0
173 196 0
173 197 0
174 197 0
171 195 18
172 195 25
168 192 36
158 182 78
151 175 92
142 167 111
119 145 139
104 132 154
96 126 159
66 102 178
62 99 181
61 98 179
62 99 181
62 99 181
62 99 181
62 99 181
61 99 181
61 99 181
61 99 181
62 99 181
62 99 181
61 99 181
62 99 181
61 99 181
62 99 181
62 99 181
61 99 181
62 99 181
61 99 181
62 99 181
61 98 181
61 98 181
62 99 181
62 99 181
61 99 181
61 98 180
61 98 181
61 99 181
62 99 181
61 98 180
62 99 181
61 99 180
61 98 181
61 99 181
62 99 181
62 99 181
61 98 181
61 99 181
61 99 181
61 98 181
61 99 181
61 98 181
61 98 179
62 99 180
62 99 181
62 99 180
61 99 181
61 99 181
62 98 177
62 99 181
61 98 180
62 98 178
63 100 181
61 98 177
62 99 177
64 100 178
69 103 174
87 118 166
95 124 160
120 146 134
135 160 116
144 168 97
155 178 90
167 190 51
169 192 41
172 194 18
174 197 0
172 196 0
170 193 0
173 196 0
172 195 0
173 196 0
172 195 0
172 195 0
174 198 0
173 196 0
173 196 0
174 197 0
174 197 0
175 197 0
173 197 0
171 195 0
172 195 0
175 197 0
171 194 0
173 196 0
171 193 16
167 188 11
169 190 19
168 186 32
164 182 28
164 181 36
161 176 37
162 175 47
158 170 48
156 167 47
153 164 56
152 161 55
146 149 65
137 141 61
146 148 62
146 144 77
139 137 72
144 141 83
149 144 83
147 142 82
143 138 79
144 139 83
149 145 84
149 144 91
156 153 98
156 151 96
159 154 95
147 143 88
144 140 87
145 141 91
145 141 94
150 146 94
150 147 98
156 152 98
145 141 91
147 144 92
151 149 99
157 153 101
155 151 102
153 150 100
149 146 96
161 157 105
150 148 98
149 146 99
157 154 101
164 159 105
159 155 104
155 152 101
157 155 104
160 156 104
160 157 104
153 151 102
160 157 104
164 161 108
163 159 106
164 161 108
153 151 102
164 161 109
167 164 109
165 162 108
167 163 108
162 159 107
166 163 109
165 163 109
170 167 112
165 163 109
165 162 108
162 160 108
166 163 109
170 167 111
162 161 108
166 163 110
165 162 108
166 163 109
168 165 110
170 168 112
171 168 112
166 164 110
173 170 113
171 168 112
170 168 112
167 166 111
171 168 112
171 169 113
172 169 112
170 167 111
168 165 110
168 165 110
169 166 111
170 168 112
172 169 113
172 169 112
168 164 109
170 167 111
170 167 111
169 167 110
172 169 113
170 166 110
171 168 112
166 163 108
172 168 111
166 163 108
169 165 109
168 165 109
166 162 107
165 161 106
171 166 109
169 166 108
160 157 103
169 166 109
164 162 106
166 162 107
167 164 108
166 162 107
167 163 106
168 164 106
166 162 106
169 165 107
164 160 104
167 163 105
164 160 104
169 163 105
163 159 100
166 162 103
166 160 103
161 157 103
162 158 102
160 156 99
169 163 104
161 157 100
161 155 99
155 150 95
159 153 96
159 154 99
156 151 93
152 147 88
158 153 93
164 157 97
157 151 92
157 152 95
159 153 92
160 154 93
151 145 85
148 143 83
150 144 84
155 149 93
154 148 84
146 141 83
144 139 81
158 155 84
151 150 71
154 152 77
146 149 66
152 161 56
162 170 59
158 171 47
160 172 49
160 176 44
162 181 22
171 192 22
172 194 19
172 195 22
173 196 0
172 195 0
172 196 0
173 197 0
175 198 0
171 194 0
172 197 0
173 196 0
173 197 0
173 197 0
173 196 0
173 197 0
174 197 0
172 195 0
172 195 0
174 198 0
175 198 0
173 197 0
174 197 0
173 197 0
173 197 0
170 193 0
175 197 0
173 197 0
176 198 0
175 197 0
174 197 0
174 197 0
174 197 0
174 197 0
172 195 0
174 197 0
170 193 0
172 196 0
173 197 0
174 197 0
171 195 0
176 198 0
173 196 0
173 197 0
173 197 0
174 197 0
171 195 0
176 199 0
173 196 0
172 197 0
176 198 0
171 194 0
173 197 0
174 196 0
173 197 0
174 198 0
173 197 0
174 198 0
174 197 0
173 197 0
173 197 0
173 196 0
172 195 0
172 195 0
174 198 0
173 196 0
172 195 0
174 197 0
173 196 0
173 197 0
174 198 0
173 196 0
174 197 0
174 197 0
172 196 0
171 195 0
173 196 0
172 195 0
174 198 0
172 195 0
175 198 0
171 195 0
171 195 0
170 194 0
175 198 0
176 198 0
172 195 0
173 197 0
172 196 0
172 195 0
174 197 0
175 198 0
174 198 0
171 195 0
174 197 0
174 197 0
175 197 0
173 196 0
172 195 0
173 196 0
174 198 0
172 195 0
173 197 0
172 195 0
177 199 0
174 197 0
173 196 0
171 195 0
173 196 0
173 196 0
171 195 0
172 195 0
173 197 0
170 194 0
173 196 0
174 197 0
174 197 0
170 194 0
174 197 0
174 197 0
174 197 0
171 195 0
174 197 0
173 196 0
175 198 0
173 196 0
173 197 0
173 196 0
173 196 0
174 196 0
176 198 0
174 198 0
170 194 0
173 197 0
173 196 0
170 194 0
174 197 0
173 197 0
172 196 0
175 197 0
171 194 0
174 197 0
172 196 0
172 195 0
173 195 0
171 194 25
167 191 51
159 182 72
146 171 100
130 156 127
125 151 133
93 123 162
77 110 172
65 102 178
61 99 181
61 99 180
62 99 181
61 99 181
62 99 181
61 98 181
61 99 179
62 99 181
62 99 181
62 99 181
61 99 181
61 99 181
62 99 181
61 99 181
62 99 181
61 98 181
61 99 181
61 99 181
61 99 181
61 99 181
61 99 181
62 99 181
62 99 181
61 99 181
61 99 181
61 99 181
62 99 181
62 99 181
61 99 181
61 99 181
61 99 181
61 98 181
61 99 181
61 99 181
61 99 180
61 99 180
61 99 181
61 98 181
61 99 181
62 99 181
62 99 181
61 98 181
62 99 181
61 99 181
61 99 180
61 99 181
62 99 181
62 99 180
61 98 181
62 99 181
62 99 181
62 99 180
61 98 180
62 99 181
62 99 179
62 98 178
62 99 180
61 98 179
61 98 180
61 98 176
64 100 178
81 113 168
86 117 166
105 133 147
119 144 137
136 159 121
157 180 84
157 181 71
168 190 40
170 193 18
171 195 0
172 194 0
172 195 0
174 198 0
171 194 0
172 195 0
173 196 0
172 195 0
171 194 0
169 192 0
173 197 0
173 196 0
174 197 0
174 196 0
173 195 0
175 198 0
172 195 0
171 194 11
171 192 22
168 189 19
167 187 28
167 185 30
165 182 37
161 178 34
161 177 39
163 174 49
158 168 53
149 157 53
155 161 58
133 136 58
149 150 77
131 132 60
143 140 72
144 143 75
131 129 70
138 134 80
134 129 79
147 143 86
152 147 87
144 139 84
147 143 90
151 146 89
148 142 92
149 145 94
145 141 88
150 146 91
150 145 91
145 142 90
147 143 91
151 148 93
151 148 97
151 147 95
153 149 97
154 151 99
157 153 100
151 147 94
153 150 101
154 151 100
149 145 98
155 152 98
152 149 101
153 149 98
162 159 104
155 153 103
149 147 100
159 156 104
161 157 105
165 161 106
161 158 106
154 152 103
157 155 105
160 158 106
157 154 103
157 155 105
165 162 109
159 156 105
163 160 107
165 162 109
164 160 107
167 164 109
162 160 108
165 162 107
169 165 109
168 165 110
165 162 109
166 164 109
164 161 108
168 165 108
162 160 108
165 162 108
173 169 111
166 161 107
168 166 111
170 167 111
167 164 109
171 168 112
166 163 109
168 166 110
167 165 110
171 168 111
167 164 109
166 164 110
169 166 110
172 169 112
167 164 110
171 168 112
167 165 110
171 167 111
173 169 112
167 165 109
168 165 110
170 167 110
172 169 112
171 168 112
172 168 111
171 167 111
172 169 111
173 170 112
168 165 109
169 166 109
170 166 110
170 166 110
167 163 106
171 167 110
165 161 107
169 166 109
170 166 109
163 160 104
174 169 110
165 160 105
168 164 107
170 166 110
164 161 106
165 161 105
167 162 106
170 166 109
163 159 103
166 161 103
162 158 103
166 161 103
166 163 104
167 163 106
166 162 103
161 156 101
167 162 104
161 156 98
163 159 102
170 165 104
163 158 99
161 156 100
158 153 97
164 158 99
157 152 96
162 158 97
160 154 98
154 149 90
161 155 97
154 149 90
152 147 88
143 138 82
150 144 85
150 144 87
158 151 92
137 132 69
150 144 84
140 135 79
157 151 89
145 141 77
151 148 78
153 153 74
146 150 60
153 159 59
156 165 54
149 162 45
160 173 48
158 176 34
162 181 16
167 187 22
164 185 22
172 193 19
173 196 11
174 197 0
174 197 0
175 198 0
176 198 0
170 193 0
173 197 0
174 197 0
175 198 0
172 197 0
173 197 0
173 197 0
172 195 0
171 195 0
175 198 0
172 196 0
172 196 0
174 197 0
175 198 0
175 198 0
174 198 0
175 198 0
170 194 0
174 198 0
174 196 0
173 196 0
174 197 0
174 197 0
174 197 0
172 196 0
170 194 0
174 197 0
172 196 0
174 197 0
174 197 0
173 196 0
174 197 0
175 198 0
172 195 0
174 197 0
174 198 0
173 196 0
174 197 0
174 197 0
172 196 0
173 197 0
173 196 0
174 197 0
175 198 0
173 196 0
175 198 0
170 194 0
174 197 0
173 197 0
174 197 0
173 196 0
173 197 0
174 197 0
173 197 0
172 195 0
175 198 0
173 196 0
173 197 0
174 197 0
175 198 0
172 195 0
173 197 0
174 197 0
171 193 0
173 197 0
173 196 0
173 196 0
171 195 0
171 194 0
174 197 0
173 196 0
174 197 0
174 197 0
173 196 0
174 197 0
172 195 0
174 197 0
174 197 0
172 196 0
174 197 0
174 197 0
172 195 0
176 198 0
173 196 0
172 195 0
171 194 0
175 198 0
173 197 0
172 195 0
172 197 0
174 198 0
174 197 0
173 196 0
173 196 0
174 197 0
174 197 0
172 196 0
173 197 0
171 194 0
172 196 0
172 196 0
170 194 0
173 196 0
171 195 0
172 196 0
172 195 0
173 197 0
173 197 0
172 195 0
172 196 0
174 197 0
171 195 0
174 197 0
168 192 0
176 198 0
173 196 0
172 195 0
171 195 0
174 197 0
174 198 0
173 197 0
172 196 0
169 194 0
174 197 0
173 196 0
174 197 0
172 196 0
174 198 0
173 197 0
172 195 0
171 194 0
171 194 0
173 197 0
173 196 0
173 196 31
168 192 40
160 183 70
145 168 105
129 155 130
115 143 143
87 118 167
63 100 179
61 98 179
61 98 180
62 99 179
62 99 181
61 99 181
62 99 180
62 99 181
61 99 181
62 99 181
61 99 181
61 98 181
62 99 181
62 99 181
62 99 181
61 99 181
61 99 181
61 99 181
61 99 181
62 99 181
61 99 181
61 99 181
61 98 181
62 99 181
62 99 181
61 99 181
62 99 181
61 99 181
62 99 181
61 99 181
62 99 181
61 99 181
62 99 181
61 99 181
61 98 181
61 99 181
62 99 181
61 99 181
61 98 181
61 98 181
61 99 181
61 99 181
62 99 180
62 99 181
62 99 181
61 99 181
61 99 181
62 99 181
61 99 181
61 99 181
61 99 181
61 99 181
61 99 181
61 99 181
61 98 179
62 99 181
62 99 180
62 99 181
62 99 181
62 98 179
62 99 181
62 99 181
61 98 178
61 97 177
62 98 177
62 99 181
61 98 178
67 101 172
83 114 164
103 131 151
121 147 138
139 164 117
150 174 92
156 180 82
165 188 60
168 192 25
172 195 0
172 194 0
172 196 0
173 195 0
174 198 0
171 193 0
169 193 0
171 196 0
172 195 0
172 195 0
168 191 0
173 197 0
172 195 0
170 193 0
173 195 11
171 193 11
171 193 16
167 188 22
166 184 34
166 184 30
161 178 34
165 181 42
154 167 42
158 169 49
151 162 51
156 164 63
149 155 63
152 158 66
144 148 61
144 145 71
143 139 78
143 139 78
133 129 77
143 138 82
146 141 81
140 137 82
147 142 86
146 141 83
143 139 89
148 143 91
143 138 86
142 139 88
140 137 87
150 146 91
141 138 89
153 150 97
150 146 93
148 146 97
150 148 97
152 148 94
150 146 95
141 139 92
158 155 103
140 138 92
154 150 100
150 148 98
150 148 100
155 152 102
150 147 98
160 157 105
157 153 101
157 152 102
157 154 103
158 154 101
164 161 107
155 153 104
163 159 107
153 151 102
163 161 108
164 161 108
166 162 107
162 158 105
161 159 107
162 159 106
168 164 109
166 164 110
160 158 105
165 162 109
162 160 107
166 163 109
169 167 112
164 162 108
167 164 109
167 163 109
165 162 109
168 166 110
169 166 109
167 164 110
168 165 110
168 165 109
167 164 110
168 166 111
170 166 110
165 162 108
170 168 112
165 163 108
168 165 110
170 168 111
168 165 110
173 169 112
172 168 112
170 167 111
170 167 111
170 168 112
169 166 110
168 165 110
169 166 110
170 166 110
175 170 112
172 168 111
168 166 110
170 167 111
171 168 110
170 166 109
168 165 109
164 161 107
169 166 110
173 169 112
169 166 108
167 162 108
171 167 110
171 167 110
165 162 106
170 166 108
170 166 108
168 164 108
163 159 104
170 166 109
168 164 106
169 165 108
170 166 108
160 157 102
169 163 105
167 163 104
172 166 108
166 163 107
169 165 108
169 165 106
166 162 103
166 161 104
168 163 105
167 162 101
159 154 97
161 157 99
169 164 104
164 159 103
159 153 95
164 158 99
161 156 97
160 153 97
163 157 95
156 151 93
160 154 97
153 148 90
159 153 95
155 149 90
148 143 87
155 150 88
153 147 90
151 146 84
161 155 95
156 150 91
153 147 88
147 141 78
138 132 75
146 142 79
144 142 74
150 149 75
151 151 75
152 158 59
143 149 51
154 163 51
160 171 45
163 179 41
160 177 30
168 187 32
167 187 25
168 190 11
171 193 16
174 197 0
172 195 0
173 196 0
173 196 0
175 198 0
172 196 0
173 197 0
173 197 0
172 195 0
172 195 0
173 197 0
173 197 0
175 197 0
174 197 0
175 198 0
173 195 0
172 196 0
172 196 0
171 195 0
172 196 0
172 195 0
171 194 0
174 198 0
173 197 0
175 197 0
175 197 0
171 195 0
175 198 0
174 197 0
172 196 0
173 197 0
175 198 0
173 196 0
174 197 0
171 195 0
174 197 0
172 196 0
173 196 0
173 196 0
173 197 0
173 197 0
174 197 0
173 197 0
173 196 0
173 197 0
173 196 0
173 196 0
173 196 0
171 194 0
175 197 0
173 196 0
172 196 0
171 195 0
172 196 0
171 194 0
173 196 0
172 196 0
175 198 0
169 193 0
174 198 0
172 196 0
174 197 0
177 199 0
176 199 0
174 197 0
173 196 0
173 197 0
174 197 0
173 196 0
175 198 0
175 198 0
174 197 0
173 197 0
173 196 0
172 196 0
176 199 0
173 195 0
175 198 0
172 196 0
172 195 0
172 195 0
173 197 0
175 198 0
175 198 0
172 197 0
172 196 0
171 195 0
172 196 0
172 196 0
173 197 0
174 196 0
175 198 0
174 197 0
175 197 0
172 195 0
171 195 0
173 197 0
171 194 0
173 196 0
173 196 0
173 195 0
172 196 0
172 195 0
173 196 0
172 195 0
171 194 0
172 196 0
175 198 0
174 198 0
174 197 0
174 197 0
170 194 0
173 197 0
173 196 0
173 197 0
170 194 0
172 196 0
172 195 0
175 197 0
175 198 0
172 195 0
174 197 0
171 195 0
174 197 0
173 197 0
172 195 0
173 197 0
173 195 0
171 194 0
173 196 0
174 197 0
173 196 0
170 193 0
176 198 0
175 198 0
173 196 0
167 190 44
164 188 51
154 179 84
140 165 114
124 151 134
97 126 159
81 114 167
63 100 180
61 99 181
61 98 181
61 99 181
62 99 180
61 99 181
61 99 180
62 99 181
61 98 181
61 99 181
61 99 181
62 99 181
61 98 181
62 99 181
61 98 181
61 99 181
61 99 181
61 99 181
62 99 181
61 98 181
62 99 181
61 99 181
61 99 181
62 99 181
61 99 181
61 99 181
62 99 181
61 99 181
62 99 181
62 99 181
61 99 181
61 98 181
61 98 181
61 99 181
61 99 181
61 98 181
62 99 181
61 99 181
61 99 181
61 98 181
61 99 181
61 99 181
61 99 181
61 98 181
61 99 181
62 99 181
62 99 181
61 98 181
61 98 181
62 99 181
62 98 179
62 99 181
62 99 181
61 99 181
62 99 181
61 99 180
61 98 180
61 99 181
62 99 181
61 99 181
62 99 181
61 98 179
61 98 181
61 98 180
62 99 180
62 99 179
61 98 178
61 98 178
61 97 176
61 98 177
60 97 175
62 99 178
73 106 173
91 121 164
117 144 139
140 163 109
141 166 105
157 181 74
169 191 37
173 194 18
172 196 0
171 194 0
171 194 0
173 196 0
171 195 0
170 193 0
173 196 0
172 196 0
172 195 0
172 195 0
169 193 0
170 194 0
167 191 0
168 190 11
167 188 25
167 186 28
164 181 30
161 180 28
164 178 48
161 177 38
161 172 52
155 166 52
159 169 52
154 161 53
156 161 65
149 154 64
146 144 71
145 143 74
144 144 72
143 139 74
139 135 81
142 138 79
145 140 84
145 141 86
139 135 83
146 142 87
144 139 85
155 151 93
152 147 93
141 137 83
147 143 92
145 142 91
145 140 90
148 145 96
145 141 91
152 149 96
155 151 99
155 151 99
139 137 93
146 143 94
152 148 96
148 146 97
151 148 98
153 150 98
157 154 102
157 154 103
138 135 90
149 147 97
160 157 104
151 149 99
156 153 101
158 155 102
157 154 103
156 154 104
161 158 105
157 155 105
163 159 106
158 156 104
161 158 104
160 158 105
160 157 107
153 151 103
158 157 106
160 159 107
169 166 110
165 161 107
166 163 108
162 159 107
166 164 109
164 162 108
165 162 109
166 164 110
168 164 109
169 166 110
167 164 109
171 168 111
170 168 112
170 167 110
167 164 110
167 164 109
166 164 110
166 164 110
170 166 110
171 168 112
170 166 110
171 167 111
170 167 111
174 170 113
164 161 108
168 164 109
169 166 110
173 170 113
170 167 112
171 167 111
171 168 111
164 162 108
171 168 111
169 166 109
176 171 113
172 168 109
169 166 110
169 166 110
172 169 112
173 170 113
170 166 109
168 165 108
168 165 109
165 162 108
169 167 110
171 166 110
165 163 109
170 166 110
168 163 106
169 165 107
166 163 107
168 164 108
165 162 106
173 169 110
170 165 104
169 165 108
170 165 107
170 164 107
164 160 103
163 160 104
162 158 103
170 166 106
170 165 107
166 160 103
163 158 101
165 160 103
169 164 105
169 163 104
163 157 100
158 153 99
163 158 101
154 149 92
164 158 98
162 156 97
163 157 96
157 152 93
160 155 99
164 158 97
153 148 93
156 151 94
156 151 92
164 158 94
148 143 90
158 153 93
151 146 84
142 137 79
155 150 90
145 139 79
151 145 84
143 137 80
146 141 75
152 150 74
153 153 76
149 154 63
155 160 64
161 167 56
160 171 52
163 179 36
162 173 54
164 183 34
165 184 22
167 190 11
173 195 16
174 196 11
173 196 0
175 196 0
174 197 0
171 195 0
173 196 0
175 198 0
172 196 0
173 197 0
173 196 0
172 196 0
174 197 0
172 196 0
173 196 0
173 197 0
173 197 0
173 196 0
173 196 0
174 197 0
174 198 0
170 194 0
173 197 0
173 196 0
175 198 0
172 196 0
174 197 0
174 196 0
174 196 0
172 195 0
176 199 0
173 196 0
174 196 0
172 195 0
174 197 0
176 198 0
172 195 0
173 196 0
170 194 0
174 197 0
174 197 0
173 195 0
172 194 0
174 197 0
170 194 0
173 197 0
175 198 0
173 196 0
173 197 0
174 197 0
174 197 0
174 197 0
173 197 0
172 195 0
172 196 0
174 197 0
175 197 0
175 198 0
175 198 0
173 196 0
171 194 0
175 198 0
171 194 0
172 195 0
173 197 0
173 196 0
173 196 0
173 197 0
173 197 0
175 198 0
172 196 0
174 197 0
173 197 0
171 195 0
174 197 0
172 196 0
173 196 0
173 197 0
174 197 0
174 197 0
173 197 0
170 195 0
172 196 0
171 195 0
172 195 0
174 198 0
173 196 0
172 196 0
175 197 0
175 198 0
173 196 0
173 196 0
173 196 0
171 194 0
173 196 0
172 196 0
172 195 0
171 195 0
173 196 0
172 196 0
174 196 0
174 197 0
173 196 0
172 196 0
172 196 0
171 195 0
173 196 0
173 196 0
172 196 0
171 195 0
172 195 0
172 196 0
173 197 0
173 197 0
173 196 0
172 196 0
173 197 0
173 197 0
173 197 0
172 196 0
173 196 0
173 196 0
174 197 0
168 191 0
172 197 0
172 195 0
171 194 0
171 195 0
173 195 0
170 194 0
172 195 0
173 196 0
169 192 0
173 196 0
174 197 0
172 195 25
167 189 47
148 171 94
141 167 110
131 155 124
93 123 162
71 106 175
62 99 181
61 99 181
62 99 181
62 99 181
61 98 180
61 99 180
61 98 181
62 99 181
62 99 181
61 99 181
61 98 181
62 99 181
61 98 181
61 98 181
61 99 181
61 98 181
62 99 181
62 99 181
62 99 181
61 98 181
61 99 181
61 99 181
61 99 181
61 99 181
62 99 181
61 99 181
61 98 181
62 99 181
62 99 181
61 99 181
61 99 181
61 99 181
62 99 181
61 99 181
61 99 181
61 99 181
62 99 181
62 99 181
61 99 181
62 99 181
61 99 181
61 98 181
61 98 181
61 99 181
61 98 181
61 99 181
62 99 181
61 99 181
61 98 181
62 99 181
61 98 180
61 99 181
61 98 181
62 99 181
61 98 180
61 99 181
62 99 180
62 99 181
61 98 180
61 98 180
62 99 181
61 98 179
61 99 180
62 99 180
61 98 180
62 99 180
62 99 179
62 99 180
62 99 180
61 97 177
61 98 178
62 98 178
61 98 178
62 99 178
61 98 177
61 97 175
65 101 172
93 123 162
112 138 140
123 148 131
148 170 95
161 184 70
167 189 47
170 194 18
173 196 0
173 197 0
172 195 0
172 195 0
172 195 0
171 195 0
170 193 0
166 189 0
172 195 0
172 195 0
171 193 0
173 193 25
163 183 19
167 186 31
165 184 34
164 182 28
162 177 41
158 171 42
153 167 37
159 169 55
151 159 49
154 163 53
155 162 57
154 155 72
151 152 68
140 140 66
145 141 84
140 135 77
142 137 85
144 139 82
141 137 81
144 140 82
149 144 87
150 145 89
154 148 93
145 141 88
144 139 90
149 145 92
135 133 89
148 144 93
143 139 91
148 144 92
151 147 94
142 140 93
144 141 93
152 148 95
140 138 92
147 143 94
151 148 99
149 146 97
149 147 97
164 160 105
151 148 100
154 151 101
145 144 97
148 146 99
149 146 98
155 152 102
162 158 105
153 151 103
162 159 107
153 151 102
152 150 101
163 160 107
158 155 104
164 161 107
166 163 108
160 158 106
158 156 105
164 161 109
161 159 106
166 163 109
164 161 108
166 163 108
167 163 109
164 161 107
164 161 107
160 157 105
159 157 106
165 163 109
170 167 110
170 167 111
168 165 110
170 166 110
171 168 111
165 162 108
166 164 109
167 164 108
169 166 110
170 167 111
174 170 113
170 166 110
171 168 112
171 168 112
169 165 110
174 170 112
171 168 111
169 166 111
172 169 111
173 170 112
167 164 109
171 168 111
170 167 110
170 168 112
173 170 113
172 168 112
175 171 112
169 165 108
168 164 109
173 169 112
170 166 109
175 170 112
168 164 108
166 163 106
170 166 109
173 169 111
166 162 106
172 169 112
170 166 108
169 166 109
168 165 108
166 161 104
169 165 108
171 168 110
166 162 107
172 167 106
170 165 106
167 163 107
165 160 103
168 163 107
166 162 105
172 166 107
166 162 104
165 161 103
165 161 103
167 161 104
165 160 103
167 164 106
166 161 103
163 158 102
160 155 97
166 162 103
162 158 103
159 153 96
160 156 97
165 159 101
166 160 101
159 154 96
158 152 93
147 143 87
147 143 87
158 153 93
147 141 87
152 147 85
156 150 92
157 152 95
150 146 88
148 144 86
147 141 84
150 143 87
148 143 81
150 143 84
146 143 75
151 148 80
155 155 74
140 144 54
149 152 65
155 165 54
158 168 53
157 169 48
159 173 39
167 182 39
168 186 34
167 189 11
172 194 16
173 195 19
173 196 0
174 197 0
175 198 0
175 197 0
173 196 0
176 198 0
172 196 0
172 196 0
173 197 0
175 197 0
173 197 0
172 196 0
173 197 0
175 198 0
172 196 0
174 197 0
172 195 0
174 197 0
174 197 0
172 196 0
174 198 0
175 198 0
174 197 0
173 197 0
171 196 0
172 195 0
173 196 0
173 197 0
170 194 0
172 196 0
174 198 0
173 196 0
173 196 0
176 199 0
173 196 0
172 195 0
171 195 0
174 198 0
174 197 0
174 197 0
172 196 0
175 198 0
174 197 0
172 196 0
173 197 0
173 197 0
173 196 0
174 196 0
173 197 0
173 196 0
172 196 0
174 197 0
171 195 0
175 198 0
173 197 0
175 198 0
175 198 0
174 196 0
174 197 0
171 194 0
172 196 0
173 196 0
172 195 0
173 196 0
172 196 0
171 195 0
171 194 0
173 196 0
173 197 0
172 195 0
173 197 0
172 195 0
174 197 0
175 198 0
173 196 0
172 195 0
173 195 0
172 195 0
172 195 0
171 196 0
173 196 0
173 197 0
173 197 0
173 196 0
175 197 0
173 197 0
172 196 0
174 197 0
173 196 0
174 197 0
173 197 0
173 195 0
174 197 0
173 196 0
174 197 0
173 196 0
174 198 0
172 196 0
171 195 0
173 196 0
174 197 0
175 198 0
174 197 0
174 198 0
172 196 0
172 195 0
172 195 0
172 195 0
174 197 0
171 194 0
172 196 0
170 194 0
174 197 0
170 194 0
174 197 0
170 194 0
172 196 0
172 195 0
172 195 0
173 196 0
174 196 0
170 194 0
173 196 0
173 196 0
172 195 0
173 197 0
174 197 0
170 194 0
172 195 0
173 196 0
170 194 0
170 194 18
169 191 31
161 184 76
149 173 95
120 146 135
92 122 161
75 109 174
62 99 181
61 99 179
61 99 181
62 99 181
62 99 181
62 99 181
61 99 181
61 99 181
62 99 181
61 99 181
61 99 181
62 99 181
61 98 181
62 99 181
62 99 181
61 99 181
61 99 181
61 98 181
62 99 181
62 99 181
61 99 181
62 99 181
61 99 181
61 99 181
61 99 181
61 99 181
62 99 181
61 99 181
61 99 181
62 99 181
61 98 181
62 99 181
61 98 180
61 99 181
62 99 181
62 99 181
61 98 181
62 99 181
61 99 181
62 99 181
61 98 181
61 98 181
61 99 181
61 98 181
61 98 181
61 98 180
62 99 181
62 99 181
61 99 181
62 99 181
61 98 180
61 99 181
61 99 181
61 99 181
62 99 181
61 98 180
62 99 181
61 99 181
61 99 181
62 99 181
61 98 180
61 98 181
61 99 180
61 99 181
61 98 180
62 99 180
62 99 179
61 98 179
61 98 180
61 98 177
62 99 180
62 99 178
62 99 181
62 99 180
62 99 179
62 99 177
62 98 178
62 98 176
62 99 180
63 100 177
67 103 175
100 129 156
114 140 137
140 164 112
148 173 100
155 179 68
169 193 40
173 196 0
169 192 0
170 194 0
171 194 0
173 196 0
170 193 0
171 194 0
172 195 0
173 196 0
173 197 11
168 189 16
169 189 22
164 183 19
162 180 33
167 183 39
164 175 48
155 166 50
154 163 51
154 164 47
153 161 54
146 149 67
152 154 67
145 146 62
141 143 62
139 138 67
138 136 75
145 141 84
136 132 74
148 143 82
141 137 86
136 131 76
137 133 84
144 140 89
146 141 87
146 141 89
138 134 82
138 135 88
144 141 91
141 137 85
151 147 95
149 145 93
150 145 92
147 143 93
145 142 90
152 149 98
137 135 90
154 151 102
139 137 92
143 141 94
152 151 100
152 149 101
154 152 101
151 149 100
151 147 99
153 151 100
157 154 103
157 155 102
157 154 102
153 151 100
159 156 105
163 160 108
153 151 102
160 157 104
164 160 105
162 158 105
165 162 109
155 153 103
165 162 109
162 160 108
162 159 107
167 163 109
160 158 106
166 164 109
165 162 108
164 161 108
161 160 108
170 166 110
164 160 106
164 161 107
169 166 111
160 157 104
162 161 108
168 165 109
169 166 110
172 168 111
172 168 111
168 166 111
171 167 111
169 166 110
168 165 111
169 167 111
169 166 110
168 164 109
168 165 110
175 171 113
170 167 110
170 168 112
169 166 110
170 166 110
172 169 111
172 168 111
173 170 112
172 168 111
169 165 110
172 168 111
169 166 109
171 167 110
174 171 112
171 167 110
173 170 112
169 166 110
170 167 109
166 164 109
168 165 108
168 164 108
168 165 109
168 163 106
168 164 108
170 166 108
169 164 108
168 164 108
171 166 108
171 166 108
167 163 107
167 163 105
166 162 106
174 169 110
171 166 106
172 168 110
171 167 108
169 163 105
164 159 99
164 159 104
170 166 107
174 167 109
165 161 103
157 154 99
163 158 101
161 156 99
164 159 101
163 158 98
165 161 102
161 156 98
157 151 94
160 155 97
162 157 97
153 148 91
158 152 97
154 149 93
158 152 93
156 151 90
154 150 89
151 146 86
160 155 97
157 151 89
158 152 93
152 147 88
146 140 82
143 137 82
140 135 78
148 142 82
144 138 75
147 143 78
150 148 76
155 157 64
155 157 70
146 153 53
159 168 57
166 180 47
163 176 47
158 173 39
166 183 36
171 191 28
168 189 16
172 195 16
173 195 0
173 196 0
172 195 0
174 197 0
173 196 0
174 197 0
174 197 0
173 197 0
174 197 0
171 195 0
174 197 0
171 195 0
173 197 0
175 198 0
173 197 0
175 198 0
170 194 0
173 196 0
172 196 0
171 195 0
172 196 0
173 197 0
172 196 0
172 196 0
173 196 0
175 198 0
174 197 0
174 197 0
171 195 0
172 196 0
175 198 0
173 197 0
174 197 0
172 196 0
173 196 0
175 198 0
174 197 0
173 197 0
174 197 0
175 198 0
173 197 0
171 195 0
173 197 0
173 197 0
172 196 0
174 197 0
173 195 0
172 196 0
173 197 0
174 197 0
173 197 0
170 194 0
174 197 0
175 198 0
173 197 0
172 196 0
173 196 0
174 198 0
172 196 0
173 197 0
173 197 0
173 197 0
172 195 0
172 196 0
173 196 0
174 198 0
172 196 0
174 197 0
172 195 0
174 197 0
173 196 0
174 198 0
171 194 0
171 194 0
172 196 0
174 197 0
174 197 0
171 195 0
171 195 0
172 196 0
172 195 0
174 197 0
175 198 0
172 195 0
173 197 0
174 197 0
172 195 0
172 195 0
172 195 0
174 198 0
174 197 0
172 196 0
173 197 0
171 194 0
172 195 0
173 196 0
174 197 0
173 196 0
173 196 0
174 197 0
173 196 0
173 197 0
174 197 0
173 196 0
172 195 0
171 195 0
171 194 0
175 198 0
172 196 0
174 197 0
172 196 0
171 195 0
173 197 0
171 194 0
174 197 0
174 198 0
173 196 0
171 194 0
172 196 0
172 196 0
174 198 0
171 195 0
173 196 0
170 192 0
173 196 0
170 194 0
175 198 0
175 198 0
171 194 0
172 196 0
171 195 31
160 184 70
147 171 105
132 158 122
106 134 154
82 114 169
62 99 181
62 99 181
62 99 181
61 98 180
62 99 181
62 99 181
61 99 181
62 99 181
62 99 181
61 99 181
62 99 181
61 98 181
61 99 181
61 99 181
61 98 181
62 99 181
61 98 181
61 99 181
61 99 181
62 99 181
62 99 181
61 99 181
62 99 181
61 99 181
62 99 181
61 98 181
62 99 181
62 99 181
61 98 181
61 99 181
61 99 181
61 99 181
62 99 181
62 99 181
61 99 181
62 99 181
62 99 181
61 99 181
62 99 181
62 99 181
62 99 181
61 99 181
61 99 181
62 99 181
62 99 181
62 99 181
62 99 181
62 99 181
61 99 181
62 99 181
62 99 181
61 98 180
61 99 181
62 99 181
61 98 181
61 98 180
61 99 181
62 99 181
62 99 181
61 98 180
63 99 180
61 98 181
61 98 179
61 99 181
61 98 180
62 99 181
62 99 181
61 99 181
62 99 180
62 99 180
62 99 180
62 99 180
61 98 179
61 98 179
62 99 179
61 98 179
61 98 178
61 98 179
61 99 181
62 98 175
62 98 177
61 98 177
61 97 177
61 97 174
68 102 172
98 126 154
127 152 128
137 160 111
153 177 86
164 187 57
170 193 31
174 197 0
169 192 0
172 195 0
172 195 0
169 191 0
172 195 0
169 192 0
169 191 0
164 184 16
164 186 16
158 177 24
162 179 34
161 176 39
158 172 39
149 162 41
153 164 48
156 165 54
148 153 59
138 144 50
146 149 65
139 140 63
150 151 75
140 137 72
132 129 74
147 142 83
138 133 80
145 141 85
141 136 83
140 135 83
145 141 86
136 133 83
141 138 83
150 147 93
153 148 93
137 134 86
140 138 90
150 147 94
159 154 97
150 147 97
137 136 92
141 139 94
153 149 98
150 147 97
139 138 93
146 145 97
153 150 100
154 150 98
160 157 104
150 147 99
152 149 99
149 147 99
155 153 102
160 157 103
156 154 104
152 150 102
158 156 104
153 150 100
157 154 103
165 162 108
161 157 106
161 158 106
156 154 104
165 162 108
162 158 106
160 157 105
165 161 108
163 161 108
162 159 106
163 160 107
160 158 106
163 160 107
162 160 107
161 158 107
162 161 108
164 161 108
166 163 109
164 161 109
167 165 110
163 161 107
170 167 111
167 164 109
168 165 110
169 166 110
168 165 110
166 163 109
166 162 108
168 165 109
171 168 111
172 168 111
170 168 112
170 166 110
169 167 111
171 166 109
172 168 112
171 167 110
173 170 113
173 168 110
170 166 110
172 168 110
169 166 110
170 167 109
168 165 109
171 168 110
172 168 110
172 168 110
175 170 110
170 167 110
172 169 110
165 162 106
167 163 108
167 164 109
170 166 110
166 163 104
173 168 110
167 163 106
169 165 109
171 168 112
169 165 108
169 166 109
171 168 109
171 167 108
166 162 105
174 168 108
170 166 108
166 161 105
174 169 110
165 160 101
171 167 109
168 163 103
170 165 106
168 164 105
166 161 106
168 162 104
162 156 99
163 159 101
165 161 101
168 162 99
165 161 100
163 157 100
167 160 99
159 154 95
161 157 99
162 157 96
162 156 97
161 155 93
159 154 95
163 157 97
151 146 87
164 160 99
155 150 92
150 144 90
159 153 93
158 152 92
157 150 91
158 152 93
144 139 79
155 149 87
149 144 83
153 147 87
143 136 81
151 145 84
149 145 80
153 152 74
154 154 72
148 153 65
162 173 48
150 159 51
155 167 47
163 181 32
163 182 32
165 182 37
167 188 22
171 193 11
172 194 19
174 197 0
177 199 0
174 197 0
176 199 0
171 196 0
174 198 0
173 196 0
174 198 0
174 197 0
175 198 0
175 198 0
172 196 0
173 196 0
172 195 0
175 198 0
173 197 0
173 196 0
175 198 0
174 198 0
172 195 0
173 196 0
174 197 0
173 196 0
173 196 0
173 196 0
174 196 0
171 195 0
171 194 0
174 198 0
174 197 0
173 197 0
173 197 0
174 197 0
172 196 0
173 197 0
173 197 0
173 197 0
171 194 0
173 196 0
174 197 0
174 197 0
175 198 0
177 199 0
175 198 0
172 196 0
173 197 0
172 195 0
171 195 0
174 197 0
172 196 0
171 194 0
175 198 0
173 197 0
173 197 0
172 195 0
174 197 0
171 195 0
171 196 0
173 197 0
174 197 0
174 197 0
173 197 0
175 198 0
172 196 0
173 196 0
171 195 0
174 197 0
173 197 0
174 197 0
171 195 0
173 196 0
173 196 0
173 197 0
172 195 0
174 198 0
172 195 0
174 198 0
173 197 0
171 195 0
173 197 0
171 195 0
172 196 0
172 196 0
172 196 0
174 197 0
173 197 0
173 196 0
171 195 0
174 197 0
173 196 0
171 194 0
175 197 0
175 198 0
175 198 0
172 195 0
172 195 0
174 197 0
174 197 0
173 196 0
172 195 0
172 196 0
171 194 0
173 196 0
174 196 0
175 198 0
171 194 0
171 195 0
170 194 0
172 196 0
173 196 0
173 196 0
172 196 0
172 195 0
172 196 0
170 194 0
172 196 0
171 194 0
174 197 0
173 197 0
172 195 0
173 196 0
174 197 0
174 197 0
173 196 0
174 197 0
171 195 0
173 196 0
168 192 25
166 190 47
152 176 86
136 162 120
111 138 147
81 113 170
65 101 177
62 99 180
61 99 181
61 99 180
62 99 181
62 99 181
62 99 181
62 99 181
61 99 181
61 98 181
62 99 181
61 99 181
62 99 181
62 99 181
62 99 181
62 99 181
62 99 181
61 98 181
61 98 180
62 99 181
62 99 181
61 99 181
62 99 181
62 99 181
61 99 181
62 99 181
61 99 181
61 99 181
61 98 181
61 99 181
62 99 181
61 99 181
61 99 181
61 98 181
61 98 181
61 99 181
61 99 181
61 99 181
61 99 181
61 98 181
61 98 181
62 99 181
61 99 181
61 99 181
61 99 181
61 99 181
61 98 181
62 99 181
61 99 181
62 99 181
61 99 181
61 99 181
61 98 181
61 98 180
61 99 181
62 99 181
62 99 181
62 99 181
62 99 181
62 99 181
62 99 181
62 99 181
62 99 181
62 99 181
61 99 181
61 99 181
61 99 181
62 99 180
61 98 180
61 98 180
61 98 179
62 99 180
61 98 181
62 99 181
62 99 179
62 99 179
61 99 179
62 99 181
62 99 180
62 99 181
62 99 180
62 99 179
62 98 178
61 98 177
61 98 177
62 98 176
62 98 176
63 99 176
76 108 168
111 138 146
132 156 122
145 169 104
158 180 77
170 193 31
171 194 25
169 192 0
172 194 0
169 193 0
170 193 0
172 193 0
166 186 19
166 185 25
165 184 22
164 183 22
156 172 36
155 169 41
152 162 49
161 174 51
141 150 52
154 161 59
150 155 61
133 137 55
142 142 68
143 142 71
146 144 75
137 136 69
149 143 83
140 136 78
136 132 79
142 137 84
136 132 83
129 126 75
143 140 88
135 132 84
143 139 89
132 130 86
148 144 92
148 143 93
148 144 94
153 149 94
147 144 92
145 142 91
156 151 100
139 136 91
147 145 95
149 146 94
143 142 95
143 141 95
149 147 97
148 146 99
153 150 98
148 146 98
147 145 97
142 139 92
149 146 98
150 148 100
155 152 101
151 149 100
156 153 103
155 154 103
157 155 105
158 156 106
155 152 101
159 156 104
161 158 107
155 152 102
158 155 104
157 154 103
160 157 105
158 156 105
165 162 108
166 163 109
164 161 108
164 161 109
164 162 108
166 163 108
167 165 111
162 159 106
166 162 107
169 165 110
165 163 109
163 160 108
171 167 110
157 156 105
164 161 107
169 166 110
168 166 110
170 165 109
170 166 110
169 166 111
168 165 108
171 168 111
171 169 113
171 167 111
171 168 111
174 170 112
170 167 110
171 167 110
175 171 113
171 168 110
172 169 111
171 168 110
173 170 114
175 170 112
170 167 112
169 166 110
169 165 109
169 166 110
170 166 108
170 166 109
172 168 110
172 168 112
175 171 113
169 165 108
172 168 110
173 168 110
171 167 110
169 165 108
170 166 108
172 167 108
170 166 107
171 166 106
175 170 110
170 166 108
174 169 110
174 169 109
169 164 105
169 166 106
164 161 103
172 168 109
163 159 103
164 159 101
173 168 106
169 164 105
171 166 104
164 159 103
163 160 103
165 160 101
162 157 102
158 154 99
166 160 101
162 157 99
165 160 100
162 158 100
161 156 100
167 162 99
164 160 99
158 152 93
154 149 90
159 154 94
152 147 89
160 154 95
164 159 97
163 157 93
154 148 87
155 150 87
147 141 84
150 145 83
156 149 87
154 149 86
150 144 80
149 143 85
144 138 78
142 137 71
139 136 72
155 153 73
146 149 66
155 161 61
151 158 53
157 164 60
163 178 39
153 167 36
162 178 36
167 186 34
169 189 22
165 186 25
173 196 0
173 197 0
174 197 0
172 195 0
173 196 0
171 195 0
172 196 0
174 198 0
172 195 0
174 197 0
174 197 0
172 195 0
174 198 0
174 198 0
175 198 0
174 197 0
174 197 0
174 197 0
172 196 0
174 198 0
174 197 0
171 194 0
170 194 0
174 197 0
174 197 0
174 198 0
174 197 0
173 197 0
172 196 0
172 195 0
173 196 0
173 196 0
174 197 0
174 197 0
171 195 0
174 197 0
175 198 0
170 194 0
173 196 0
171 195 0
173 197 0
172 196 0
171 195 0
173 197 0
174 197 0
173 197 0
173 197 0
175 198 0
173 196 0
173 197 0
173 196 0
173 197 0
174 197 0
173 197 0
174 197 0
174 198 0
173 197 0
174 197 0
171 195 0
173 197 0
174 197 0
173 196 0
173 196 0
173 196 0
173 197 0
170 193 0
175 198 0
173 196 0
173 197 0
173 197 0
172 196 0
172 195 0
175 198 0
171 195 0
172 196 0
174 197 0
174 197 0
171 194 0
173 196 0
172 195 0
170 194 0
172 196 0
173 196 0
175 198 0
171 195 0
171 193 0
172 195 0
172 195 0
170 194 0
172 195 0
169 192 0
175 198 0
173 197 0
173 196 0
174 197 0
171 194 0
173 196 0
171 194 0
172 195 0
173 196 0
174 197 0
174 198 0
171 195 0
173 196 0
172 195 0
173 195 0
172 196 0
171 195 0
171 195 0
173 196 0
170 193 0
172 195 0
174 197 0
172 196 0
175 198 0
171 195 0
171 195 0
176 198 0
173 197 0
172 196 0
172 194 0
171 194 0
174 197 0
172 195 0
169 193 0
173 196 0
173 196 0
169 192 36
157 181 78
142 167 108
125 151 135
91 121 159
66 102 179
61 99 180
61 99 181
62 99 180
61 99 180
62 99 181
62 99 181
61 98 180
61 99 181
61 99 181
62 99 181
62 99 181
62 99 181
61 99 181
62 99 181
61 99 181
62 99 181
61 98 181
62 99 181
61 99 181
62 99 181
62 99 181
61 98 181
61 98 181
61 99 181
61 99 181
61 99 181
61 99 181
61 98 181
61 99 181
62 99 181
61 99 181
61 99 181
62 99 181
61 99 181
61 99 181
61 98 181
62 99 181
62 99 181
61 98 181
62 99 181
61 99 181
61 98 181
61 98 181
61 98 181
62 99 181
61 99 181
61 98 181
62 99 181
61 98 181
61 98 181
61 99 181
62 99 181
61 99 181
61 99 181
61 99 181
62 99 181
62 99 181
62 99 181
61 99 181
61 98 181
62 99 181
61 99 181
62 99 181
61 99 181
62 99 181
62 99 181
61 98 181
62 99 181
61 99 181
62 99 181
61 99 180
62 99 180
62 98 179
61 98 178
62 99 181
62 99 180
61 97 178
61 99 181
62 99 180
62 99 178
61 99 181
61 98 177
61 98 177
61 98 180
61 97 175
62 98 177
61 97 174
61 97 175
61 98 178
62 99 178
69 104 173
92 121 158
125 150 125
125 151 124
150 173 94
166 190 47
167 190 31
172 196 0
172 194 0
170 192 0
168 190 0
169 191 19
170 191 19
167 187 28
163 181 28
161 177 34
159 173 39
155 170 40
156 167 47
153 162 58
137 145 42
147 154 58
145 148 69
140 142 63
151 150 74
139 138 70
137 134 76
137 133 77
147 142 79
129 126 74
143 139 85
141 136 85
132 128 79
141 138 86
138 135 84
138 134 86
143 140 87
137 135 86
142 139 89
138 136 86
142 139 89
137 135 88
133 132 88
146 144 97
138 135 89
146 142 92
139 138 92
152 148 99
145 143 94
155 152 100
149 145 97
142 139 93
147 145 98
147 144 95
152 149 101
149 146 100
145 143 98
153 152 103
157 155 104
146 145 99
151 148 98
157 155 104
156 153 102
165 161 107
157 155 104
159 156 104
161 157 105
160 158 106
160 157 105
163 159 106
160 157 106
165 162 108
159 157 105
165 162 108
162 160 107
162 159 105
167 164 110
164 161 108
170 166 110
167 163 108
168 164 110
169 166 110
174 170 113
162 160 107
171 168 112
168 165 110
170 168 112
170 167 111
168 165 109
173 168 111
165 163 109
171 168 111
172 168 111
173 169 111
174 170 113
174 170 112
173 169 112
172 168 110
171 168 110
172 169 110
169 166 109
169 165 109
173 170 113
167 165 110
174 170 112
173 169 111
172 167 110
174 170 112
169 166 110
174 170 112
172 168 109
172 168 110
175 170 112
170 166 108
175 170 112
174 168 108
170 166 108
170 166 109
171 167 109
174 169 111
170 166 110
166 163 108
170 166 108
170 166 108
163 159 104
167 163 107
168 163 106
168 164 106
165 161 103
173 168 108
168 163 104
167 162 103
170 166 106
162 158 99
167 162 104
166 161 101
168 163 106
168 164 104
166 161 103
167 161 101
165 160 103
157 153 93
168 163 101
166 162 96
165 160 101
164 158 101
167 161 101
160 155 97
160 156 97
158 152 94
155 149 93
161 155 91
157 152 91
155 150 87
157 152 93
154 148 85
151 146 87
163 156 96
153 146 87
155 149 89
149 143 85
153 146 82
147 141 81
142 135 75
142 138 76
137 133 75
142 141 63
136 137 58
143 147 56
144 151 57
156 164 53
154 166 42
167 179 54
165 181 41
165 183 34
168 188 19
171 192 19
171 193 0
172 195 0
173 196 0
175 198 0
172 196 0
174 197 0
173 197 0
173 196 0
174 198 0
171 194 0
173 196 0
173 197 0
174 198 0
174 197 0
174 197 0
175 198 0
173 197 0
174 197 0
173 196 0
173 196 0
174 197 0
173 197 0
173 197 0
173 197 0
172 196 0
172 195 0
173 197 0
173 196 0
170 194 0
173 197 0
174 197 0
175 198 0
174 197 0
172 195 0
173 196 0
170 194 0
174 197 0
171 195 0
172 195 0
173 196 0
175 198 0
172 196 0
175 198 0
174 198 0
173 196 0
173 196 0
174 197 0
171 195 0
174 197 0
172 195 0
173 196 0
175 198 0
173 197 0
171 195 0
171 196 0
171 195 0
172 195 0
174 197 0
172 196 0
174 197 0
175 198 0
172 195 0
172 194 0
174 197 0
171 195 0
175 198 0
171 195 0
174 197 0
174 197 0
172 196 0
175 198 0
173 197 0
174 197 0
173 196 0
174 196 0
174 197 0
173 196 0
171 193 0
174 197 0
172 195 0
174 197 0
171 194 0
173 197 0
173 196 0
175 198 0
171 194 0
173 197 0
172 195 0
171 195 0
170 193 0
172 196 0
173 197 0
173 196 0
172 196 0
170 193 0
175 198 0
173 195 0
174 197 0
173 197 0
174 197 0
170 194 0
172 195 0
173 196 0
173 196 0
173 196 0
173 197 0
171 195 0
173 196 0
174 197 0
174 197 0
175 198 0
174 196 0
173 196 0
172 196 0
174 197 0
172 196 0
172 195 0
171 195 0
171 195 0
174 198 0
173 196 0
171 195 0
170 194 0
173 196 0
174 196 0
173 196 25
164 188 57
157 181 76
130 156 122
106 134 152
76 110 171
63 100 177
61 99 180
62 99 180
62 99 181
61 99 181
61 99 181
62 100 181
61 98 181
61 99 181
61 98 181
61 99 180
61 99 181
62 99 181
61 99 181
62 99 181
62 99 181
62 99 181
61 98 181
61 99 181
62 99 181
61 99 181
61 98 181
62 99 181
61 98 181
62 99 181
62 99 181
62 99 181
61 99 181
62 99 181
61 98 181
61 98 181
62 99 181
62 99 181
62 99 181
61 98 181
62 99 181
62 99 181
61 99 181
61 99 181
61 98 181
61 98 181
62 99 181
61 99 181
61 99 181
61 98 181
61 99 181
62 99 181
62 99 181
62 99 181
61 99 181
61 98 180
62 99 181
62 99 181
61 99 181
61 98 181
62 99 181
61 99 181
61 99 181
62 99 181
61 99 181
61 98 181
61 99 181
62 99 181
61 98 180
62 99 180
62 99 181
61 99 181
61 99 180
62 99 181
61 99 181
62 99 181
62 99 181
63 100 180
62 99 180
61 98 179
61 99 181
62 99 181
62 99 181
62 99 180
62 99 180
62 99 179
62 99 181
62 99 178
61 98 178
61 98 176
61 98 178
61 98 177
62 99 179
62 98 178
61 98 177
61 98 178
61 98 175
61 97 173
60 97 176
74 108 169
95 124 155
132 157 117
143 167 99
153 177 78
164 187 60
173 195 25
171 195 11
167 186 19
171 192 16
162 180 30
163 182 32
162 181 30
150 165 41
158 171 47
157 169 47
153 162 54
152 161 51
154 158 67
151 155 60
131 132 62
143 144 69
146 144 75
133 131 69
135 132 76
143 138 80
133 130 79
137 133 78
142 138 84
139 135 83
142 139 86
132 129 78
136 134 82
141 136 84
136 134 85
141 139 91
144 141 91
137 134 84
144 142 92
142 140 91
145 142 93
139 137 90
149 146 98
137 135 89
143 141 96
147 144 95
143 142 96
153 151 101
150 147 99
144 142 95
148 146 98
149 147 100
145 143 96
153 150 101
154 152 102
158 155 105
149 147 99
157 155 105
147 146 98
156 154 104
155 152 103
160 157 106
149 148 100
157 155 105
161 159 106
156 154 103
161 157 105
162 160 108
162 159 106
164 161 107
160 158 105
163 162 110
158 158 108
166 162 108
167 164 110
164 162 110
161 159 106
170 166 109
163 161 108
166 163 109
168 165 111
165 163 109
168 165 109
168 164 109
169 165 110
169 166 110
170 167 110
172 168 112
170 167 111
171 168 109
170 167 111
167 163 109
172 168 111
173 169 111
166 164 109
171 168 112
173 168 109
171 167 109
176 171 111
172 169 111
174 170 112
168 165 109
172 168 110
171 167 110
171 168 109
172 169 111
175 171 113
171 167 108
175 170 111
171 167 109
169 166 110
172 168 110
170 167 109
172 168 109
169 165 108
168 164 108
174 170 111
172 167 108
170 165 106
172 168 109
170 166 106
171 166 106
171 167 110
169 165 107
171 167 109
169 164 104
162 157 99
169 164 104
168 162 102
166 162 105
167 162 101
163 159 102
165 161 101
165 160 104
171 166 104
167 162 101
168 163 102
167 162 101
158 153 97
170 164 103
163 157 97
166 159 102
165 159 101
159 153 95
156 152 90
165 159 95
159 153 96
159 153 95
166 160 97
160 155 94
157 151 92
157 152 92
158 151 92
154 147 86
166 160 94
153 147 90
158 152 92
149 144 85
144 138 79
153 146 83
152 146 87
144 139 75
136 131 77
146 142 75
148 144 76
150 152 68
142 146 61
153 159 60
152 160 54
151 163 47
159 173 34
162 177 45
162 178 37
168 188 28
168 188 19
169 190 19
172 196 0
172 195 0
172 195 0
173 197 0
173 196 0
173 197 0
172 196 0
174 197 0
173 197 0
174 197 0
174 197 0
174 198 0
175 198 0
174 197 0
173 196 0
172 196 0
172 196 0
175 198 0
175 198 0
174 197 0
172 196 0
173 197 0
171 195 0
174 197 0
172 196 0
172 196 0
172 196 0
174 198 0
174 197 0
173 197 0
173 197 0
172 196 0
172 195 0
173 196 0
173 196 0
174 197 0
172 195 0
174 197 0
175 198 0
173 197 0
169 194 0
173 196 0
174 197 0
172 196 0
172 195 0
175 197 0
172 196 0
172 196 0
173 197 0
172 196 0
173 196 0
173 196 0
172 195 0
175 198 0
174 197 0
174 197 0
173 196 0
175 198 0
172 195 0
173 197 0
174 198 0
173 196 0
172 196 0
174 198 0
174 198 0
171 195 0
172 195 0
175 198 0
173 197 0
173 197 0
173 197 0
175 198 0
172 196 0
173 196 0
172 196 0
171 195 0
174 197 0
174 196 0
171 195 0
175 198 0
173 196 0
173 197 0
173 197 0
173 197 0
171 194 0
174 197 0
172 196 0
172 195 0
173 196 0
174 197 0
171 195 0
172 195 0
173 196 0
170 194 0
168 192 0
174 197 0
172 195 0
172 195 0
172 195 0
171 195 0
173 196 0
173 196 0
172 195 0
174 197 0
176 198 0
173 197 0
174 195 0
173 197 0
173 195 0
173 196 0
174 197 0
173 196 0
172 196 0
171 194 0
176 199 0
171 193 0
171 194 0
169 193 0
171 194 0
173 196 0
173 195 0
174 196 0
170 194 0
170 194 31
154 179 80
133 159 120
117 144 142
84 115 169
64 101 180
62 99 181
61 99 181
61 99 179
62 99 180
62 99 181
61 99 181
62 99 181
62 99 181
61 99 181
62 99 181
61 98 181
61 99 181
62 99 181
61 99 181
61 99 181
61 99 181
61 99 181
62 99 181
61 98 181
61 99 181
62 99 181
61 99 181
62 99 181
61 99 181
61 99 181
61 99 181
61 98 180
61 99 181
61 98 181
61 99 181
61 99 181
61 99 181
61 99 181
62 99 181
62 99 181
61 99 181
61 98 181
61 98 181
61 98 181
62 99 181
61 98 181
61 99 181
62 99 181
61 99 181
62 99 181
62 99 181
62 99 181
61 99 181
62 99 181
61 99 181
61 98 181
61 98 181
62 99 181
62 99 181
61 99 181
61 99 181
62 99 181
61 99 181
62 99 181
62 99 181
62 99 181
62 99 181
61 99 181
61 99 181
62 99 181
62 99 181
62 99 181
62 99 181
61 99 181
61 98 180
61 99 180
62 99 180
62 99 181
62 99 181
62 99 181
62 99 181
62 99 181
62 99 178
62 99 181
62 99 181
63 100 181
62 99 179
62 99 179
62 99 180
61 98 177
62 99 181
62 99 181
61 98 178
62 99 180
61 97 177
60 96 173
61 98 177
61 97 173
60 96 172
62 98 176
61 97 175
65 101 178
89 119 158
105 132 143
133 158 122
152 175 87
159 181 66
167 188 31
171 192 19
170 189 30
158 176 25
162 181 25
162 175 43
163 181 32
155 168 43
154 165 47
144 155 43
145 150 50
153 158 61
142 147 59
138 142 57
145 145 66
149 148 72
125 122 72
130 126 71
128 124 76
133 129 80
144 139 80
133 129 83
139 135 85
135 131 83
137 133 82
137 134 84
143 139 87
139 135 86
132 128 83
144 140 89
147 143 90
145 142 92
149 145 96
141 139 92
152 148 96
149 147 93
145 142 93
136 134 90
147 144 96
141 139 96
143 141 95
141 140 94
151 149 99
144 142 95
150 148 100
140 139 95
145 145 98
157 155 104
148 146 99
155 153 101
150 149 103
153 150 100
160 157 106
154 152 103
150 148 102
153 151 102
164 160 108
155 153 104
154 151 102
156 154 105
159 155 102
162 159 107
166 162 108
165 163 109
155 153 103
160 158 106
161 159 105
164 161 107
165 162 107
165 162 109
164 161 108
164 161 108
170 167 111
171 168 110
170 166 110
162 161 108
167 164 108
166 163 109
168 166 110
166 163 108
171 167 110
168 165 108
170 167 110
171 167 110
168 165 109
169 166 109
169 165 109
174 169 110
173 169 113
171 168 111
171 167 108
169 167 109
173 168 111
175 171 113
172 167 110
170 167 110
173 168 111
173 168 111
172 169 110
171 167 109
175 171 110
173 169 112
174 169 110
173 168 109
168 164 108
174 169 111
172 168 106
177 170 109
168 164 108
172 168 110
174 169 109
169 165 106
173 168 109
170 166 109
166 162 104
175 170 110
172 167 108
169 165 104
170 165 105
169 164 106
167 163 103
176 170 109
165 160 101
165 161 106
162 158 99
171 167 108
168 163 101
174 167 104
168 163 103
168 163 103
161 156 99
168 162 104
170 166 105
170 164 104
165 160 97
157 152 95
164 159 99
161 156 94
154 149 90
160 154 92
166 160 100
161 155 98
160 154 95
154 148 84
153 149 91
166 160 95
155 150 90
166 160 99
155 149 87
152 146 89
161 154 87
157 150 90
152 147 87
163 156 93
144 139 80
139 133 72
143 137 77
146 142 76
142 139 63
146 151 57
144 151 52
153 162 52
162 170 53
158 169 51
168 182 42
164 179 37
169 187 25
171 188 32
167 188 11
172 195 0
172 195 0
173 197 0
175 198 0
173 196 0
174 197 0
173 197 0
173 196 0
174 197 0
173 197 0
174 197 0
172 195 0
170 194 0
174 198 0
174 197 0
173 196 0
173 197 0
174 197 0
174 198 0
175 198 0
176 198 0
174 197 0
174 197 0
173 196 0
172 196 0
172 196 0
173 197 0
172 196 0
175 198 0
173 197 0
174 198 0
174 197 0
173 197 0
176 198 0
173 196 0
173 196 0
172 195 0
173 196 0
172 195 0
173 197 0
174 197 0
174 197 0
174 197 0
173 197 0
172 195 0
174 197 0
171 195 0
173 196 0
173 196 0
172 196 0
174 197 0
174 197 0
173 197 0
171 195 0
175 198 0
174 196 0
173 197 0
175 198 0
174 197 0
173 197 0
173 197 0
173 195 0
174 197 0
171 194 0
173 197 0
174 198 0
172 195 0
174 198 0
172 196 0
172 195 0
175 197 0
172 196 0
172 196 0
173 196 0
172 196 0
173 197 0
174 197 0
172 196 0
171 195 0
171 195 0
172 195 0
174 197 0
172 194 0
173 196 0
173 196 0
171 195 0
172 195 0
173 196 0
173 196 0
173 197 0
172 195 0
174 196 0
173 196 0
173 196 0
174 197 0
173 196 0
172 196 0
174 196 0
173 197 0
172 196 0
170 194 0
173 196 0
171 194 0
172 195 0
171 195 0
171 194 0
172 195 0
173 196 0
171 194 0
171 195 0
173 196 0
173 196 0
172 195 0
173 196 0
173 197 0
172 196 0
172 196 0
170 194 0
173 195 0
173 197 0
173 197 0
172 194 18
166 190 40
154 178 84
129 155 125
107 135 152
81 113 169
63 100 180
62 99 180
62 99 180
62 99 181
62 99 181
62 99 181
61 98 180
62 99 181
62 99 181
61 99 180
62 99 181
62 99 181
62 99 181
61 99 181
62 99 181
62 99 181
62 99 180
61 98 181
61 99 181
62 99 181
61 99 181
61 99 181
62 99 181
62 99 181
62 99 181
61 99 181
61 98 181
61 99 181
62 99 181
61 99 181
61 99 181
61 99 181
62 99 181
61 98 181
62 99 181
61 99 181
61 99 181
61 99 181
61 99 181
61 98 181
61 99 181
61 99 181
61 99 181
62 99 181
62 99 181
61 99 181
61 98 180
61 99 181
61 98 181
61 99 181
61 98 181
61 99 181
61 99 181
61 98 181
61 99 181
61 99 181
61 98 180
62 99 181
62 99 181
61 99 181
62 99 181
61 99 181
62 99 181
61 98 181
61 98 181
61 99 181
62 99 181
61 99 181
61 99 181
61 99 181
61 99 181
61 99 181
62 99 181
61 98 179
62 99 181
62 99 181
61 99 181
62 99 177
62 99 180
61 98 180
62 99 181
62 99 180
61 99 180
62 99 179
61 99 180
61 98 178
61 98 179
61 99 181
62 99 179
62 99 178
61 98 177
61 98 178
61 98 175
62 98 175
62 99 176
62 99 176
61 98 177
61 98 178
62 99 178
61 97 174
73 104 161
98 127 153
120 146 130
148 171 91
158 180 73
158 178 42
166 187 28
161 181 28
166 186 25
155 173 22
161 175 42
152 164 39
152 163 47
138 147 48
152 160 53
148 151 65
140 142 61
126 128 59
137 136 65
131 130 62
134 131 74
140 135 78
137 132 78
135 131 80
144 139 80
140 135 85
137 133 81
134 131 85
143 140 88
139 136 86
140 138 90
144 139 88
135 133 85
144 141 91
143 140 89
150 145 94
139 137 93
146 143 93
138 137 93
130 129 87
141 139 91
155 152 101
143 142 97
149 145 95
148 146 98
150 148 101
146 145 97
149 147 99
143 141 95
153 152 103
151 148 101
156 154 104
151 150 100
149 147 99
145 143 97
155 152 102
148 147 100
151 149 102
156 154 104
157 155 104
158 156 106
157 154 104
163 159 107
159 157 106
158 155 104
163 160 106
163 160 108
165 161 107
163 160 108
166 163 107
169 165 110
167 163 109
160 158 106
159 157 105
165 162 106
165 162 108
169 166 109
171 167 110
166 164 109
168 165 109
169 166 108
168 164 109
170 166 109
169 166 111
169 166 110
168 165 109
173 169 111
175 171 110
168 166 110
172 168 110
171 166 109
172 168 110
172 169 112
173 169 111
169 166 109
168 165 108
172 167 109
171 167 110
174 169 110
175 171 112
174 170 112
172 167 109
173 169 111
175 170 110
172 168 111
177 171 112
174 170 111
172 168 109
173 169 110
172 168 110
168 165 107
168 165 107
174 169 108
167 165 107
172 167 109
170 166 106
169 165 107
170 166 108
167 162 104
171 166 106
171 166 107
169 166 107
167 162 105
169 164 105
168 164 105
168 163 105
177 171 109
166 162 102
170 164 107
168 163 106
164 159 99
170 165 107
169 163 103
169 164 100
163 158 97
162 158 94
160 155 96
162 157 96
166 160 99
159 155 94
170 164 102
164 158 95
157 152 95
160 154 96
160 155 94
163 158 97
166 159 99
159 154 95
163 156 94
156 151 95
156 150 91
155 149 87
158 152 87
158 152 89
144 138 81
155 149 85
151 145 84
155 148 89
144 138 83
143 138 76
147 142 77
142 140 69
143 142 70
152 153 76
143 148 58
155 164 54
157 167 51
157 167 51
158 173 39
164 178 39
163 181 28
168 189 19
168 190 0
175 197 0
173 197 0
173 196 0
173 197 0
174 197 0
175 197 0
172 195 0
172 196 0
173 196 0
174 197 0
174 197 0
174 197 0
173 197 0
173 197 0
173 197 0
173 196 0
172 196 0
173 196 0
173 197 0
172 196 0
174 198 0
170 194 0
172 194 0
174 197 0
172 196 0
174 197 0
174 198 0
174 198 0
173 196 0
173 196 0
170 194 0
172 196 0
172 195 0
171 195 0
172 196 0
174 197 0
173 197 0
174 198 0
172 196 0
172 196 0
174 197 0
173 196 0
173 196 0
175 198 0
172 196 0
172 197 0
174 196 0
173 196 0
172 195 0
173 197 0
173 196 0
173 196 0
172 195 0
172 196 0
170 193 0
174 196 0
171 195 0
172 195 0
173 196 0
174 197 0
171 196 0
173 196 0
174 198 0
173 196 0
171 195 0
173 197 0
173 197 0
174 197 0
173 196 0
172 196 0
172 196 0
172 196 0
173 196 0
173 195 0
173 197 0
175 198 0
173 196 0
172 195 0
172 196 0
171 194 0
172 196 0
173 197 0
172 195 0
174 197 0
172 196 0
173 196 0
170 194 0
172 196 0
170 193 0
174 197 0
171 194 0
172 196 0
173 196 0
173 197 0
172 195 0
172 196 0
173 196 0
173 196 0
171 194 0
172 196 0
175 197 0
172 195 0
172 196 0
171 194 0
175 198 0
172 195 0
172 195 0
172 195 0
174 197 0
173 197 0
172 196 0
172 196 0
174 198 0
171 194 0
172 195 0
172 196 0
174 197 0
172 195 0
170 193 0
170 194 0
173 197 0
166 189 57
150 175 92
129 154 130
95 124 162
66 102 179
62 99 180
62 99 181
62 99 179
61 99 181
62 99 181
61 99 181
62 99 181
61 99 181
62 99 181
61 98 180
61 99 181
62 99 181
61 98 180
62 99 181
61 99 181
62 99 181
61 99 181
61 99 181
61 99 181
61 98 181
62 99 181
62 99 181
62 99 181
61 98 181
61 98 181
62 99 181
61 99 181
62 99 181
62 99 181
62 99 181
61 99 181
61 99 181
61 99 181
62 99 181
61 98 181
62 99 181
61 99 181
61 99 181
62 99 181
61 99 181
61 99 181
61 98 181
61 99 181
61 98 181
62 99 181
62 99 181
61 99 181
61 98 181
61 99 181
61 98 181
61 98 181
61 99 181
61 98 181
62 99 181
61 99 181
61 99 181
61 99 181
61 99 181
62 99 181
62 99 181
61 99 181
62 99 181
62 99 181
62 99 181
62 99 181
61 99 181
62 99 181
62 99 181
61 98 180
62 99 181
61 98 181
62 99 181
62 99 179
62 99 181
61 98 180
62 99 181
62 99 181
61 99 181
62 99 181
61 98 179
62 99 180
62 99 180
61 99 181
62 99 179
61 99 181
62 99 179
62 98 176
62 99 180
61 98 180
62 98 178
60 97 176
61 97 173
61 98 176
62 98 175
61 97 177
61 97 175
62 99 178
61 98 176
62 98 176
62 99 179
60 96 170
62 98 176
69 103 174
80 111 161
119 145 130
136 158 108
153 175 78
158 178 48
162 179 42
160 176 32
150 164 37
155 169 36
154 163 53
154 163 51
148 157 49
156 163 62
153 157 65
142 143 65
137 140 61
143 142 72
141 137 70
136 132 74
138 135 81
132 128 79
140 137 84
137 135 84
132 128 76
149 144 87
145 141 88
136 132 82
125 122 80
136 133 83
139 137 87
140 138 92
145 142 93
141 138 89
149 146 96
152 149 100
134 133 90
144 143 94
132 130 88
138 137 92
144 142 96
138 136 92
152 149 101
150 148 99
148 146 98
149 147 99
149 146 98
148 147 100
148 147 100
148 146 100
147 146 99
151 148 100
146 145 99
144 143 99
152 149 101
156 153 103
140 139 96
161 158 106
161 157 106
152 150 102
155 153 103
155 152 103
165 162 109
156 154 104
160 157 106
161 159 107
159 157 105
166 163 108
161 159 107
163 160 106
165 162 106
169 165 110
166 164 109
168 164 109
164 161 108
164 161 108
170 167 111
167 163 109
168 165 111
175 170 112
169 166 110
168 165 109
171 168 110
174 170 111
173 168 111
171 167 110
169 166 110
170 167 111
169 165 107
173 168 112
171 167 110
171 167 110
171 168 111
168 165 108
171 168 109
174 170 111
174 169 110
173 169 109
177 171 113
177 171 111
172 169 110
168 164 108
175 171 112
173 169 109
174 170 109
170 167 110
171 167 110
172 167 106
170 167 110
172 166 109
175 171 111
166 163 106
174 169 110
168 164 106
172 166 108
171 167 105
171 167 109
173 168 110
167 163 104
169 165 106
174 168 106
167 162 101
170 166 107
169 164 106
164 161 101
169 165 104
167 163 106
170 165 104
169 163 103
167 161 103
167 162 101
167 162 103
165 159 99
163 158 98
164 159 98
164 159 100
168 162 100
162 156 97
165 160 100
166 161 100
163 157 97
164 158 97
170 163 100
161 155 95
160 155 95
155 149 90
157 152 95
164 158 95
153 149 92
152 146 84
152 146 87
152 146 85
162 155 93
152 147 85
156 151 89
156 150 85
152 145 84
156 150 85
145 139 80
158 151 90
144 139 75
145 142 67
150 148 73
149 154 58
154 155 73
162 172 54
157 167 52
161 174 39
163 178 37
161 180 28
166 185 25
168 190 19
168 191 11
172 195 0
174 197 0
175 198 0
173 196 0
172 197 0
173 197 0
173 197 0
175 198 0
173 197 0
175 197 0
171 195 0
175 198 0
172 196 0
174 197 0
174 197 0
173 196 0
172 196 0
172 196 0
169 193 0
174 197 0
174 197 0
173 197 0
173 196 0
172 196 0
175 198 0
174 196 0
173 197 0
171 195 0
173 196 0
173 196 0
173 196 0
170 194 0
172 196 0
170 193 0
171 195 0
173 196 0
174 197 0
171 194 0
173 197 0
174 198 0
172 195 0
175 197 0
173 197 0
174 197 0
171 194 0
173 196 0
173 196 0
171 195 0
174 196 0
174 198 0
171 196 0
173 197 0
174 198 0
174 198 0
173 196 0
173 197 0
173 197 0
171 195 0
173 196 0
173 196 0
174 197 0
173 196 0
173 195 0
175 197 0
173 197 0
172 195 0
173 196 0
170 194 0
174 198 0
170 194 0
173 197 0
172 195 0
170 193 0
173 197 0
172 196 0
173 197 0
172 195 0
173 197 0
172 195 0
172 196 0
174 197 0
172 195 0
173 196 0
172 195 0
173 196 0
172 195 0
173 197 0
173 196 0
172 196 0
174 196 0
174 196 0
172 195 0
172 195 0
174 197 0
175 198 0
171 195 0
173 195 0
171 193 0
173 196 0
174 198 0
174 197 0
172 195 0
175 198 0
173 196 0
171 195 0
171 195 0
172 196 0
173 197 0
170 194 0
174 197 0
172 195 0
174 197 0
173 196 0
172 195 0
173 197 0
170 194 0
173 197 0
171 195 18
170 193 31
156 179 74
138 163 111
117 143 140
81 113 170
62 99 180
61 99 180
63 100 181
62 99 181
62 99 181
62 99 181
62 99 181
62 99 181
62 99 181
61 99 180
61 99 181
61 98 181
62 99 180
62 99 181
61 99 181
61 99 181
62 99 181
62 99 181
61 99 180
62 99 181
62 99 181
62 99 181
62 99 181
61 98 181
62 99 181
62 99 181
62 99 181
61 99 181
62 99 181
62 99 181
62 99 181
61 98 181
62 99 181
62 99 181
61 99 181
61 98 181
62 99 181
61 99 181
61 99 181
61 98 180
62 99 181
62 99 181
61 98 181
61 99 181
62 99 181
61 99 181
61 98 181
61 99 181
61 99 181
61 98 181
62 99 181
62 99 181
61 99 181
61 99 181
62 99 181
61 99 181
62 99 181
61 99 181
62 99 180
61 99 181
61 98 181
62 99 181
61 98 181
62 99 181
62 99 181
62 99 180
61 99 181
62 99 181
62 99 181
61 99 181
61 99 181
61 99 181
62 99 181
61 97 178
62 99 181
61 99 181
61 98 180
62 99 181
62 99 181
62 99 181
61 99 180
61 98 179
62 99 181
62 99 181
61 98 179
62 99 181
62 99 181
62 99 181
61 98 178
62 99 180
62 99 179
61 98 178
61 98 177
62 99 179
61 98 179
62 99 178
62 98 177
62 99 177
61 98 175
62 98 172
61 98 176
61 98 174
62 99 179
62 98 175
61 97 175
66 101 173
78 110 164
102 129 152
125 146 122
142 164 89
157 173 71
158 176 40
150 165 35
152 166 34
151 163 44
152 161 53
151 159 54
150 156 55
147 151 58
137 139 59
144 146 69
136 133 73
134 130 77
142 137 75
138 132 79
136 132 78
130 127 74
126 124 77
127 125 73
136 133 81
124 123 80
134 131 84
135 132 84
135 132 87
140 137 88
134 132 86
125 123 81
134 131 83
134 132 88
145 142 93
135 134 90
143 141 96
126 125 85
140 137 90
144 142 94
150 147 100
141 140 95
147 144 98
141 139 94
137 135 92
136 134 92
148 146 98
152 150 101
149 147 100
143 142 96
155 152 101
145 143 97
153 151 103
156 153 102
148 147 101
152 150 100
159 157 105
160 157 104
151 149 101
163 160 107
159 157 105
160 156 105
158 156 105
165 161 108
156 154 105
164 161 108
162 159 107
161 158 105
157 155 102
162 159 106
167 163 110
166 163 110
167 163 109
167 164 109
171 167 111
166 163 108
169 166 109
171 168 111
171 167 111
168 165 108
166 162 108
170 166 109
172 169 111
168 165 109
173 168 111
169 165 108
169 166 109
170 166 110
172 168 110
174 170 111
171 167 110
170 166 108
173 169 107
175 171 111
175 171 111
171 166 109
169 166 108
173 169 111
171 167 110
176 171 111
173 169 109
173 168 108
170 167 110
174 170 111
170 167 109
169 165 109
170 166 107
173 168 110
172 168 107
172 168 108
171 167 107
167 163 104
176 170 110
168 164 104
171 167 107
172 167 109
174 169 109
170 166 108
170 165 108
164 160 102
167 162 103
165 159 103
165 160 104
166 161 102
165 161 101
170 165 103
173 168 106
170 165 103
163 159 101
164 159 99
166 160 103
165 160 103
163 158 97
161 156 99
166 161 100
166 160 99
167 162 99
162 157 98
161 155 96
166 160 98
165 159 98
168 161 101
155 149 87
163 158 96
164 159 97
157 152 91
158 153 90
154 148 89
153 148 86
153 147 88
154 148 84
159 153 88
160 154 87
149 143 83
152 145 84
148 142 80
147 141 78
148 143 84
150 144 76
146 141 80
153 150 69
151 152 59
148 150 66
149 153 59
159 169 53
158 168 53
159 176 32
158 172 32
159 176 37
161 180 11
169 190 11
170 191 16
171 195 0
172 196 0
174 197 0
172 196 0
174 197 0
174 198 0
175 198 0
174 198 0
174 197 0
173 197 0
173 197 0
170 194 0
173 197 0
174 197 0
174 197 0
173 196 0
175 198 0
175 198 0
174 197 0
174 197 0
173 196 0
172 196 0
174 197 0
173 197 0
171 194 0
172 196 0
172 195 0
172 196 0
175 197 0
173 196 0
174 197 0
174 198 0
172 195 0
172 196 0
175 198 0
173 196 0
173 197 0
174 196 0
171 195 0
173 197 0
173 197 0
175 198 0
173 197 0
173 197 0
174 197 0
172 194 0
172 195 0
175 198 0
170 194 0
173 197 0
174 197 0
174 197 0
173 196 0
174 196 0
172 196 0
173 196 0
173 197 0
172 196 0
172 196 0
172 195 0
175 198 0
171 195 0
174 197 0
173 197 0
174 197 0
172 196 0
174 198 0
175 198 0
172 195 0
173 195 0
172 195 0
172 195 0
171 195 0
172 195 0
174 197 0
174 197 0
171 195 0
173 197 0
171 195 0
176 199 0
171 195 0
173 197 0
174 197 0
171 194 0
173 196 0
172 195 0
173 197 0
173 196 0
173 197 0
172 196 0
172 196 0
171 194 0
173 196 0
172 196 0
170 194 0
175 198 0
171 195 0
174 196 0
173 196 0
174 197 0
173 197 0
174 197 0
172 194 0
171 195 0
173 196 0
172 195 0
173 196 0
173 196 0
172 195 0
170 193 0
171 194 0
173 196 0
172 196 0
174 197 0
172 196 0
172 195 0
170 193 0
170 193 18
159 183 72
135 161 121
98 128 155
73 107 173
62 99 181
62 99 180
62 99 180
62 99 180
61 99 180
61 98 180
62 99 181
61 99 181
61 98 181
62 99 181
61 99 181
61 99 181
62 99 181
62 99 181
62 99 181
61 99 181
62 99 181
61 99 181
62 99 181
62 99 181
62 99 181
62 99 181
62 99 181
61 99 181
60 98 181
62 99 181
62 99 181
61 99 180
62 99 181
61 98 181
61 98 181
62 99 181
62 99 181
62 99 181
61 99 181
62 99 181
61 99 181
61 99 181
62 99 181
61 99 181
61 99 181
61 98 181
61 98 181
62 99 181
61 99 181
62 99 180
62 99 181
61 99 181
62 99 181
62 99 181
61 99 181
61 98 180
61 99 181
61 98 180
62 99 181
61 99 181
62 99 181
61 99 181
61 98 181
61 99 181
61 98 181
62 99 181
61 98 181
62 99 181
61 98 180
62 99 181
62 99 181
62 99 180
62 99 181
62 99 181
62 99 181
62 99 181
61 98 181
61 99 181
62 99 180
62 99 181
62 99 181
61 99 180
62 99 181
62 99 181
61 99 180
62 99 181
61 99 180
61 98 179
62 99 180
61 99 181
61 98 178
62 99 180
61 98 178
62 99 177
61 99 180
62 99 179
62 98 177
61 98 179
62 99 180
61 98 176
61 98 179
61 98 178
62 98 177
61 98 178
61 97 174
61 98 175
61 98 176
61 97 174
61 97 175
61 97 174
61 97 174
61 97 172
65 99 168
87 115 151
120 143 127
143 161 102
147 163 70
151 162 62
156 169 48
153 164 46
144 153 51
147 155 56
140 147 47
144 145 70
144 147 61
133 133 61
138 136 71
144 139 78
142 137 80
135 131 73
138 134 77
136 132 84
145 141 86
125 122 76
125 122 79
128 124 77
127 125 80
125 123 79
127 126 80
119 118 76
134 132 85
129 128 85
129 128 86
129 128 85
144 140 89
141 139 92
140 138 92
138 136 89
148 145 95
134 133 90
139 137 93
134 134 93
137 137 94
144 141 94
138 137 95
131 130 90
146 144 98
154 151 102
155 152 102
147 145 98
147 146 101
148 146 97
152 150 100
144 143 98
151 149 100
149 148 101
153 152 103
161 158 106
158 156 105
161 158 106
160 158 105
159 156 104
161 158 106
154 153 104
160 157 104
163 160 107
160 157 106
163 161 107
156 154 101
158 156 104
160 157 106
163 160 107
165 162 109
164 161 107
161 158 106
167 164 109
171 167 111
172 168 111
170 167 110
166 164 108
170 167 111
169 166 110
171 167 109
172 168 110
169 165 108
170 166 109
168 164 107
172 169 112
172 168 111
173 169 110
171 167 109
172 168 110
175 170 112
172 168 109
176 170 111
176 171 112
173 169 109
175 171 109
175 170 110
174 169 110
177 172 110
167 164 105
175 171 110
171 167 110
176 171 111
175 170 111
174 170 112
172 168 107
169 164 106
169 166 105
178 172 110
175 171 112
168 165 106
173 168 108
171 165 105
171 166 106
173 168 108
176 171 111
176 170 110
173 168 105
169 164 106
166 162 102
173 167 107
176 170 106
170 166 106
165 160 101
165 161 101
168 162 103
169 165 106
169 164 102
165 160 100
171 165 107
164 159 98
168 163 101
168 164 102
167 160 97
168 162 101
163 157 96
164 158 99
166 159 100
167 162 100
164 158 93
157 151 89
158 152 93
151 146 87
160 155 95
152 147 88
156 150 89
159 152 91
159 153 90
151 147 87
164 157 91
160 154 89
151 145 84
150 143 75
149 144 81
138 133 75
143 136 78
140 134 77
145 139 77
139 136 72
144 144 65
157 159 66
145 152 56
145 151 57
155 164 52
157 169 45
162 176 41
155 168 41
170 187 37
164 185 19
170 191 0
173 196 0
174 197 0
173 196 0
172 196 0
172 195 0
173 196 0
175 198 0
174 197 0
175 198 0
175 198 0
174 198 0
173 197 0
175 198 0
174 197 0
173 197 0
173 196 0
175 197 0
174 197 0
174 197 0
172 196 0
173 196 0
174 197 0
173 196 0
173 196 0
174 197 0
171 194 0
171 196 0
174 197 0
172 196 0
170 194 0
173 197 0
173 197 0
173 195 0
173 196 0
173 196 0
171 195 0
173 197 0
173 197 0
174 197 0
172 195 0
172 196 0
173 197 0
170 194 0
172 196 0
173 196 0
175 198 0
172 195 0
173 196 0
170 193 0
171 194 0
173 196 0
172 196 0
171 195 0
173 196 0
174 197 0
174 198 0
174 197 0
175 198 0
173 196 0
173 196 0
168 192 0
172 196 0
172 194 0
174 197 0
173 196 0
173 196 0
173 197 0
173 196 0
173 196 0
173 196 0
173 196 0
174 197 0
172 195 0
173 196 0
173 197 0
173 197 0
173 197 0
172 195 0
174 198 0
173 197 0
174 197 0
173 197 0
172 196 0
174 197 0
172 196 0
173 196 0
172 196 0
173 196 0
170 193 0
172 196 0
172 196 0
173 196 0
170 193 0
171 194 0
173 196 0
173 196 0
173 197 0
174 196 0
170 194 0
174 197 0
173 196 0
171 194 0
170 193 0
172 195 0
173 196 0
172 196 0
172 195 0
172 195 0
171 194 0
169 193 0
171 194 0
173 196 0
173 196 0
173 195 0
171 194 0
171 194 0
164 188 54
153 177 86
129 155 126
97 126 157
69 104 177
62 99 180
62 99 181
61 99 181
62 99 180
62 99 181
62 99 181
61 99 181
61 98 180
62 99 180
62 99 181
62 99 181
61 99 181
62 99 181
62 99 181
62 99 181
61 99 181
62 99 181
62 99 181
62 99 181
62 99 181
62 99 181
61 99 181
61 99 181
62 99 181
62 99 181
61 98 180
61 98 181
62 99 181
61 99 181
61 98 181
61 99 181
62 99 181
61 99 181
62 99 181
61 99 181
61 99 181
62 99 181
62 99 181
61 98 181
61 99 181
60 98 181
62 99 181
62 99 181
61 98 181
61 99 181
61 98 181
61 99 181
61 98 181
61 99 181
61 99 181
61 99 181
62 99 181
62 99 181
61 98 181
61 99 181
61 99 181
61 98 181
62 99 181
62 99 181
61 99 181
62 99 181
61 99 181
61 99 181
61 98 181
62 99 181
62 99 181
62 99 181
61 99 181
62 99 181
61 99 180
62 99 181
62 99 181
61 99 179
61 99 181
61 99 181
61 99 181
62 99 180
61 99 181
62 99 178
62 99 181
62 99 181
62 99 179
61 98 178
62 99 181
61 99 179
62 99 181
61 99 181
61 99 180
61 98 178
62 99 178
62 99 181
62 99 179
62 99 180
61 98 178
62 98 178
62 98 175
62 98 176
62 99 178
62 99 177
61 98 176
62 98 178
62 98 174
61 97 175
61 97 176
61 98 175
62 99 176
62 98 175
61 97 172
61 97 173
62 98 173
65 100 169
92 118 153
120 140 121
136 152 93
144 159 90
151 163 67
141 153 50
146 156 45
146 152 59
137 143 56
138 142 57
139 141 67
141 138 75
135 134 69
131 129 65
130 127 76
129 125 78
140 136 82
142 138 83
120 119 74
141 137 84
126 126 75
136 133 82
135 132 85
144 140 87
137 134 85
140 136 89
129 127 83
135 133 87
132 131 86
133 131 86
133 132 88
140 139 94
133 132 90
154 151 100
131 129 86
143 141 96
133 132 89
135 133 88
143 141 95
142 140 93
143 140 93
137 137 95
144 144 97
150 148 100
150 149 102
145 144 98
149 147 100
148 146 99
147 147 103
155 153 101
155 153 103
146 146 99
151 149 101
154 152 103
151 149 100
157 153 103
161 158 106
154 152 101
166 162 107
159 157 106
158 155 103
164 161 108
159 158 107
159 157 104
164 161 107
165 162 108
164 161 106
164 161 106
163 161 108
164 160 105
165 161 107
169 165 108
166 164 110
170 166 111
170 166 108
168 164 109
168 165 111
166 163 108
168 165 109
173 169 110
171 167 110
166 163 108
168 165 108
174 169 110
174 169 110
170 168 109
172 169 110
172 168 111
176 171 113
172 168 109
171 167 108
174 171 112
173 169 111
172 168 108
177 172 111
174 169 110
173 168 110
173 168 107
174 169 109
176 171 110
175 170 110
171 166 109
174 169 110
172 169 109
170 165 105
174 169 110
173 168 108
170 166 106
175 170 110
169 165 103
174 168 108
171 166 104
172 166 108
173 168 109
172 167 108
168 163 106
170 166 107
175 169 109
161 157 98
170 166 104
170 165 101
167 163 103
171 166 105
164 158 100
168 165 101
162 157 102
169 164 101
171 165 104
171 167 103
157 152 94
164 158 99
159 154 95
169 163 101
168 161 97
167 161 97
156 152 92
159 154 93
167 161 97
157 153 93
161 154 93
166 160 96
162 156 93
164 157 90
157 151 90
157 151 85
161 154 93
160 154 90
156 150 86
160 153 90
154 148 84
168 161 95
156 149 84
150 144 80
141 135 79
153 148 85
147 140 77
142 137 75
149 147 72
147 148 68
145 150 52
151 158 57
156 166 48
151 162 48
160 171 41
169 186 36
164 181 28
170 190 19
163 184 19
174 196 16
171 194 0
174 197 0
175 198 0
173 197 0
173 197 0
174 197 0
173 197 0
173 197 0
172 196 0
176 198 0
174 197 0
171 194 0
172 196 0
172 195 0
174 197 0
172 195 0
173 197 0
172 196 0
173 196 0
172 195 0
171 194 0
173 196 0
172 195 0
173 197 0
174 197 0
175 198 0
174 198 0
174 197 0
170 194 0
171 195 0
172 195 0
174 197 0
174 197 0
172 196 0
172 197 0
172 196 0
170 194 0
175 198 0
171 194 0
173 196 0
173 196 0
175 198 0
174 197 0
175 198 0
175 198 0
172 195 0
174 197 0
173 197 0
173 196 0
175 197 0
173 197 0
173 196 0
173 197 0
170 194 0
173 196 0
172 194 0
173 197 0
174 197 0
168 191 0
174 196 0
175 198 0
173 197 0
173 196 0
172 196 0
174 197 0
173 197 0
174 197 0
171 195 0
175 198 0
174 197 0
174 196 0
172 195 0
170 194 0
172 195 0
174 197 0
173 196 0
174 197 0
172 196 0
174 197 0
175 198 0
173 197 0
175 198 0
172 196 0
172 196 0
173 196 0
172 196 0
171 195 0
173 195 0
173 196 0
173 197 0
171 194 0
173 196 0
171 195 0
172 196 0
173 197 0
173 197 0
172 196 0
171 195 0
172 195 0
173 196 0
173 196 0
171 195 0
171 194 0
172 195 0
173 196 0
170 193 0
173 196 0
172 196 0
173 196 0
173 196 0
171 196 0
172 196 0
173 196 0
175 198 0
169 192 44
147 171 102
128 151 127
88 118 165
65 101 179
62 99 180
62 99 180
62 99 181
62 99 179
63 100 181
62 99 181
62 99 181
61 99 181
62 99 181
62 99 181
62 99 181
62 99 181
62 99 180
61 99 181
62 99 181
62 99 179
62 99 181
62 99 181
61 99 181
61 99 181
61 98 181
62 99 181
61 98 181
62 99 181
62 99 181
61 98 181
62 99 180
62 99 181
61 99 181
62 99 181
62 99 181
61 99 181
62 99 181
62 99 181
61 99 181
61 99 180
61 99 181
62 99 181
62 99 181
61 98 181
61 98 181
62 99 181
61 99 181
61 98 181
62 99 181
61 99 181
62 99 181
61 99 181
62 99 181
62 99 181
62 99 181
61 99 181
62 99 181
61 99 181
61 99 181
62 99 181
61 98 181
62 99 181
62 99 181
62 99 181
61 98 180
61 99 181
61 99 181
61 99 181
62 99 181
61 99 181
61 99 181
62 99 181
61 99 180
62 99 181
62 99 181
61 99 180
62 99 181
61 99 181
62 99 181
61 99 181
62 99 181
61 99 179
62 99 181
61 99 179
62 99 181
61 99 180
62 99 181
62 99 180
62 99 181
62 99 179
62 99 179
62 99 179
62 99 179
62 99 178
61 98 179
62 99 181
61 98 179
62 99 178
62 99 179
62 99 179
61 98 177
62 99 179
62 99 179
61 98 177
62 99 177
62 99 177
62 99 179
63 99 177
61 97 173
62 98 174
61 97 174
61 97 173
62 98 177
62 98 172
62 98 175
61 97 171
62 96 166
74 104 162
108 130 139
127 143 107
145 160 90
145 154 68
149 158 53
141 148 53
135 141 57
147 151 63
145 146 67
140 139 71
129 128 71
133 128 71
128 125 69
125 122 73
138 134 76
129 126 77
130 127 77
138 135 78
134 131 83
123 121 76
140 137 86
137 134 85
127 126 79
145 140 88
130 129 84
133 132 86
130 128 84
135 133 89
138 136 89
130 130 87
133 132 90
128 128 84
123 124 88
142 140 95
133 133 91
138 137 92
151 149 98
141 140 97
141 139 95
138 137 94
145 144 98
142 141 95
145 143 98
157 155 105
150 148 100
148 147 99
150 148 100
147 145 97
157 154 104
161 157 105
151 149 101
158 156 105
156 154 103
158 155 103
152 150 102
151 149 101
162 159 107
156 155 104
159 156 105
162 158 104
160 157 106
161 158 106
167 164 109
165 162 107
164 161 106
163 159 107
162 159 104
164 161 108
166 162 108
164 161 106
167 163 108
169 165 109
161 159 107
172 168 110
172 169 110
170 166 109
169 165 108
170 166 109
173 168 110
171 167 109
173 170 110
174 170 113
175 170 107
172 169 109
173 169 110
175 170 108
173 169 108
172 168 108
175 171 111
175 170 110
175 171 112
170 166 106
174 170 110
175 171 112
171 167 107
176 171 110
173 169 109
171 167 107
176 171 110
175 170 109
172 168 106
172 168 107
172 168 107
170 165 106
173 168 108
173 169 109
172 167 106
174 169 109
173 169 107
172 167 107
174 169 108
168 164 102
174 169 106
170 165 106
170 165 104
169 165 103
173 168 105
168 163 103
165 161 100
173 168 104
167 163 104
170 164 103
169 164 103
169 163 101
165 161 100
165 161 100
169 163 101
165 159 97
162 157 96
162 157 99
168 161 98
162 157 95
165 159 95
156 152 93
157 152 87
165 159 97
162 155 92
162 157 96
162 155 94
159 154 93
155 150 88
161 155 90
160 154 88
152 146 85
151 146 84
164 157 92
147 142 77
159 152 90
149 143 79
153 146 84
150 144 82
144 139 78
141 135 79
148 142 78
137 134 61
146 145 70
148 146 69
148 149 66
156 164 54
148 156 53
160 169 51
165 177 52
159 176 34
165 183 28
169 189 30
170 190 22
172 194 11
173 196 0
174 197 0
175 198 0
174 197 0
172 196 0
174 197 0
174 197 0
172 195 0
174 196 0
171 196 0
174 197 0
172 197 0
169 194 0
172 196 0
172 196 0
172 196 0
171 195 0
173 197 0
173 197 0
172 196 0
172 195 0
174 197 0
174 197 0
173 196 0
174 198 0
174 197 0
171 195 0
171 195 0
173 197 0
172 195 0
174 198 0
173 197 0
173 196 0
171 194 0
173 197 0
172 196 0
175 197 0
174 197 0
172 195 0
171 194 0
173 197 0
173 196 0
172 195 0
172 196 0
172 195 0
171 195 0
175 198 0
172 196 0
172 196 0
170 193 0
173 196 0
172 195 0
172 196 0
172 196 0
172 196 0
173 197 0
172 196 0
175 198 0
173 196 0
173 196 0
170 195 0
171 195 0
173 196 0
174 197 0
175 198 0
173 196 0
171 194 0
172 196 0
169 192 0
173 196 0
172 194 0
172 196 0
174 197 0
173 196 0
172 195 0
173 197 0
174 196 0
173 196 0
173 196 0
173 196 0
172 195 0
172 195 0
172 195 0
170 193 0
173 196 0
172 196 0
173 197 0
171 194 0
169 192 0
171 194 0
171 195 0
172 195 0
170 194 0
171 195 0
174 197 0
171 195 0
173 196 0
172 196 0
173 197 0
170 194 0
170 194 0
172 196 0
173 196 0
171 195 0
173 196 0
172 195 0
172 195 0
170 194 0
172 195 0
169 192 0
172 195 0
172 195 0
174 198 0
165 189 47
155 179 82
125 151 133
90 120 165
62 99 180
62 99 181
62 99 181
62 99 181
62 99 179
62 99 181
62 99 181
62 99 181
61 99 181
62 99 181
62 99 181
62 99 181
61 99 181
62 99 181
62 99 181
62 99 181
62 99 181
62 99 181
62 99 181
62 99 181
62 99 181
62 99 181
61 99 181
62 99 181
63 100 181
61 99 181
61 99 181
62 99 181
62 99 181
61 99 181
61 99 181
61 98 181
62 99 181
62 99 181
61 99 181
62 99 181
61 99 181
61 99 181
62 99 181
62 99 181
61 99 181
62 99 181
62 99 181
61 99 181
61 99 181
61 99 181
61 99 181
61 99 181
61 99 181
61 98 181
62 99 181
61 98 181
61 98 181
61 99 181
61 99 180
62 99 181
61 99 181
62 99 181
61 98 181
62 99 181
61 99 181
61 99 181
62 99 181
61 99 181
62 99 181
62 99 181
62 99 181
61 99 181
62 99 181
62 99 181
62 99 181
61 99 181
62 99 181
61 99 181
61 98 179
62 99 180
61 99 181
61 99 180
62 99 180
62 99 181
62 99 181
61 98 180
61 98 178
62 99 180
61 99 181
61 98 180
62 99 179
61 98 177
62 99 179
62 99 179
62 99 181
61 99 181
61 98 181
61 98 179
61 99 180
62 99 179
61 98 179
62 98 175
62 99 180
62 99 177
62 98 175
63 99 180
62 99 179
61 98 176
62 98 175
62 98 177
62 98 176
62 99 177
62 99 179
61 98 176
61 98 175
61 97 171
62 99 178
61 97 174
61 97 171
61 97 169
74 105 163
97 119 147
113 126 110
136 145 80
140 146 72
146 151 62
143 148 59
143 146 61
134 137 58
142 139 76
134 132 68
130 125 66
124 121 65
117 115 67
122 121 71
134 131 80
123 121 73
127 125 80
129 126 73
127 126 83
126 124 79
124 122 80
132 129 81
122 122 78
134 132 85
117 117 77
132 130 86
137 135 89
134 132 87
137 135 90
133 132 92
125 124 82
131 131 90
141 139 96
131 131 90
134 135 95
140 139 95
138 136 91
140 139 94
139 138 93
139 138 95
142 141 96
145 143 98
147 145 99
153 151 102
149 147 99
154 152 102
145 145 98
155 152 103
146 145 99
156 153 102
155 153 101
152 149 101
159 156 106
163 160 105
152 150 101
154 153 103
155 154 105
157 155 103
165 163 109
164 162 108
164 161 107
165 162 107
166 163 108
165 163 108
165 162 107
164 162 108
163 160 107
165 162 108
167 164 109
165 162 107
168 164 107
171 167 111
169 166 110
172 167 109
175 170 110
169 166 109
170 167 109
175 170 110
173 169 109
173 169 111
168 165 108
176 170 112
174 169 111
172 168 108
171 167 107
169 165 107
175 170 109
173 169 109
171 167 109
174 169 110
174 169 110
178 171 110
173 169 108
175 170 108
175 171 111
172 167 106
172 168 108
175 170 111
176 170 108
174 170 109
174 168 108
174 169 107
170 165 103
173 169 108
172 167 106
171 166 104
173 168 108
175 170 108
175 170 108
174 169 106
175 170 108
174 169 107
170 167 103
170 165 104
167 163 103
167 163 102
170 166 107
173 167 106
167 162 103
168 163 103
167 162 97
171 166 106
162 157 94
170 165 104
165 159 99
165 159 98
168 163 99
167 161 99
164 158 97
168 163 101
161 156 91
161 155 95
164 159 101
168 161 99
165 160 99
165 159 98
164 157 97
164 158 97
157 151 91
165 157 96
164 158 94
157 150 91
161 155 89
153 148 85
158 152 90
158 151 89
151 146 84
141 136 76
153 147 84
144 138 76
151 145 82
141 135 75
142 137 74
145 141 74
141 140 59
147 147 66
153 155 66
154 158 64
156 166 54
156 165 51
161 173 49
154 169 34
163 180 36
170 190 19
167 186 22
170 191 0
173 196 16
174 197 0
173 196 0
173 197 0
174 198 0
174 197 0
173 196 0
172 196 0
174 197 0
173 196 0
172 195 0
174 197 0
176 198 0
173 196 0
173 197 0
174 197 0
172 196 0
172 195 0
171 195 0
173 197 0
174 197 0
172 195 0
172 195 0
169 193 0
167 191 0
172 195 0
171 194 0
175 198 0
172 196 0
170 193 0
171 195 0
170 194 0
172 195 0
175 198 0
172 196 0
173 196 0
173 197 0
172 196 0
171 194 0
174 197 0
173 196 0
175 198 0
174 197 0
174 197 0
172 195 0
172 196 0
173 197 0
172 196 0
173 197 0
175 197 0
172 195 0
174 197 0
173 196 0
173 196 0
171 194 0
174 198 0
173 197 0
173 196 0
173 196 0
173 196 0
169 193 0
173 195 0
174 196 0
172 197 0
172 195 0
169 193 0
173 196 0
174 197 0
171 195 0
171 195 0
173 197 0
171 193 0
173 196 0
173 197 0
174 197 0
173 196 0
172 196 0
173 196 0
172 195 0
173 197 0
171 195 0
172 195 0
173 197 0
170 195 0
172 196 0
170 194 0
174 198 0
172 196 0
171 193 0
171 195 0
172 195 0
171 195 0
174 197 0
170 193 0
172 195 0
171 194 0
174 197 0
176 198 0
172 195 0
171 195 0
169 192 0
173 195 0
175 198 0
173 196 0
170 194 0
171 194 0
173 196 0
169 192 0
175 197 0
170 193 0
171 195 0
169 193 18
170 193 40
151 175 92
114 141 144
75 108 171
62 99 181
61 98 180
61 99 181
62 99 179
62 99 180
62 99 181
62 99 180
62 99 180
62 99 180
62 99 181
62 99 181
61 99 181
62 99 181
62 99 181
62 99 181
61 99 181
62 99 181
61 99 181
62 99 181
61 99 181
61 98 181
62 99 181
61 98 180
61 99 181
62 99 181
62 99 181
61 98 180
61 99 181
62 99 181
61 99 181
62 99 180
61 99 181
62 99 181
61 99 181
61 99 181
61 99 181
62 99 181
62 99 181
61 99 181
62 99 181
62 99 181
62 99 181
61 98 181
62 99 181
62 99 181
61 99 181
62 99 181
61 99 181
62 99 181
61 98 181
62 99 181
62 99 181
61 99 181
62 99 181
62 99 181
62 99 181
61 99 181
61 99 181
61 99 181
62 99 181
61 99 181
62 99 180
61 99 181
61 99 181
61 99 181
62 99 181
61 99 181
63 100 180
62 99 181
62 99 181
61 99 181
61 99 181
61 99 181
62 99 181
62 99 180
62 99 181
61 99 181
62 99 179
62 99 181
62 99 181
62 99 179
62 99 181
61 98 179
62 99 181
61 99 181
62 99 180
61 99 181
62 99 180
62 99 177
62 99 181
62 99 178
62 99 179
61 98 180
61 98 180
62 99 178
62 99 177
62 98 177
62 99 178
62 99 180
63 100 180
62 99 179
62 99 179
62 99 179
61 98 174
62 99 178
62 99 178
61 98 173
62 99 179
62 98 174
63 99 179
62 98 176
61 98 175
61 98 175
62 98 176
60 96 169
60 96 170
61 97 173
62 99 177
65 98 166
101 119 136
121 133 119
136 146 97
132 139 69
144 146 69
131 134 57
136 136 66
133 131 64
131 127 71
126 121 67
126 122 69
136 131 76
133 130 77
130 128 78
135 132 82
122 121 80
126 123 75
137 134 85
125 122 78
129 127 81
126 124 79
127 126 85
114 114 74
132 129 84
138 135 91
124 124 86
127 127 86
122 123 84
137 136 91
134 133 90
133 132 89
141 139 94
133 132 89
131 130 89
136 134 90
144 142 97
136 135 92
124 125 87
145 144 98
143 143 98
143 141 97
148 146 100
138 137 93
143 142 96
152 150 102
155 153 103
151 149 100
148 147 97
152 150 102
142 142 99
146 146 99
154 154 103
153 151 101
157 155 104
150 149 101
154 153 103
158 155 104
148 147 99
168 165 108
158 155 104
162 159 106
162 159 102
167 163 108
158 157 107
163 160 104
168 163 106
165 161 104
162 159 105
164 161 105
166 163 107
170 167 110
167 163 108
162 159 104
168 165 107
170 166 110
170 166 107
165 163 106
171 167 107
172 168 110
173 169 112
174 169 110
175 171 112
174 170 113
171 167 106
175 171 111
176 171 110
170 167 107
176 171 109
174 170 109
170 168 111
174 169 108
173 169 107
175 170 110
174 168 106
175 171 110
172 168 105
174 170 106
173 168 107
175 170 110
175 171 109
176 171 110
170 166 108
174 170 109
173 169 107
172 167 106
173 168 108
173 168 106
176 170 108
171 166 103
172 166 103
170 166 104
169 164 103
170 165 106
172 167 105
175 169 108
165 160 103
168 163 101
170 165 104
170 165 102
171 167 102
171 166 107
166 161 99
164 158 95
161 157 95
169 163 103
165 159 97
167 162 98
165 160 101
163 157 93
169 163 99
169 163 96
164 158 97
170 163 102
161 156 95
163 157 92
162 156 98
166 160 99
162 157 93
162 155 89
162 155 93
160 154 90
163 156 96
157 152 92
161 155 87
152 146 85
157 152 87
155 149 90
154 148 84
150 145 83
144 139 76
139 134 75
145 139 78
149 143 78
146 141 71
149 146 66
144 144 56
159 167 53
157 164 61
157 165 49
161 174 48
161 172 44
162 179 28
165 183 28
164 186 22
168 190 11
170 191 0
175 198 0
174 198 0
175 198 0
174 197 0
174 197 0
174 197 0
173 197 0
172 196 0
173 196 0
174 198 0
171 195 0
172 196 0
175 198 0
174 198 0
172 196 0
172 196 0
174 196 0
169 193 0
173 197 0
173 196 0
173 197 0
169 193 0
172 195 0
175 198 0
175 198 0
173 197 0
172 195 0
173 197 0
171 194 0
175 198 0
172 196 0
174 197 0
173 196 0
171 195 0
172 196 0
174 198 0
173 197 0
172 196 0
173 197 0
172 195 0
171 194 0
173 197 0
173 196 0
173 197 0
174 197 0
172 196 0
175 198 0
172 196 0
172 195 0
174 197 0
172 195 0
172 196 0
171 194 0
173 195 0
172 196 0
173 196 0
174 197 0
172 196 0
172 195 0
174 197 0
173 196 0
174 197 0
172 195 0
171 195 0
174 198 0
172 196 0
173 197 0
172 195 0
172 195 0
173 197 0
172 195 0
170 194 0
172 196 0
171 194 0
174 197 0
174 196 0
172 196 0
171 194 0
172 195 0
174 197 0
173 195 0
175 198 0
173 196 0
172 195 0
172 195 0
171 194 0
169 193 0
172 196 0
173 195 0
173 196 0
173 196 0
171 195 0
175 198 0
173 197 0
171 195 0
172 196 0
171 194 0
172 196 0
172 196 0
172 194 0
169 193 0
173 196 0
168 192 0
171 194 0
173 197 0
171 194 0
173 196 0
168 190 0
174 197 0
172 195 18
168 191 54
145 170 107
112 139 148
78 111 173
61 98 179
62 99 181
62 99 180
62 99 180
62 99 179
62 99 180
62 99 181
62 99 180
62 99 181
62 99 181
62 99 181
61 99 180
62 99 181
61 99 181
62 99 181
62 99 181
62 99 181
61 99 181
62 99 181
62 99 181
62 99 181
62 99 181
61 99 180
62 99 181
62 99 181
62 99 181
61 98 181
61 99 181
62 99 181
62 99 181
61 99 181
61 99 181
62 99 181
61 99 181
62 99 181
62 99 181
61 98 181
61 98 181
62 99 180
62 99 180
62 99 181
61 99 181
62 99 181
62 99 181
62 99 181
61 99 181
62 99 181
61 99 181
61 99 180
61 99 181
62 99 180
62 99 181
62 99 180
62 99 181
62 99 181
61 99 181
61 99 180
61 98 181
62 99 180
61 98 181
62 99 181
62 99 181
62 99 180
61 98 180
61 99 180
62 99 181
62 99 181
61 99 181
61 99 181
61 99 180
62 99 181
61 99 181
62 99 181
62 99 181
61 98 180
62 99 181
62 99 181
62 99 181
61 99 180
62 99 179
62 99 180
62 99 181
62 99 177
62 99 180
62 99 181
62 99 180
62 99 181
62 99 180
62 99 180
62 98 177
61 99 181
62 99 180
62 99 180
62 99 178
62 99 180
62 99 179
62 99 178
61 98 178
61 98 176
62 99 177
62 99 180
62 99 175
62 99 177
62 99 180
62 99 178
62 99 176
62 99 178
62 99 178
63 100 181
61 98 175
61 97 174
62 98 174
61 98 174
62 98 176
62 98 176
62 97 174
61 97 173
62 98 177
62 98 176
61 96 169
61 95 164
86 107 142
113 125 116
119 128 97
141 141 80
140 141 67
131 131 61
135 133 70
125 123 70
125 122 70
117 114 69
135 132 76
129 127 75
124 121 75
130 127 81
132 128 81
129 127 76
135 131 83
136 132 79
125 124 79
135 133 87
133 130 84
127 126 83
129 128 85
120 121 84
127 125 82
125 124 83
135 134 89
136 135 90
123 124 86
131 131 91
133 132 90
137 136 92
138 137 93
148 145 98
137 135 91
137 136 94
135 133 89
141 141 97
138 136 92
129 130 92
149 147 99
152 150 101
146 145 97
134 134 91
150 149 100
150 148 100
154 152 102
154 153 103
149 148 101
145 143 98
160 158 106
151 150 100
154 152 102
157 155 103
157 155 105
155 153 102
154 152 102
157 155 102
163 160 107
160 157 106
149 148 99
165 163 108
166 163 108
157 156 105
163 160 102
166 163 109
169 166 107
166 163 107
165 163 110
169 165 105
169 165 107
166 163 108
172 168 111
171 167 108
169 165 107
172 167 109
174 170 110
170 165 107
170 166 109
174 169 110
176 171 111
173 168 109
172 168 109
171 166 105
174 169 106
175 170 109
170 166 108
175 170 110
174 169 109
173 168 107
170 167 110
176 171 110
173 168 108
175 170 110
175 171 110
173 168 106
175 171 111
172 167 107
174 169 107
174 169 108
170 166 104
175 171 110
173 167 105
172 167 104
173 169 108
172 166 106
172 167 104
175 169 109
169 164 104
172 166 107
171 166 106
170 164 103
167 163 103
172 167 100
171 166 105
169 164 100
168 163 102
174 168 104
170 164 100
172 166 103
168 163 98
171 165 101
168 163 99
169 164 100
170 164 99
161 156 95
170 164 102
160 155 90
161 156 93
160 156 95
161 156 94
166 160 97
159 155 95
170 164 99
164 157 96
162 155 93
163 157 95
158 152 93
156 149 87
156 150 89
150 145 83
153 147 87
158 151 89
162 156 92
160 154 89
156 150 84
160 152 89
150 144 82
146 140 77
148 143 75
150 143 79
142 137 74
152 149 73
151 149 70
144 145 59
151 157 56
152 159 60
155 162 52
159 173 45
164 177 48
160 176 28
165 185 25
167 188 19
175 195 19
172 194 11
174 198 0
172 196 0
172 196 0
171 195 0
174 198 0
174 197 0
172 196 0
172 196 0
172 195 0
173 196 0
173 197 0
174 198 0
175 198 0
169 193 0
172 195 0
173 196 0
169 193 0
175 197 0
174 197 0
174 198 0
172 196 0
172 196 0
175 197 0
175 198 0
172 196 0
172 195 0
173 197 0
173 197 0
172 195 0
171 195 0
171 194 0
173 196 0
170 194 0
174 197 0
172 195 0
174 197 0
171 195 0
173 196 0
174 197 0
172 195 0
173 196 0
172 196 0
173 197 0
173 196 0
172 196 0
174 197 0
174 197 0
173 196 0
171 194 0
172 195 0
175 198 0
173 197 0
172 196 0
173 196 0
173 196 0
172 195 0
173 196 0
173 197 0
172 195 0
172 196 0
169 192 0
172 196 0
174 197 0
173 197 0
170 193 0
171 194 0
173 196 0
172 196 0
172 194 0
171 195 0
173 196 0
174 197 0
172 195 0
172 195 0
173 197 0
173 197 0
174 197 0
172 196 0
175 197 0
172 196 0
172 195 0
170 194 0
171 195 0
174 197 0
172 196 0
172 196 0
174 197 0
172 195 0
172 196 0
171 195 0
172 196 0
172 196 0
173 197 0
172 195 0
172 196 0
173 196 0
171 194 0
173 196 0
171 194 0
172 194 0
169 193 0
173 196 0
172 196 0
169 192 0
172 195 0
172 195 0
170 194 0
173 196 0
172 195 18
158 182 72
144 168 107
110 138 144
68 103 177
62 99 180
62 99 181
62 99 181
62 99 180
62 99 180
62 99 181
61 99 180
62 99 181
62 99 181
61 99 181
61 99 180
62 99 180
61 98 181
61 99 180
62 99 181
61 98 180
62 99 181
61 98 181
62 99 181
61 98 179
62 99 181
61 99 180
61 99 181
61 99 181
61 99 180
61 99 181
61 99 181
62 99 181
61 99 181
62 99 181
61 98 179
62 99 181
62 99 181
62 99 181
62 99 181
62 99 181
62 99 180
61 98 181
62 99 181
61 98 180
61 99 181
61 99 181
62 99 181
62 99 181
61 99 181
61 98 181
61 98 181
62 99 181
61 98 181
61 99 181
62 99 181
62 99 181
62 99 181
62 99 181
62 99 181
61 99 181
62 99 181
62 99 179
61 98 181
61 98 181
61 99 181
62 99 180
61 99 181
61 99 181
61 98 181
61 99 180
62 99 180
61 98 180
62 99 181
62 99 181
62 99 179
61 99 180
62 99 181
61 99 181
62 99 180
62 99 181
62 99 181
62 99 181
62 99 181
62 99 181
62 99 181
61 99 181
62 99 180
61 99 181
62 99 180
62 99 180
61 98 181
61 98 181
62 99 180
62 99 180
62 99 179
62 99 180
62 99 179
61 98 178
62 99 177
62 99 177
61 98 178
62 98 178
62 99 179
61 97 176
62 99 180
62 99 180
61 97 173
62 99 180
62 99 177
60 97 171
62 99 178
61 98 176
61 98 174
62 99 177
61 98 175
61 98 175
61 97 172
62 98 176
62 98 176
61 97 173
62 99 176
61 98 174
61 97 173
61 97 174
61 98 174
61 96 172
62 95 164
88 109 147
107 119 120
118 126 113
129 132 77
145 144 65
135 132 74
131 127 69
139 135 75
124 121 72
129 126 71
138 134 77
135 132 80
131 129 79
127 125 79
110 109 74
131 128 77
131 130 85
120 118 77
134 132 88
131 128 82
131 129 84
127 126 85
120 120 81
128 127 83
136 135 92
124 122 82
121 121 84
124 124 87
123 123 84
129 129 86
132 131 90
130 130 89
140 138 93
142 141 95
134 134 93
132 130 90
145 143 97
131 131 92
134 134 93
139 139 95
142 142 98
134 134 93
138 138 96
140 140 95
145 144 98
151 150 103
157 156 104
152 150 101
153 152 102
153 152 103
156 155 105
155 153 103
152 151 101
154 152 102
159 156 105
161 159 105
159 157 104
164 160 104
160 157 102
169 165 109
162 159 104
158 155 103
163 160 101
163 159 103
164 160 103
163 160 101
166 163 106
165 162 106
168 166 111
168 164 107
166 163 106
165 163 106
172 168 110
169 165 108
173 168 110
169 165 108
169 165 103
173 169 110
170 166 107
175 170 107
173 169 108
174 169 108
171 167 108
172 168 109
171 168 108
177 171 108
174 169 109
174 170 110
177 171 110
175 169 108
176 171 108
175 170 110
176 171 111
174 169 106
172 167 107
174 169 108
174 168 105
175 171 110
175 170 106
173 169 108
170 165 104
174 169 108
177 172 108
175 169 106
172 166 105
173 168 106
171 166 104
175 169 108
169 165 101
171 166 103
169 164 101
172 166 104
171 166 103
174 168 103
172 166 102
169 164 100
167 161 101
168 162 97
169 163 99
168 163 100
166 161 99
171 165 101
164 159 99
165 159 95
163 157 95
170 163 99
167 160 95
161 157 95
165 159 97
169 163 102
166 159 94
169 163 97
163 157 95
160 154 92
164 158 95
158 152 89
157 151 90
165 159 95
157 151 90
159 153 87
165 158 97
163 156 90
151 145 84
150 144 84
153 147 81
151 145 80
147 141 75
148 142 75
148 142 80
156 149 81
148 141 79
146 140 78
139 139 59
145 148 56
160 164 69
156 162 57
156 161 57
158 168 47
150 165 22
159 176 25
163 179 28
169 187 36
172 193 11
172 194 0
174 197 0
175 198 0
175 198 0
173 197 0
174 198 0
175 198 0
176 199 0
173 197 0
173 196 0
173 197 0
174 197 0
173 196 0
175 198 0
171 195 0
175 197 0
175 198 0
174 198 0
173 197 0
172 196 0
173 197 0
174 197 0
173 196 0
172 196 0
174 197 0
173 197 0
173 196 0
172 196 0
174 197 0
175 197 0
171 195 0
174 197 0
173 197 0
171 195 0
174 198 0
172 195 0
171 194 0
173 196 0
172 195 0
174 197 0
173 197 0
172 195 0
170 194 0
172 195 0
172 195 0
171 194 0
172 194 0
174 197 0
174 196 0
176 198 0
174 197 0
173 197 0
175 198 0
172 195 0
170 194 0
172 195 0
173 197 0
173 197 0
172 196 0
171 194 0
174 198 0
170 193 0
170 193 0
172 195 0
171 195 0
173 196 0
171 195 0
171 195 0
172 195 0
173 196 0
172 196 0
172 195 0
173 197 0
174 198 0
171 194 0
172 195 0
170 194 0
174 197 0
174 198 0
175 197 0
173 196 0
173 197 0
172 196 0
173 196 0
168 191 0
171 194 0
174 196 0
173 197 0
170 194 0
171 194 0
172 196 0
173 197 0
170 194 0
169 192 0
173 196 0
171 195 0
174 197 0
173 197 0
172 196 0
172 195 0
172 196 0
173 197 0
171 195 0
172 195 0
170 193 0
172 196 0
170 193 0
175 197 0
173 195 0
165 188 57
138 163 111
113 140 144
70 105 177
62 99 180
62 99 181
61 99 179
62 99 181
62 99 180
62 99 181
62 99 180
61 99 181
62 99 181
61 99 180
62 99 181
62 99 181
62 99 181
62 99 181
61 99 181
62 99 181
62 99 181
62 99 181
62 99 181
61 99 181
62 99 181
62 99 181
62 99 181
61 99 181
61 98 181
62 99 181
62 99 179
61 99 181
62 99 181
62 99 181
61 98 180
62 99 181
61 99 180
61 99 181
62 99 181
62 99 181
62 99 181
62 99 181
61 99 181
62 99 181
62 99 181
62 99 181
62 100 181
61 98 180
62 99 181
61 98 181
62 99 181
62 99 181
61 99 181
62 99 181
62 99 181
62 99 181
62 99 181
62 99 181
62 99 181
61 99 181
62 99 180
62 99 181
62 99 181
62 99 181
62 99 181
61 99 180
62 99 181
61 98 180
61 98 181
62 99 181
61 98 181
61 99 181
62 99 181
61 99 181
62 100 181
62 99 181
61 99 181
61 99 181
61 99 180
62 99 180
62 99 180
62 99 180
62 99 181
62 99 180
62 99 180
62 99 180
62 99 181
62 99 179
62 99 180
62 99 180
62 99 181
62 99 180
62 99 180
62 99 181
62 99 181
62 99 178
62 99 180
61 99 181
62 99 179
62 99 180
62 99 180
61 98 180
61 98 180
61 98 178
61 97 172
62 98 176
62 99 181
62 99 177
62 99 179
61 98 177
61 98 178
61 97 175
62 98 176
62 99 176
62 99 178
62 99 176
62 99 179
61 98 176
61 98 176
61 98 174
61 98 177
62 98 174
62 98 176
62 97 170
62 98 174
61 97 173
61 97 169
61 97 172
77 104 165
89 106 143
111 122 117
128 130 100
131 132 78
132 129 68
128 124 74
130 126 75
126 123 76
128 125 72
123 121 73
128 125 77
131 129 77
127 125 77
122 119 76
119 118 76
125 123 80
129 128 81
125 125 86
128 127 85
130 130 85
122 122 82
117 117 77
117 118 81
134 133 89
125 123 84
129 128 87
139 136 90
131 130 91
121 123 86
130 130 91
138 136 93
128 128 91
142 141 96
135 134 93
133 133 93
134 134 90
142 140 94
135 134 90
138 138 95
143 142 98
139 138 95
147 144 98
146 145 100
150 148 97
152 150 101
147 145 97
152 151 104
155 153 103
149 147 98
156 153 102
150 148 99
160 157 106
148 146 100
152 150 101
156 154 103
156 153 101
162 159 103
164 160 104
162 159 105
160 157 105
166 162 107
168 163 107
166 163 105
166 163 106
160 157 106
166 162 107
166 163 106
170 166 108
163 160 103
169 164 107
166 162 108
162 159 104
171 168 107
167 164 107
168 164 105
170 166 108
176 171 110
172 168 106
174 170 110
170 166 104
174 169 110
173 169 108
176 171 110
170 167 108
175 170 110
172 168 107
174 170 108
173 169 109
171 167 106
171 167 103
176 171 112
173 169 107
174 169 107
175 170 109
175 169 106
177 170 108
173 168 108
175 169 107
175 169 107
171 167 106
170 166 107
172 167 103
172 167 107
176 170 109
174 168 107
173 168 108
169 164 102
172 167 107
168 163 100
169 164 100
170 166 106
169 164 104
170 165 101
169 165 104
169 165 104
170 164 100
169 163 100
173 167 105
166 161 100
167 163 102
171 167 101
168 164 101
170 164 103
166 160 97
168 162 97
165 159 96
168 162 98
164 158 99
165 159 94
163 156 95
162 156 88
163 158 95
163 157 93
165 158 94
159 153 90
164 158 92
159 153 87
162 155 91
156 150 88
161 154 90
152 146 82
157 151 84
156 149 86
156 149 82
152 144 85
159 152 90
149 143 83
150 145 76
145 139 74
150 145 79
139 134 64
140 138 64
138 141 61
150 156 56
147 154 53
150 160 51
153 166 44
163 176 41
164 178 41
166 184 32
168 187 30
171 193 16
173 195 16
171 195 0
173 196 0
172 195 0
172 196 0
172 196 0
173 197 0
172 196 0
173 196 0
174 197 0
173 196 0
173 196 0
171 195 0
173 196 0
173 197 0
174 197 0
174 197 0
173 196 0
173 197 0
173 197 0
174 197 0
174 197 0
172 196 0
173 196 0
173 196 0
173 197 0
173 196 0
172 195 0
173 196 0
171 194 0
169 193 0
173 196 0
172 195 0
173 196 0
172 196 0
172 196 0
174 197 0
173 196 0
171 195 0
171 195 0
171 195 0
173 196 0
174 197 0
172 196 0
173 195 0
173 196 0
173 196 0
172 196 0
173 196 0
173 196 0
172 196 0
171 195 0
172 195 0
172 196 0
173 196 0
172 196 0
174 198 0
172 196 0
171 195 0
169 192 0
171 195 0
174 198 0
174 197 0
168 192 0
171 195 0
172 196 0
173 195 0
171 195 0
172 195 0
171 194 0
172 195 0
174 198 0
171 195 0
174 196 0
174 197 0
174 198 0
173 196 0
170 194 0
172 196 0
172 195 0
171 195 0
172 195 0
174 197 0
172 195 0
174 197 0
172 195 0
170 194 0
173 196 0
172 195 0
175 198 0
171 195 0
173 196 0
173 196 0
172 196 0
173 196 0
172 196 0
172 196 0
171 194 0
172 194 0
174 197 0
173 195 0
174 197 0
174 197 0
169 193 0
170 194 0
173 197 0
170 194 0
169 192 0
169 192 51
146 170 107
124 151 133
71 105 176
63 100 181
62 99 180
62 99 180
61 99 181
62 99 180
62 99 181
62 99 181
62 99 181
62 99 181
62 99 180
62 99 181
61 99 181
62 99 181
62 99 181
62 99 181
63 100 181
62 99 181
61 99 180
61 98 180
62 99 181
62 99 181
62 99 181
62 99 180
62 99 181
62 99 180
61 99 181
62 99 181
61 99 180
62 99 181
61 99 181
61 98 180
61 98 181
61 99 181
61 98 181
61 99 179
61 99 181
61 99 181
61 98 181
62 99 180
62 99 181
62 99 180
62 99 181
62 99 180
62 99 181
62 99 181
62 99 181
62 99 180
61 99 181
62 99 180
62 99 181
61 99 181
61 99 181
61 98 179
61 98 179
62 99 181
62 99 181
61 99 181
62 99 181
61 98 180
61 99 181
62 99 181
61 99 181
61 99 180
62 99 181
61 99 181
61 98 180
62 99 178
61 99 181
62 99 180
61 98 179
61 98 177
62 99 181
61 99 180
62 99 180
61 99 181
62 99 180
62 99 179
62 99 181
62 99 180
61 99 181
62 99 179
62 99 180
62 99 180
62 99 181
62 99 179
63 100 181
62 99 181
62 99 179
62 99 181
62 99 181
61 98 177
61 99 180
62 99 178
62 99 178
61 98 178
62 99 177
62 99 178
62 99 179
62 99 176
63 100 180
62 99 179
62 99 177
62 99 178
62 99 180
62 99 175
62 99 177
61 98 172
61 98 176
61 98 177
62 98 175
62 98 174
62 99 179
62 98 175
62 98 173
61 98 177
62 98 176
62 99 176
61 98 176
61 97 171
61 97 173
61 98 175
61 97 172
60 95 169
61 96 166
62 98 174
60 96 169
69 98 161
86 107 156
108 117 124
117 120 109
123 122 92
129 125 68
122 119 73
123 121 73
124 122 68
119 115 71
119 115 70
116 114 68
122 121 78
125 122 75
121 118 76
129 127 78
121 120 74
122 121 76
120 119 81
123 123 81
129 126 85
125 125 83
113 114 77
111 113 81
121 123 88
129 129 88
114 114 81
117 118 83
126 127 89
131 131 89
121 121 85
133 132 90
133 133 93
129 129 89
132 132 92
138 137 94
129 129 89
140 139 94
143 142 99
139 138 95
137 137 94
144 143 98
142 141 97
145 144 98
140 140 95
146 145 99
144 143 96
147 147 100
142 141 96
156 153 102
154 151 101
153 151 99
157 155 103
156 155 104
151 149 100
157 154 102
154 152 101
155 152 101
160 158 105
166 163 106
160 158 103
166 162 105
162 159 104
168 164 106
167 164 104
162 159 103
169 166 108
163 161 106
170 165 108
170 166 109
168 164 106
168 165 106
167 164 105
169 166 107
173 168 107
174 170 109
172 168 108
174 169 110
171 167 107
174 169 107
174 169 107
169 166 105
171 166 106
170 166 108
171 166 108
174 170 109
177 171 110
175 170 108
172 167 105
173 167 105
174 170 108
173 169 106
177 171 109
174 169 108
171 167 102
173 168 106
175 169 104
177 171 109
171 166 107
172 167 104
176 170 107
175 168 107
171 165 104
170 165 105
169 164 103
174 168 106
173 168 105
172 167 103
167 163 99
169 165 104
173 167 104
170 165 106
166 160 101
166 161 99
166 160 97
166 161 97
169 163 99
169 164 101
170 164 100
172 167 106
171 164 100
170 166 99
166 160 97
164 159 93
172 166 104
169 163 98
166 160 97
161 156 93
164 158 97
169 162 97
166 160 93
164 159 97
163 157 93
159 152 85
157 150 85
156 150 88
161 156 88
152 146 80
157 151 84
155 150 88
146 141 81
152 146 84
158 152 87
151 145 83
154 148 84
153 147 80
149 143 82
146 140 78
144 138 74
137 132 72
141 137 70
156 151 84
151 151 66
153 155 67
148 155 49
151 159 49
155 165 49
154 167 41
161 177 30
166 183 30
163 181 22
167 188 11
174 196 0
172 195 0
173 196 0
174 198 0
171 195 0
173 197 0
174 197 0
173 197 0
174 197 0
172 196 0
171 195 0
172 196 0
173 195 0
171 195 0
173 197 0
174 198 0
173 196 0
175 198 0
170 194 0
173 197 0
173 196 0
174 197 0
173 196 0
173 196 0
173 196 0
174 196 0
172 196 0
172 195 0
173 197 0
174 196 0
173 196 0
175 198 0
173 197 0
173 196 0
175 198 0
174 197 0
173 196 0
172 196 0
172 195 0
174 197 0
173 196 0
169 193 0
174 197 0
174 197 0
172 196 0
174 197 0
172 195 0
170 193 0
175 197 0
173 196 0
173 196 0
173 197 0
172 197 0
173 197 0
173 197 0
172 196 0
173 197 0
175 198 0
172 195 0
173 195 0
172 196 0
173 196 0
172 196 0
174 196 0
169 194 0
171 194 0
171 194 0
171 195 0
173 196 0
172 195 0
171 194 0
173 196 0
175 198 0
172 195 0
175 198 0
173 196 0
173 196 0
173 197 0
173 196 0
173 196 0
170 194 0
174 196 0
171 195 0
168 192 0
171 194 0
173 197 0
172 196 0
172 195 0
172 196 0
174 197 0
173 197 0
173 197 0
170 194 0
173 197 0
169 192 0
173 197 0
173 196 0
171 195 0
173 197 0
172 196 0
173 196 0
172 196 0
174 197 0
171 195 0
169 192 0
170 193 0
171 193 0
167 191 36
151 176 94
116 143 141
75 108 174
61 99 181
62 99 180
62 99 181
62 99 181
62 99 181
62 99 180
61 99 181
62 99 180
62 99 181
61 98 181
62 99 181
62 99 180
62 99 181
62 99 181
62 99 181
62 99 181
61 99 181
62 99 181
62 99 181
61 99 181
62 99 180
62 99 181
62 99 181
62 99 180
62 99 181
62 99 181
61 99 181
62 99 181
62 99 180
61 99 181
61 99 181
62 99 180
62 99 181
62 99 181
61 98 179
62 99 181
62 99 181
61 99 180
62 99 181
62 99 181
62 99 181
62 99 181
62 99 181
62 99 180
62 99 181
62 99 180
61 98 181
62 99 180
62 99 181
61 98 181
61 99 180
61 98 181
61 99 181
62 99 180
62 99 181
61 99 180
62 99 181
62 99 180
62 99 181
61 99 181
62 99 180
61 99 180
62 99 179
62 99 181
62 99 180
61 99 181
62 99 181
62 99 181
62 99 181
61 98 181
61 99 181
62 99 181
61 98 180
62 99 181
61 99 180
62 99 180
62 99 179
61 98 177
62 99 179
62 99 180
61 99 179
61 99 179
62 99 180
61 98 178
62 99 180
62 99 180
62 99 180
62 99 178
61 98 179
62 99 180
62 99 180
62 99 181
62 99 180
62 99 179
62 99 180
61 99 180
62 99 179
62 99 179
62 99 179
61 98 178
62 99 180
62 99 177
62 99 177
62 99 180
62 99 177
61 98 176
62 99 177
62 99 181
62 98 175
61 98 176
62 99 179
62 99 179
62 98 176
62 98 175
62 99 180
61 97 172
60 97 173
61 98 176
62 99 176
61 98 177
62 98 175
62 98 173
61 98 173
61 98 175
61 96 165
62 98 172
62 98 173
61 96 168
66 97 159
93 110 147
96 105 115
104 108 94
125 122 80
115 113 68
131 127 75
127 125 77
120 118 68
126 123 72
114 112 69
114 112 72
123 121 77
118 117 77
121 121 74
112 112 74
118 118 80
115 115 76
119 118 80
114 115 77
120 120 82
117 118 82
115 116 80
120 120 82
117 117 78
124 123 84
125 125 84
122 124 88
123 124 86
139 137 92
129 129 88
129 129 90
133 132 92
136 136 93
131 131 92
136 136 92
140 138 94
145 144 98
138 138 95
137 137 94
142 141 96
138 137 94
140 139 95
142 140 94
136 136 90
146 145 97
146 145 99
151 149 101
149 148 100
159 156 103
162 158 104
153 150 97
155 152 101
157 153 101
156 153 103
154 152 102
148 148 100
152 150 100
162 159 104
166 162 107
162 160 105
165 161 106
164 161 105
171 167 107
165 161 104
167 164 106
166 162 106
171 166 109
167 163 107
165 163 106
167 163 106
170 166 109
172 167 108
172 167 107
170 167 105
171 167 106
176 171 110
174 168 108
170 166 104
177 171 111
173 168 108
174 170 108
173 169 109
175 170 107
174 168 108
172 167 103
172 168 105
174 169 106
172 168 108
171 166 103
174 168 105
175 170 108
171 165 106
174 169 107
172 167 107
176 171 110
169 163 103
174 169 106
176 171 108
174 170 106
174 168 101
175 170 105
173 167 105
176 169 104
171 167 106
173 167 102
171 165 102
168 163 102
168 163 100
168 163 101
169 164 99
171 166 103
174 168 102
166 162 96
169 164 102
173 167 103
165 160 99
171 165 102
175 168 104
170 165 100
164 160 97
169 163 100
164 159 95
167 161 95
162 157 96
169 163 97
166 160 91
170 164 99
160 155 94
159 154 93
155 150 87
167 161 94
160 155 89
160 153 88
162 156 97
163 157 88
165 159 91
155 150 83
155 149 84
160 154 87
151 145 84
149 143 80
148 141 80
160 153 84
152 145 77
151 145 78
148 142 83
147 142 72
152 146 78
142 137 69
150 145 72
147 147 68
153 158 59
142 149 45
155 163 56
156 168 44
161 171 47
170 184 41
164 180 39
170 190 22
166 188 0
167 191 11
173 196 0
172 195 0
172 196 0
171 195 0
174 197 0
171 195 0
173 196 0
174 197 0
172 196 0
172 196 0
171 195 0
174 197 0
172 195 0
174 196 0
173 196 0
172 196 0
174 198 0
172 196 0
175 198 0
173 196 0
172 195 0
174 198 0
172 195 0
175 197 0
173 195 0
172 195 0
173 197 0
171 195 0
169 193 0
173 196 0
172 195 0
173 196 0
171 195 0
175 198 0
172 196 0
173 197 0
172 196 0
172 195 0
174 196 0
173 196 0
175 198 0
174 197 0
172 196 0
172 196 0
173 197 0
174 198 0
173 196 0
170 193 0
173 196 0
174 197 0
172 195 0
173 196 0
171 195 0
169 192 0
173 196 0
174 197 0
169 193 0
172 195 0
172 196 0
172 195 0
173 197 0
172 196 0
171 195 0
170 194 0
173 196 0
171 194 0
172 196 0
171 195 0
170 193 0
174 198 0
174 198 0
173 196 0
172 195 0
171 194 0
170 193 0
172 195 0
172 196 0
172 196 0
172 194 0
171 195 0
172 195 0
172 196 0
173 196 0
172 196 0
174 196 0
172 195 0
175 197 0
173 196 0
172 196 0
174 197 0
173 196 0
171 195 0
172 195 0
171 195 0
172 196 0
172 195 0
169 193 0
169 192 0
171 194 0
172 196 0
172 195 0
173 197 0
171 195 0
171 193 0
171 195 0
169 192 25
144 169 102
113 140 148
69 104 176
62 99 180
63 100 180
62 99 180
62 99 181
62 99 181
61 99 179
61 99 180
62 99 181
62 99 181
62 99 181
62 99 180
61 99 181
62 99 181
62 99 180
62 99 181
61 99 181
61 99 181
61 99 181
62 99 181
62 99 181
62 99 181
62 99 181
62 99 181
61 99 180
61 98 179
61 98 181
62 99 181
62 99 180
62 99 181
61 99 181
62 99 181
61 99 181
62 99 180
62 99 181
62 99 181
62 99 181
62 99 181
62 99 181
62 99 181
62 99 181
61 99 181
62 99 181
61 99 181
62 99 179
62 99 181
61 98 180
62 99 181
61 99 181
62 99 181
62 99 179
61 99 181
62 99 180
61 99 180
62 99 181
61 99 181
62 99 181
62 99 179
62 99 180
61 99 181
62 99 180
62 99 179
62 99 181
62 99 181
61 99 179
61 99 181
62 99 181
61 99 177
62 99 180
62 99 181
61 99 180
62 99 181
62 99 181
61 99 181
62 99 181
61 99 180
61 99 180
62 99 181
62 99 180
62 99 180
61 99 178
62 99 179
61 99 179
62 99 181
61 99 179
62 99 180
62 99 180
61 98 177
62 99 179
62 99 181
62 99 179
61 98 179
62 99 180
62 99 180
62 99 180
62 99 180
62 99 177
63 99 179
62 99 178
61 98 177
62 99 178
62 99 180
61 98 178
61 99 179
62 99 176
62 99 180
62 99 180
62 99 180
62 98 177
62 99 179
62 99 179
62 99 177
62 99 181
62 99 177
61 98 175
62 98 177
62 98 172
62 98 174
61 98 178
61 97 172
61 98 174
62 98 174
62 99 179
62 98 171
61 98 172
62 99 177
62 97 171
61 97 169
61 96 169
62 98 170
61 95 167
70 100 162
87 105 146
98 108 126
123 122 89
132 130 86
118 115 68
120 117 66
115 113 70
131 127 79
130 128 82
112 111 72
120 119 76
119 119 77
121 119 78
116 116 75
117 116 77
126 125 81
105 107 73
120 119 81
112 113 79
120 120 80
125 124 87
121 121 84
118 119 84
128 128 87
127 128 88
129 129 88
119 121 86
126 126 88
122 123 88
137 137 94
133 133 92
129 129 89
135 134 93
135 135 94
136 136 93
131 131 91
140 140 96
142 141 96
142 142 97
143 143 98
141 140 96
157 154 102
143 142 97
140 140 98
156 153 102
139 139 95
139 139 92
158 155 104
155 153 101
152 150 101
152 150 99
155 153 101
160 156 103
159 157 106
159 157 103
159 155 101
160 158 106
160 157 102
159 157 103
161 158 103
161 157 103
163 158 104
166 162 105
162 159 105
168 164 106
169 165 107
169 165 104
162 159 106
162 159 102
170 166 108
171 167 106
171 166 105
168 164 105
173 168 108
170 167 105
177 170 108
175 170 108
172 167 105
170 166 107
173 168 106
174 168 109
175 169 109
175 171 111
176 170 110
172 167 107
175 170 110
171 167 104
173 169 108
174 169 106
173 168 105
176 171 108
175 169 108
173 168 107
174 168 107
176 170 108
171 166 104
176 170 104
176 170 107
173 168 106
173 169 106
177 171 106
173 167 103
173 168 106
173 168 105
171 166 102
171 167 103
167 162 97
171 166 104
173 168 104
170 164 99
168 162 95
168 163 99
173 167 103
169 163 101
171 166 103
171 165 96
169 163 101
172 166 101
174 168 101
169 163 99
164 158 95
172 166 97
170 164 97
166 160 97
168 162 93
161 154 89
167 161 91
163 158 94
165 160 92
163 158 91
165 158 93
158 153 87
164 158 93
166 159 97
164 159 92
158 152 87
158 152 85
157 150 84
159 152 83
161 153 88
155 149 82
156 149 84
155 148 79
150 144 80
147 141 75
140 134 72
152 145 80
150 145 75
152 148 65
139 136 65
146 147 61
151 157 57
152 163 48
154 167 44
157 171 39
147 160 37
159 177 30
165 183 22
165 186 11
169 190 16
169 192 0
172 196 0
172 196 0
173 197 0
172 196 0
173 196 0
174 197 0
171 194 0
173 197 0
173 196 0
172 195 0
173 197 0
169 192 0
173 197 0
175 198 0
171 194 0
174 198 0
173 196 0
174 196 0
173 195 0
174 197 0
172 195 0
173 197 0
171 194 0
174 197 0
171 195 0
172 196 0
169 193 0
171 194 0
173 197 0
171 195 0
173 197 0
172 196 0
172 195 0
173 196 0
173 197 0
174 197 0
173 196 0
172 195 0
173 196 0
169 194 0
172 196 0
175 197 0
171 195 0
173 197 0
172 196 0
175 197 0
170 194 0
171 194 0
171 194 0
173 196 0
171 195 0
174 197 0
172 196 0
172 195 0
171 195 0
171 194 0
173 197 0
174 196 0
174 197 0
173 196 0
173 195 0
173 197 0
173 197 0
169 192 0
174 197 0
171 194 0
171 194 0
171 195 0
172 196 0
172 195 0
172 195 0
173 195 0
172 196 0
174 197 0
172 195 0
173 195 0
174 197 0
174 197 0
174 198 0
170 194 0
170 194 0
173 197 0
172 196 0
172 195 0
173 197 0
173 196 0
172 194 0
172 195 0
171 194 0
171 194 0
172 195 0
171 194 0
173 196 0
171 194 0
173 196 0
173 195 0
173 196 0
174 197 0
171 194 0
172 195 0
174 197 0
171 195 0
175 198 0
171 194 31
151 175 94
124 150 134
82 114 169
62 99 179
62 99 180
62 99 181
62 99 180
63 100 181
62 99 181
62 99 178
63 100 180
62 99 181
62 99 180
62 99 181
61 98 181
62 99 181
62 99 181
62 99 180
61 99 181
61 99 181
62 99 181
61 99 181
62 99 181
61 99 181
61 99 179
62 99 180
62 99 181
61 99 180
62 99 180
61 99 181
62 99 180
61 98 180
61 99 180
62 99 180
62 99 179
61 98 180
61 99 181
62 99 181
62 99 180
62 99 181
61 99 180
62 99 181
61 99 181
62 99 180
61 99 181
61 99 181
62 99 181
62 99 181
61 99 179
61 99 181
61 99 181
62 99 180
61 99 181
62 99 181
62 99 181
61 99 181
62 99 181
61 98 179
62 99 181
61 99 181
62 99 181
61 99 181
62 99 180
61 98 179
62 99 181
62 99 180
61 98 180
61 98 181
62 99 181
62 99 180
61 99 181
62 99 179
61 99 179
62 99 179
62 99 180
61 99 179
62 99 180
62 99 180
61 99 180
62 99 181
62 99 180
62 99 179
61 98 177
62 99 181
62 99 181
62 99 179
61 99 180
61 98 179
63 100 180
62 99 180
63 100 181
61 99 181
62 99 180
62 99 180
62 99 179
62 99 179
62 99 181
61 99 180
61 98 178
62 99 179
62 99 175
62 99 179
62 99 181
62 99 179
62 99 180
62 99 180
62 99 180
62 99 178
62 99 179
62 99 178
60 97 178
62 99 180
62 99 180
61 98 175
61 98 179
62 99 180
61 98 171
61 98 171
62 99 179
63 100 178
61 98 172
61 98 177
62 99 175
61 97 173
62 99 176
62 98 175
62 98 176
61 98 176
62 98 171
61 98 174
62 98 172
61 98 176
62 98 175
61 97 168
60 95 164
64 96 162
88 107 149
93 103 119
99 103 92
115 115 84
127 123 70
115 114 69
120 118 71
125 123 76
118 117 80
114 115 76
104 105 70
121 119 74
129 127 84
118 117 76
107 109 76
122 121 81
112 112 74
119 119 82
113 114 79
102 105 73
114 115 82
120 120 80
124 123 84
116 116 80
110 111 79
112 114 81
133 132 88
119 120 85
132 132 91
121 122 85
127 128 89
133 133 92
130 129 89
133 133 92
132 132 89
138 137 93
137 137 94
136 136 94
138 137 93
139 138 93
151 149 98
141 141 98
140 140 97
150 148 98
153 151 102
143 142 97
157 153 102
144 143 97
148 147 99
153 151 100
157 154 101
159 157 104
154 152 103
163 160 104
159 156 101
166 162 106
164 160 105
156 152 97
166 163 106
166 162 106
165 160 102
168 163 106
167 163 104
167 163 107
168 164 105
170 165 105
169 165 104
167 164 104
168 164 104
166 163 105
174 169 108
168 164 104
165 162 102
172 168 107
172 168 108
174 169 108
178 172 110
173 168 107
171 166 106
172 168 108
173 168 105
175 170 105
174 169 108
173 168 106
175 170 108
173 169 106
174 169 109
175 169 108
171 166 106
173 168 103
172 167 104
179 173 111
178 172 108
176 169 103
172 168 103
177 170 105
174 168 106
176 171 109
173 169 108
175 169 106
171 166 104
172 166 100
175 170 104
174 168 101
170 166 102
171 166 99
171 165 104
170 164 100
168 163 97
163 159 98
170 165 99
173 167 103
169 163 99
168 162 99
173 166 103
168 162 99
165 159 96
167 162 95
172 166 104
170 164 101
165 159 93
165 160 95
164 158 96
166 161 97
165 158 91
160 154 90
157 153 94
164 159 89
166 159 94
166 160 93
160 153 87
168 161 95
152 146 80
158 152 85
153 148 84
159 151 92
150 145 84
167 160 87
162 156 86
152 146 82
152 146 76
151 145 79
156 150 80
152 145 75
151 144 79
147 140 75
141 137 67
148 144 70
152 151 73
152 155 63
153 159 51
157 168 44
154 165 47
159 168 48
159 173 37
163 180 36
166 185 19
170 191 16
172 194 11
173 197 0
172 195 0
172 196 0
173 197 0
174 197 0
170 194 0
175 198 0
173 197 0
174 198 0
172 196 0
171 195 0
174 197 0
173 197 0
171 195 0
172 196 0
173 197 0
174 197 0
173 196 0
169 192 0
175 198 0
172 196 0
173 197 0
173 196 0
172 196 0
173 197 0
171 195 0
173 197 0
173 197 0
174 197 0
171 195 0
174 197 0
174 197 0
172 196 0
171 195 0
173 197 0
175 198 0
172 196 0
172 196 0
171 194 0
172 196 0
173 196 0
173 197 0
173 197 0
173 196 0
173 195 0
173 197 0
174 197 0
171 194 0
173 197 0
171 195 0
172 196 0
173 196 0
174 197 0
174 197 0
173 196 0
171 195 0
173 197 0
169 193 0
172 196 0
169 192 0
171 194 0
171 194 0
170 193 0
173 196 0
173 195 0
174 197 0
173 196 0
170 192 0
171 195 0
169 193 0
172 196 0
173 195 0
174 198 0
174 197 0
170 195 0
173 195 0
174 197 0
172 196 0
173 196 0
173 196 0
173 196 0
169 192 0
172 195 0
171 195 0
171 194 0
171 194 0
169 193 0
170 194 0
173 197 0
171 195 0
171 195 0
174 197 0
170 193 0
172 196 0
172 195 0
173 196 0
172 196 0
171 194 0
170 194 0
172 196 0
173 196 0
172 195 0
171 194 0
171 194 25
159 182 70
134 160 118
85 117 168
62 99 179
62 99 180
61 98 180
62 99 181
62 99 180
62 99 180
62 99 181
62 99 180
61 99 180
62 99 181
62 99 180
61 99 181
62 99 181
62 99 181
62 99 180
62 99 181
62 99 179
62 99 180
62 99 181
62 99 180
62 99 179
62 99 180
61 99 181
61 99 180
62 99 181
62 99 180
62 99 181
62 99 181
62 99 181
62 99 181
61 99 180
62 99 179
62 99 181
61 98 181
61 99 181
61 99 180
62 99 181
62 99 181
62 99 181
61 99 180
62 99 180
61 99 181
61 99 181
61 99 181
61 99 180
62 99 179
61 99 181
62 99 180
62 99 180
62 99 181
61 99 181
62 99 180
62 99 181
62 99 181
61 99 180
62 99 181
62 99 180
62 99 181
62 99 181
62 99 180
62 99 180
62 99 181
62 99 180
61 99 179
62 99 181
62 99 180
62 99 179
61 99 181
61 98 180
62 99 180
62 99 178
61 98 180
62 99 179
61 99 181
62 99 180
62 99 181
62 99 180
62 99 180
62 99 180
62 99 179
62 99 178
62 99 181
61 98 177
62 99 180
61 99 179
62 99 181
62 99 180
62 99 181
62 99 180
61 99 177
61 98 178
62 99 180
62 99 180
62 99 177
62 99 179
61 99 180
62 99 179
62 99 178
62 99 179
62 99 179
62 99 176
62 99 180
62 99 178
62 99 180
61 98 178
62 99 176
62 99 179
62 99 180
62 99 178
62 99 180
62 99 178
61 98 169
62 99 179
62 99 179
61 98 176
62 99 177
62 99 176
62 98 175
62 99 175
61 98 174
62 98 175
62 98 177
62 99 178
61 98 173
62 99 176
61 97 167
61 96 168
61 97 171
60 96 171
61 97 171
61 97 168
61 98 172
60 95 163
63 97 168
72 100 161
83 101 137
101 110 121
116 117 89
116 115 75
124 122 72
129 125 78
126 124 73
109 109 69
121 119 70
121 119 76
113 111 73
126 125 81
124 123 81
117 117 81
116 116 79
114 115 80
112 114 78
125 124 84
118 119 84
121 120 81
117 117 82
123 123 85
117 119 83
128 129 90
121 122 84
124 126 88
123 124 84
138 136 89
127 127 87
132 133 94
129 129 90
140 140 95
137 137 94
134 134 91
134 134 89
143 142 97
134 134 95
139 138 93
143 141 96
143 142 97
149 148 101
137 135 92
150 149 99
149 146 96
145 144 100
151 149 101
152 150 98
154 152 102
153 150 98
152 151 100
149 147 98
155 153 102
156 153 97
155 153 100
164 160 105
163 160 101
160 158 103
163 159 103
163 160 103
163 159 104
170 166 108
164 161 105
168 164 107
164 161 104
169 165 104
167 164 107
165 161 103
173 169 109
170 166 105
174 169 107
168 164 104
171 166 103
173 169 108
169 165 103
173 168 107
177 171 107
172 166 105
175 170 108
171 166 104
170 166 104
174 169 107
175 170 106
172 167 107
174 168 106
174 169 106
173 168 103
171 167 104
173 169 106
177 171 106
174 168 103
173 168 104
175 169 105
173 167 103
174 167 103
174 168 105
171 166 101
170 165 99
175 169 105
171 166 101
175 169 106
176 170 104
175 169 104
173 167 101
167 162 101
173 168 103
170 165 103
173 167 104
171 165 106
169 163 96
168 163 99
170 164 100
170 164 99
171 165 101
169 163 99
165 160 97
165 159 97
167 161 98
164 159 95
163 157 92
167 161 95
168 162 98
169 163 99
168 163 90
168 161 96
165 159 97
160 155 93
162 157 93
162 156 95
166 159 94
162 156 87
158 152 90
159 153 87
161 155 92
157 151 86
147 142 84
148 142 77
151 146 82
161 155 91
159 152 89
155 149 85
146 140 70
153 147 81
154 148 84
148 141 77
149 142 76
142 137 71
135 132 67
147 145 70
150 150 66
146 150 57
146 152 54
151 161 45
164 176 42
159 174 36
167 182 36
164 183 19
165 185 19
167 188 22
173 197 0
170 194 0
174 197 0
175 198 0
174 198 0
172 195 0
172 195 0
173 197 0
173 196 0
171 194 0
172 196 0
173 196 0
174 197 0
171 195 0
173 196 0
174 197 0
173 197 0
174 196 0
173 197 0
174 197 0
170 194 0
173 196 0
173 196 0
171 195 0
173 196 0
173 196 0
173 196 0
173 197 0
175 197 0
173 196 0
171 194 0
173 196 0
173 196 0
172 196 0
175 198 0
172 195 0
173 197 0
171 195 0
171 194 0
172 195 0
174 197 0
174 197 0
170 194 0
173 196 0
175 198 0
174 197 0
173 196 0
173 195 0
174 197 0
170 193 0
172 195 0
171 194 0
172 195 0
171 194 0
173 196 0
173 197 0
172 196 0
172 196 0
173 197 0
170 194 0
174 197 0
173 196 0
173 196 0
170 194 0
170 194 0
171 195 0
173 197 0
174 197 0
169 193 0
171 194 0
171 195 0
171 194 0
172 195 0
171 195 0
173 196 0
172 195 0
170 194 0
172 195 0
172 195 0
174 197 0
171 194 0
172 196 0
170 194 0
168 191 0
174 197 0
172 195 0
171 194 0
171 193 0
171 194 0
174 197 0
170 193 0
173 196 0
173 196 0
172 196 0
172 196 0
173 197 0
174 196 0
170 194 0
172 194 0
172 195 0
171 195 0
172 195 0
171 195 0
157 180 74
133 159 120
91 122 164
65 101 180
62 99 180
62 99 180
62 99 181
62 99 181
62 99 179
62 99 180
62 99 180
62 99 181
62 99 181
62 100 181
62 99 181
62 99 181
62 99 181
62 99 180
62 99 180
62 99 180
61 99 180
61 99 181
62 99 181
62 99 178
62 99 181
62 99 181
62 99 181
61 99 180
62 99 181
62 99 181
61 99 181
62 99 180
62 99 181
61 99 181
62 99 180
62 99 180
62 99 181
61 99 181
61 99 181
62 99 181
62 99 181
62 99 181
62 99 181
62 99 181
62 99 181
61 99 181
61 99 180
62 99 181
62 99 181
62 99 181
61 99 179
62 99 179
62 99 180
62 99 181
62 99 180
62 99 177
62 99 181
63 100 181
62 99 181
61 99 179
62 99 180
62 99 181
62 99 180
62 99 180
63 100 181
62 99 180
61 99 180
62 99 181
62 99 181
61 99 180
62 99 180
62 99 180
62 99 180
62 99 180
62 99 181
62 99 181
62 99 180
62 99 181
62 99 179
62 99 181
61 98 179
62 99 180
62 99 181
62 99 180
62 99 181
62 99 180
62 99 179
62 99 181
61 99 177
62 99 181
62 99 181
62 99 180
62 99 179
62 99 179
62 99 180
62 99 180
62 99 179
62 99 180
61 98 177
62 98 176
62 99 179
62 99 179
62 99 178
62 99 179
62 99 176
61 99 179
63 100 178
62 99 177
62 99 176
62 99 181
62 99 177
62 99 179
62 99 177
62 99 179
62 99 179
62 99 174
62 99 178
62 99 178
62 99 177
62 99 177
62 99 175
62 99 176
62 99 177
62 98 177
62 99 179
62 98 175
61 97 172
61 98 174
62 98 176
61 97 170
62 98 177
61 97 172
61 97 172
61 96 169
62 97 170
61 98 171
61 97 170
62 98 171
62 96 165
67 95 152
101 113 136
106 112 103
121 122 92
104 102 59
110 109 70
111 109 67
114 113 73
114 114 73
111 112 72
103 103 67
110 110 73
115 115 78
117 117 79
102 104 75
113 113 75
125 124 82
111 112 76
110 111 76
108 109 75
119 119 82
114 116 82
117 117 82
112 114 82
127 127 88
121 122 85
126 127 89
130 130 88
123 124 87
130 131 92
134 133 92
130 130 90
127 127 89
133 133 90
142 141 97
142 140 96
136 136 92
145 143 96
144 143 96
145 144 96
140 140 95
143 142 98
143 142 93
142 141 94
143 143 96
147 146 97
147 146 97
153 151 100
154 151 101
152 150 96
157 154 101
154 151 99
158 156 102
158 155 103
158 156 101
157 155 101
161 158 101
159 157 105
164 160 100
169 166 108
168 164 104
162 159 104
165 162 104
159 156 100
167 163 104
165 162 105
173 168 108
170 166 105
167 163 106
169 164 103
171 167 109
170 166 105
173 168 106
169 165 106
175 170 108
175 170 108
174 169 105
174 168 107
174 169 108
172 168 107
170 166 106
175 170 108
174 168 106
174 168 107
174 169 105
175 170 105
177 171 108
173 168 106
175 170 105
174 169 106
173 168 104
173 168 106
175 169 106
175 170 106
171 165 104
172 167 104
173 168 106
176 170 104
175 169 104
171 166 103
172 166 103
176 169 106
175 169 103
176 169 104
175 169 106
161 157 97
172 165 103
171 166 101
170 164 96
172 166 101
169 164 102
172 165 97
168 162 97
161 156 89
169 163 97
170 164 99
166 159 95
168 162 95
161 156 92
168 163 97
160 153 87
160 154 91
166 160 98
168 162 94
168 161 95
160 154 90
163 157 91
165 159 89
156 151 84
161 155 87
158 153 85
159 153 87
151 146 84
159 153 82
156 150 87
160 154 93
157 150 81
158 152 84
148 143 79
156 149 89
148 143 79
155 149 78
153 147 82
151 145 79
141 136 75
141 135 71
145 142 70
149 147 64
142 142 54
156 160 64
157 168 44
153 163 48
162 176 37
158 173 36
161 177 32
166 183 30
165 185 22
167 188 0
174 197 0
171 194 0
172 196 0
174 197 0
173 196 0
172 196 0
173 197 0
173 196 0
174 197 0
174 198 0
174 196 0
171 196 0
173 196 0
174 197 0
172 196 0
173 197 0
174 197 0
174 198 0
173 197 0
173 196 0
172 195 0
173 196 0
175 197 0
172 196 0
172 195 0
172 196 0
171 195 0
172 196 0
171 194 0
174 197 0
172 196 0
174 197 0
172 195 0
174 197 0
173 196 0
174 197 0
174 196 0
173 197 0
172 195 0
173 197 0
175 198 0
172 196 0
175 197 0
172 196 0
173 197 0
175 198 0
172 196 0
172 196 0
171 195 0
174 197 0
171 194 0
173 197 0
171 194 0
171 194 0
173 196 0
174 197 0
169 193 0
173 197 0
172 196 0
173 196 0
171 194 0
171 193 0
172 195 0
173 196 0
173 197 0
171 194 0
173 197 0
171 194 0
171 194 0
174 197 0
170 194 0
173 196 0
171 195 0
170 193 0
173 196 0
174 197 0
173 197 0
170 194 0
173 196 0
169 193 0
171 195 0
171 195 0
167 191 0
170 193 0
170 193 0
170 193 0
171 194 0
173 196 0
172 196 0
171 193 0
172 196 0
171 194 0
172 195 0
171 195 0
170 193 0
172 195 0
171 194 0
174 197 0
170 194 0
173 196 0
173 196 0
171 195 18
160 185 67
143 166 102
107 135 152
64 101 178
62 99 179
62 99 180
62 99 180
62 99 179
62 99 180
62 99 180
62 99 181
61 99 179
62 99 178
63 100 179
62 99 180
62 99 180
62 99 180
62 99 179
62 99 180
62 99 181
62 99 180
61 99 180
62 99 181
62 99 181
61 99 180
61 99 180
61 98 178
62 99 180
62 99 181
62 99 181
62 99 181
61 98 180
62 99 181
62 99 179
62 99 181
61 99 181
62 99 181
62 99 181
62 99 181
63 100 181
62 99 180
62 99 181
62 99 179
61 99 180
61 98 180
61 99 181
62 99 181
61 99 180
61 99 181
62 99 180
62 99 180
62 99 181
62 99 179
61 98 181
62 99 180
62 99 181
62 99 181
61 99 181
62 99 181
62 99 179
62 99 180
62 99 179
61 99 180
62 99 181
61 98 179
62 99 180
62 99 180
62 99 180
61 99 178
61 99 179
62 99 181
62 99 180
61 99 181
62 99 177
62 99 181
62 99 178
61 99 180
62 99 181
63 100 180
62 99 180
62 99 180
62 99 180
62 99 181
62 99 178
61 99 179
62 99 181
63 99 180
62 99 181
62 99 180
62 99 179
61 99 180
62 99 180
62 99 181
62 99 180
62 99 180
61 99 180
61 98 177
62 99 178
62 99 176
62 99 181
62 99 178
62 99 181
61 99 180
62 99 179
61 98 179
62 99 178
62 99 181
62 98 175
63 100 178
61 98 178
61 98 175
61 98 176
63 99 179
62 99 178
62 99 175
62 99 179
62 99 175
62 99 176
62 99 177
61 98 175
62 98 176
62 99 176
62 98 176
62 99 175
62 99 175
62 99 173
62 98 175
61 98 177
62 98 174
61 97 170
61 97 169
62 98 174
62 99 177
61 96 170
62 98 172
61 97 171
60 96 166
60 96 169
60 96 167
60 97 173
59 95 166
72 99 150
92 106 132
95 103 108
116 117 85
118 116 73
106 106 64
108 108 67
104 105 71
110 111 74
118 117 78
104 104 71
103 104 67
103 105 74
115 114 74
105 107 75
113 114 80
112 113 81
111 112 78
104 107 78
103 105 75
119 118 82
120 120 82
114 115 81
120 120 86
120 121 81
122 122 83
130 129 88
118 119 84
132 132 91
113 115 79
135 134 91
131 130 90
132 130 88
135 135 93
143 141 95
140 138 94
132 131 89
121 123 88
137 136 90
139 139 94
149 147 97
144 143 97
147 144 95
154 151 101
149 147 95
143 142 94
151 150 100
146 145 94
154 152 102
149 147 98
154 151 98
158 155 101
158 155 101
158 155 100
152 149 95
155 152 98
165 161 103
160 156 101
165 161 104
162 158 102
165 160 103
165 161 105
163 160 100
167 163 105
165 161 101
171 166 106
170 165 105
170 166 107
165 161 104
168 164 104
167 163 102
169 166 105
170 166 105
173 168 108
170 167 107
173 168 104
169 165 100
173 168 106
171 167 105
174 169 105
176 170 108
177 172 110
176 170 109
169 164 105
175 169 106
175 169 101
174 169 106
175 169 104
176 170 104
173 168 103
173 169 107
172 167 103
178 171 104
175 169 106
177 171 108
171 165 101
173 168 104
172 167 105
170 164 97
174 168 102
170 165 100
169 164 100
172 167 104
167 163 98
174 167 104
171 165 99
170 165 99
170 164 100
170 164 99
170 164 98
169 165 96
168 163 93
169 163 97
169 163 96
158 154 90
169 162 99
161 155 90
164 158 93
164 158 93
165 159 90
167 162 97
162 155 88
161 155 93
158 153 90
169 162 93
162 157 92
160 154 84
165 159 92
160 154 90
155 149 83
155 150 88
162 155 90
153 147 83
164 159 90
162 155 88
154 149 80
161 155 84
145 139 75
156 149 82
144 138 76
151 145 71
146 140 69
144 138 73
149 143 76
136 133 59
135 133 60
148 145 68
138 141 51
147 154 47
153 163 53
157 166 52
160 173 41
160 176 30
161 179 16
161 179 25
169 188 19
172 194 11
173 196 0
174 197 0
172 196 0
174 197 0
171 194 0
173 197 0
171 194 0
173 197 0
171 195 0
172 196 0
171 196 0
175 198 0
175 198 0
171 194 0
172 196 0
172 197 0
171 194 0
174 197 0
172 196 0
172 196 0
171 195 0
171 194 0
173 195 0
173 196 0
174 197 0
171 195 0
172 195 0
171 195 0
174 196 0
170 194 0
174 197 0
172 196 0
172 194 0
172 195 0
173 197 0
174 197 0
172 196 0
171 194 0
170 194 0
172 196 0
173 197 0
170 194 0
173 196 0
173 197 0
174 197 0
173 197 0
173 196 0
170 194 0
173 197 0
173 196 0
174 197 0
174 197 0
174 197 0
171 195 0
172 195 0
171 195 0
172 196 0
175 198 0
173 196 0
173 196 0
171 194 0
172 194 0
172 196 0
173 196 0
176 198 0
171 195 0
172 196 0
174 197 0
171 195 0
171 195 0
174 198 0
175 198 0
172 196 0
174 197 0
173 196 0
174 197 0
172 195 0
173 196 0
173 196 0
172 195 0
172 195 0
170 193 0
172 194 0
172 195 0
171 194 0
171 195 0
171 194 0
173 197 0
175 198 0
171 194 0
174 195 0
169 194 0
171 195 0
170 194 0
172 196 0
174 197 0
172 195 0
170 194 0
172 196 0
170 194 0
171 196 0
161 185 54
145 169 99
110 137 147
71 105 176
62 99 178
62 99 180
62 99 180
62 99 181
62 99 178
62 99 181
62 99 181
62 99 180
62 99 181
61 98 179
62 99 180
62 99 181
62 99 179
62 99 181
62 99 181
62 99 179
61 99 180
61 99 181
62 99 181
62 99 181
62 99 180
61 99 180
62 99 181
61 99 180
62 99 181
62 99 180
62 99 181
62 99 180
62 99 180
62 99 179
62 99 181
61 99 181
62 99 181
62 99 181
62 99 181
61 98 181
61 99 181
62 99 181
61 98 180
62 99 181
61 99 180
62 99 181
61 99 181
62 99 179
62 99 181
61 99 179
62 99 181
62 99 181
62 99 180
62 99 181
61 99 180
62 99 179
62 99 180
62 99 181
62 99 181
62 99 181
62 99 178
61 99 181
61 99 181
61 99 180
62 99 181
63 100 181
62 99 181
61 99 181
62 99 180
61 99 180
62 99 180
62 99 179
62 99 178
63 100 181
61 99 180
62 99 180
61 98 179
62 99 180
62 99 181
61 98 180
62 99 180
62 99 179
62 99 181
62 99 179
62 99 180
62 99 179
61 99 181
62 99 181
62 99 181
62 99 179
62 99 180
62 99 178
62 99 175
62 99 179
62 99 180
62 99 178
62 99 179
61 99 178
62 99 180
62 99 181
62 99 178
62 99 180
61 98 176
62 99 179
62 99 178
62 99 175
62 99 177
62 99 179
62 99 181
63 99 179
61 98 176
62 99 178
62 98 176
62 99 179
62 99 179
62 99 179
62 99 175
62 99 176
61 98 175
63 100 176
62 98 174
61 99 178
62 99 177
62 99 174
61 98 174
62 99 175
62 99 176
61 97 171
61 98 175
62 99 174
61 98 172
62 98 171
61 97 172
61 97 167
62 99 174
62 99 175
61 96 168
62 98 172
61 97 169
60 95 168
61 97 172
60 95 169
63 96 159
70 94 145
101 109 119
92 100 99
111 112 82
108 108 70
117 116 72
108 109 73
118 118 75
103 103 67
117 116 77
105 104 67
106 107 71
118 118 80
110 110 77
109 111 79
114 116 81
108 109 71
113 113 78
108 110 79
122 121 81
115 117 83
107 109 74
115 116 81
115 117 81
116 119 86
123 124 86
122 123 88
123 124 86
131 132 89
132 131 89
123 124 88
129 130 91
134 133 92
136 135 92
147 144 96
135 135 91
141 140 95
136 136 93
146 145 97
142 141 92
143 141 94
137 138 95
149 147 96
133 133 92
146 144 96
151 149 95
149 147 96
146 145 95
151 150 100
153 152 100
150 148 99
156 153 100
156 153 98
159 157 102
166 162 105
160 157 104
161 158 101
161 157 100
162 159 102
160 157 99
164 160 101
160 157 101
167 163 103
169 164 103
174 168 104
164 161 103
170 165 101
170 166 103
170 165 102
170 165 104
166 163 100
170 166 105
171 166 104
173 168 104
170 165 105
172 167 102
174 169 103
177 171 106
175 169 105
172 168 106
172 167 103
174 168 105
174 169 106
171 166 99
177 170 108
172 167 102
172 167 103
173 168 104
173 168 106
174 168 102
175 170 106
176 170 105
177 171 105
176 169 106
173 168 104
173 168 104
169 164 97
174 168 104
172 167 103
172 166 98
175 169 104
171 165 97
169 164 99
175 169 104
169 163 97
172 165 101
169 164 98
162 156 91
170 165 96
168 164 101
170 164 101
168 162 97
166 161 99
172 165 98
167 161 94
161 156 91
167 161 94
168 162 97
166 161 96
169 162 95
171 165 99
167 160 94
166 160 90
162 157 92
164 159 91
161 155 88
161 156 89
160 153 91
149 143 80
161 156 90
156 150 83
161 154 87
160 153 86
155 149 79
154 148 84
145 140 79
156 149 85
152 145 74
158 151 84
149 144 79
145 139 72
153 147 77
144 139 70
143 137 72
146 143 63
153 152 67
144 146 56
149 153 54
156 161 62
160 171 47
153 165 39
156 169 36
167 186 30
164 182 22
166 186 16
169 191 11
173 196 0
173 197 0
172 196 0
172 195 0
172 196 0
173 196 0
173 196 0
174 198 0
172 195 0
173 197 0
173 197 0
171 195 0
173 197 0
171 193 0
171 194 0
171 195 0
171 193 0
173 197 0
173 196 0
171 194 0
170 194 0
173 196 0
171 195 0
173 197 0
172 195 0
174 197 0
173 197 0
174 197 0
173 196 0
173 196 0
174 196 0
172 195 0
173 197 0
170 195 0
173 196 0
176 199 0
170 194 0
174 198 0
172 196 0
171 194 0
171 195 0
170 194 0
170 193 0
173 196 0
174 197 0
174 197 0
174 196 0
172 195 0
171 194 0
171 195 0
175 198 0
174 197 0
173 197 0
173 196 0
172 196 0
174 197 0
172 196 0
171 194 0
172 196 0
170 193 0
169 193 0
171 194 0
171 195 0
170 194 0
170 194 0
176 198 0
171 195 0
172 195 0
171 194 0
172 196 0
171 195 0
173 197 0
174 198 0
173 196 0
176 199 0
171 195 0
170 194 0
174 197 0
172 195 0
172 195 0
173 196 0
171 194 0
171 194 0
172 195 0
172 196 0
169 193 0
170 194 0
168 191 0
174 197 0
170 193 0
172 195 0
174 196 0
172 196 0
169 192 0
169 193 0
172 195 0
173 196 0
171 193 0
173 195 0
174 196 0
168 193 31
156 180 80
116 143 140
73 107 176
62 99 180
62 99 181
63 100 180
62 99 179
62 99 181
62 99 180
62 99 181
61 98 178
62 99 180
61 98 180
62 99 181
62 99 180
62 99 180
62 99 181
62 99 180
62 99 181
61 98 178
61 99 180
62 99 180
62 100 181
61 99 180
62 99 180
62 99 181
62 99 180
61 99 181
62 99 181
62 99 181
62 99 179
61 99 181
62 99 180
62 99 180
62 99 181
62 99 180
62 99 181
62 99 181
62 99 180
62 99 180
62 99 181
62 99 180
62 99 181
61 99 180
62 99 181
62 99 180
62 99 181
61 99 180
62 99 181
61 99 180
62 99 181
62 99 180
62 99 180
62 99 180
61 98 177
61 98 177
62 99 180
62 99 180
61 98 180
62 99 179
62 99 180
62 99 181
61 98 179
62 99 181
63 100 180
62 99 181
61 99 180
62 99 181
62 99 179
62 99 181
62 99 178
62 99 181
62 99 181
62 99 179
61 99 180
62 99 180
61 98 179
62 99 179
62 99 181
62 99 181
61 99 180
62 99 179
61 99 180
62 99 180
62 99 181
62 99 180
61 98 177
62 99 179
61 99 178
62 99 180
61 98 179
62 99 179
62 99 181
61 98 176
62 99 179
62 99 179
62 99 179
61 99 180
62 99 179
62 99 180
62 99 180
62 99 179
62 99 179
62 99 177
62 99 179
62 99 179
61 99 179
61 98 177
62 99 177
61 98 179
62 99 177
62 99 177
62 99 173
62 99 178
62 99 176
62 99 178
62 99 176
62 98 174
62 99 181
62 99 177
62 98 176
63 99 176
62 99 180
61 98 176
63 99 177
61 98 173
61 98 175
62 99 176
61 98 173
62 99 176
61 98 176
61 98 173
62 98 174
61 97 170
61 97 172
62 98 172
62 97 169
61 97 166
62 98 170
61 98 175
62 98 173
61 97 171
60 95 160
62 95 159
83 102 144
88 99 113
102 108 103
108 108 74
114 113 70
104 104 67
124 122 76
102 103 66
96 97 66
106 107 76
104 104 72
117 117 81
105 106 74
105 106 73
99 102 73
108 109 77
114 114 78
116 117 82
113 113 77
110 111 76
118 119 85
115 116 82
124 124 85
121 122 86
110 112 80
125 125 87
121 122 87
111 113 79
120 122 88
123 123 85
136 136 94
116 119 85
124 126 89
135 134 92
139 139 96
126 127 86
134 134 93
128 128 87
135 135 93
147 145 96
148 146 97
142 141 93
147 145 97
153 151 101
145 143 94
146 145 97
154 152 101
150 149 99
150 147 96
148 147 97
156 153 101
155 152 101
161 158 102
161 158 100
162 158 103
160 156 101
166 162 103
162 158 101
168 163 103
164 161 102
168 164 104
167 163 106
166 162 105
170 166 104
168 164 104
165 162 103
170 165 104
173 168 104
171 167 105
165 162 102
164 161 99
171 166 104
172 166 104
175 170 109
172 168 104
173 167 102
174 169 106
170 166 104
172 166 101
172 167 103
174 169 101
175 168 103
172 167 103
173 168 104
170 166 99
170 166 103
174 168 102
174 169 105
170 165 100
176 170 106
174 169 105
173 167 103
174 169 102
175 168 103
173 167 104
176 171 104
172 167 102
176 169 102
177 170 103
169 164 97
170 164 99
180 173 108
172 166 97
163 159 96
171 166 102
176 169 102
168 162 95
171 165 99
169 164 100
173 166 100
164 158 93
160 155 92
168 163 96
170 164 94
167 162 95
172 165 97
172 165 100
168 161 93
168 162 96
162 157 95
162 156 83
167 160 94
159 153 85
165 158 95
162 156 91
155 150 83
164 157 89
153 148 85
157 152 87
160 152 89
162 155 90
157 151 84
158 152 84
149 143 79
154 149 80
154 148 80
161 155 82
142 136 75
152 145 78
146 140 79
153 145 80
152 147 72
148 143 72
148 144 70
144 144 60
138 140 58
147 149 54
151 156 57
151 159 47
150 162 41
160 175 34
161 178 34
156 175 22
168 188 16
169 191 16
175 198 0
173 196 0
173 197 0
172 195 0
173 197 0
174 197 0
172 195 0
174 197 0
173 197 0
171 194 0
174 197 0
173 196 0
173 196 0
171 194 0
174 197 0
172 196 0
172 196 0
173 196 0
169 193 0
174 197 0
172 195 0
171 194 0
169 192 0
172 196 0
172 195 0
172 196 0
174 197 0
172 195 0
171 195 0
171 195 0
174 198 0
174 197 0
172 195 0
173 196 0
172 196 0
173 197 0
172 196 0
166 189 0
171 194 0
174 197 0
171 194 0
171 195 0
170 194 0
171 195 0
174 197 0
170 194 0
173 197 0
170 193 0
172 195 0
172 195 0
172 196 0
170 193 0
174 197 0
172 196 0
173 196 0
174 197 0
173 196 0
171 194 0
172 196 0
174 196 0
172 196 0
171 194 0
173 196 0
173 195 0
173 196 0
168 191 0
173 196 0
171 195 0
171 195 0
173 195 0
172 195 0
173 196 0
175 197 0
171 195 0
173 195 0
175 198 0
172 195 0
173 197 0
169 193 0
169 193 0
173 196 0
170 195 0
170 193 0
170 195 0
172 195 0
171 194 0
173 196 0
172 196 0
173 196 0
171 195 0
171 195 0
172 195 0
170 194 0
172 196 0
169 193 0
172 195 0
171 194 0
170 193 0
175 197 0
176 199 0
158 183 70
134 160 120
85 117 168
63 100 180
62 99 180
62 99 181
62 99 181
63 100 180
63 100 180
62 99 178
62 99 180
62 99 180
62 99 181
62 99 179
62 99 181
62 99 180
62 99 180
62 99 180
62 99 181
62 99 181
62 99 181
62 99 181
62 99 180
62 99 180
61 98 181
62 99 181
62 99 181
62 99 181
62 99 179
61 99 180
61 98 180
62 99 181
62 99 180
61 99 181
62 99 179
62 99 181
62 99 180
61 98 179
61 98 179
62 99 179
61 99 181
61 99 181
62 99 181
62 99 181
62 99 180
61 99 181
62 99 179
62 99 180
61 99 179
61 99 181
62 99 178
62 99 181
62 99 181
62 99 180
61 99 181
62 99 179
61 99 179
61 99 180
62 99 181
62 99 181
62 99 179
62 99 180
62 99 181
62 99 181
62 99 179
62 99 179
62 99 180
62 99 181
61 99 180
61 99 180
61 98 179
62 99 181
62 99 180
61 98 177
62 99 180
61 98 177
61 99 179
62 99 181
62 99 180
62 99 180
61 98 179
62 99 178
62 99 178
61 98 177
61 99 177
62 99 181
62 99 178
62 99 181
62 99 177
62 99 176
62 99 179
62 99 180
62 99 180
62 99 178
63 100 180
61 99 181
62 99 179
62 99 179
62 99 179
62 99 179
62 99 177
62 99 176
62 99 178
61 98 177
62 99 180
62 99 179
62 99 179
62 99 180
62 99 179
62 99 178
62 99 180
62 99 179
62 99 178
62 99 177
62 99 177
62 99 177
61 98 174
62 99 176
62 99 175
62 99 179
62 99 175
62 99 177
62 99 175
61 98 178
62 99 174
62 98 171
62 98 175
62 99 177
62 98 176
61 98 176
61 98 177
62 99 176
62 99 173
62 98 171
62 98 170
63 100 181
60 96 171
61 97 167
62 98 173
61 97 173
61 97 167
62 98 171
59 94 166
60 94 159
60 94 158
77 102 155
88 102 127
90 101 112
115 115 86
110 111 80
98 99 64
107 106 69
105 105 74
107 106 70
103 103 71
101 101 69
106 107 75
99 101 73
107 108 77
105 108 76
108 111 81
97 101 71
111 113 81
105 107 76
105 108 78
125 126 87
115 116 81
117 118 83
111 114 81
123 124 88
118 118 82
125 126 86
122 123 86
137 136 92
124 125 86
134 134 92
130 130 89
140 138 93
132 132 91
123 124 87
135 135 92
137 137 93
157 154 99
138 136 87
147 145 95
146 144 95
146 143 94
140 138 92
154 152 100
150 149 98
153 150 96
154 151 100
154 151 96
161 157 101
151 149 96
152 149 93
159 156 99
158 155 102
163 160 102
153 151 100
156 154 100
165 161 103
159 156 101
161 157 98
165 161 101
165 162 101
166 161 98
167 163 103
170 166 105
164 160 97
166 163 99
168 163 99
171 166 104
167 163 102
172 166 104
169 165 102
170 165 103
171 167 102
175 169 104
172 167 101
174 169 107
175 169 107
178 172 106
172 167 101
173 168 104
170 166 99
175 170 105
173 168 101
174 169 104
173 167 102
176 170 104
176 170 103
171 166 102
175 169 101
169 164 99
173 167 102
172 167 100
174 169 103
175 169 104
176 170 104
176 170 104
173 167 103
173 167 101
174 168 103
169 164 99
171 165 101
172 167 101
170 165 100
171 166 101
176 170 103
166 161 92
167 161 96
172 166 99
170 163 96
172 166 98
168 162 98
173 166 98
172 165 100
166 160 92
169 163 97
169 163 97
168 161 95
163 157 96
167 161 93
157 152 83
168 162 95
170 163 95
167 161 91
160 154 84
161 154 91
159 154 84
156 149 80
147 141 77
160 153 86
162 155 87
150 144 78
153 147 83
158 152 84
158 152 82
159 154 84
158 152 84
156 150 82
146 140 73
156 150 77
148 141 75
155 147 80
147 140 72
142 136 65
136 131 64
142 140 65
152 154 63
143 145 52
151 156 56
149 157 49
160 172 41
160 173 39
164 181 30
165 185 25
170 189 11
170 190 22
176 198 0
173 196 0
174 197 0
174 198 0
171 195 0
173 196 0
172 197 0
172 196 0
174 196 0
171 194 0
172 196 0
173 197 0
173 197 0
173 197 0
173 196 0
171 195 0
172 196 0
174 197 0
171 194 0
175 198 0
169 193 0
172 195 0
172 195 0
173 196 0
175 198 0
170 193 0
174 196 0
171 195 0
174 197 0
174 197 0
172 195 0
174 197 0
170 194 0
172 196 0
173 197 0
173 197 0
172 196 0
175 197 0
173 197 0
172 196 0
171 195 0
171 194 0
173 196 0
171 194 0
170 193 0
171 195 0
171 194 0
171 195 0
175 198 0
173 197 0
170 193 0
174 197 0
174 197 0
171 195 0
172 195 0
171 195 0
173 197 0
173 197 0
174 197 0
174 197 0
174 197 0
169 192 0
170 194 0
172 196 0
174 197 0
174 197 0
172 195 0
173 196 0
172 195 0
171 195 0
172 195 0
172 196 0
170 194 0
173 197 0
171 194 0
173 196 0
173 195 0
171 194 0
174 197 0
172 195 0
174 196 0
172 195 0
169 193 0
171 196 0
174 197 0
169 192 0
172 195 0
172 195 0
173 196 0
167 191 0
174 196 0
172 195 0
170 193 0
172 194 0
172 196 0
168 191 0
169 192 0
173 195 0
170 193 18
162 186 67
146 171 100
97 127 158
65 101 177
62 99 179
62 99 179
62 99 181
62 99 181
62 99 181
62 99 180
62 99 181
62 99 181
63 99 179
62 99 181
62 99 181
62 99 181
62 99 179
62 99 176
61 98 178
62 99 181
62 99 179
62 99 181
62 99 181
61 99 181
61 99 180
62 99 179
62 99 179
61 99 180
62 99 180
61 99 181
62 100 181
62 99 181
61 98 179
62 99 181
63 99 178
62 99 180
63 100 181
62 99 179
62 99 180
61 99 180
61 99 181
62 99 180
62 99 181
62 99 181
62 99 180
62 99 181
62 99 181
61 98 178
62 99 181
62 99 180
62 99 177
62 99 180
61 99 179
62 99 180
62 99 179
61 98 179
62 99 180
61 99 181
62 99 180
62 99 180
62 99 179
62 99 180
62 99 181
61 99 180
62 99 179
61 98 179
62 99 180
62 99 177
62 99 181
62 99 177
62 99 180
62 99 181
62 99 180
62 99 181
62 99 180
61 99 180
62 99 180
62 99 180
62 99 179
62 99 177
62 99 178
62 99 179
62 99 180
62 99 178
62 99 179
62 99 178
62 99 180
62 99 181
61 99 180
62 99 180
62 99 179
62 99 178
62 99 181
62 99 178
62 99 180
62 99 179
62 99 179
62 99 178
62 99 181
61 98 174
62 99 177
62 98 175
62 99 177
62 99 180
62 99 178
62 99 175
62 99 179
62 99 179
62 99 179
62 99 179
62 99 178
62 99 176
61 98 175
61 99 178
61 98 174
62 99 176
62 99 177
61 98 176
61 99 177
62 99 177
62 99 178
61 97 170
62 99 176
62 99 177
61 98 174
61 98 177
61 98 173
62 99 179
61 98 174
62 98 173
62 99 176
62 98 175
62 98 175
61 97 173
61 97 174
62 98 176
62 97 168
61 97 169
62 98 174
61 97 168
62 97 168
62 98 173
62 98 170
62 98 174
61 96 164
59 93 161
61 96 165
75 100 152
93 103 110
99 105 100
103 105 77
106 105 72
109 109 70
97 97 64
90 91 61
91 93 62
110 110 75
111 111 73
93 95 67
99 101 72
101 102 72
95 98 72
100 104 76
97 100 74
102 105 77
113 114 82
117 118 83
119 119 83
113 113 77
111 113 80
122 123 87
114 116 81
114 117 83
130 130 89
136 135 93
131 130 91
129 129 90
123 124 88
137 136 92
131 131 90
140 140 96
143 141 96
135 135 91
154 151 99
139 138 92
138 138 94
126 128 88
146 144 95
147 146 97
149 147 95
144 142 90
151 148 98
150 147 95
156 153 98
153 152 98
156 153 98
151 149 96
160 157 104
158 154 95
154 152 96
159 156 100
163 159 101
161 157 97
160 157 102
165 161 104
154 152 97
162 158 99
163 159 100
169 165 104
169 164 101
167 163 104
168 163 103
171 166 103
169 165 103
173 168 107
171 166 103
173 167 99
173 168 105
171 166 106
169 164 102
174 168 103
171 167 104
173 168 103
175 169 104
177 170 103
177 170 104
173 168 104
179 172 108
169 165 99
173 167 105
174 169 105
175 169 103
175 169 105
174 169 104
175 169 106
170 165 100
174 168 104
175 169 101
172 166 99
176 170 103
177 171 105
173 168 104
172 166 101
172 166 98
171 166 102
167 162 95
176 169 103
174 168 97
171 165 102
171 165 97
171 165 100
170 163 97
170 163 98
163 158 92
166 160 95
169 162 97
173 166 102
164 158 93
167 161 94
169 163 96
167 161 97
169 163 97
164 158 90
166 160 95
165 159 91
165 159 94
169 161 94
162 156 87
165 159 90
160 153 86
157 151 84
158 152 84
163 157 87
161 155 86
157 152 85
163 156 89
158 152 87
156 150 88
165 158 87
150 144 79
159 153 84
157 150 81
158 152 79
157 151 80
154 148 82
146 140 76
147 141 76
142 137 69
151 146 77
135 130 66
138 134 56
148 148 60
154 157 58
146 152 48
152 161 51
159 170 51
158 171 41
163 177 39
165 184 25
170 190 16
170 191 19
173 197 0
172 196 0
173 197 0
174 197 0
170 193 0
172 196 0
170 193 0
171 195 0
173 196 0
173 197 0
172 196 0
174 198 0
172 195 0
172 195 0
171 194 0
171 194 0
173 197 0
174 198 0
172 196 0
171 195 0
175 198 0
173 196 0
171 195 0
170 193 0
171 195 0
175 198 0
175 197 0
172 195 0
172 195 0
172 196 0
172 196 0
173 196 0
171 195 0
173 197 0
171 195 0
173 196 0
172 196 0
170 194 0
172 196 0
173 196 0
174 197 0
174 197 0
172 196 0
170 193 0
172 195 0
174 197 0
173 197 0
172 196 0
172 195 0
171 195 0
171 195 0
172 196 0
168 192 0
173 196 0
170 194 0
169 193 0
173 195 0
174 197 0
173 195 0
172 196 0
170 194 0
172 194 0
169 192 0
171 195 0
174 197 0
171 194 0
171 194 0
169 192 0
172 195 0
169 192 0
174 197 0
171 194 0
172 196 0
173 197 0
171 195 0
173 196 0
173 197 0
169 193 0
173 196 0
172 196 0
173 195 0
168 192 0
171 194 0
172 194 0
170 194 0
170 193 0
171 194 0
171 195 0
171 194 0
171 195 0
170 194 0
171 194 0
172 195 0
174 197 0
168 192 0
171 195 0
173 196 0
169 192 0
164 188 44
151 175 90
111 139 148
72 106 174
62 99 178
62 99 179
63 100 179
63 100 181
62 99 180
61 99 179
62 99 180
62 99 180
62 99 181
62 99 179
62 99 179
62 99 180
62 99 180
61 98 181
62 99 181
62 99 181
61 99 180
62 99 181
62 99 181
62 99 180
61 98 179
62 99 180
62 99 180
62 99 178
61 99 181
61 98 180
62 99 180
62 99 181
61 99 180
62 99 179
62 99 181
61 99 181
62 99 179
61 98 180
62 99 181
62 99 180
61 99 181
62 99 180
61 99 181
62 99 180
62 99 180
62 99 179
62 99 181
61 99 181
62 99 178
62 99 180
61 99 181
62 99 179
62 99 181
62 99 180
62 99 179
62 99 179
62 99 180
62 99 179
61 99 178
62 99 179
62 99 178
62 99 179
62 99 180
62 99 181
62 99 180
62 99 179
62 99 178
62 99 180
62 99 177
61 98 177
62 99 179
61 98 178
62 99 180
62 99 179
62 99 179
62 99 180
62 99 180
62 99 180
62 99 177
62 99 181
62 99 181
62 99 177
62 99 179
62 99 178
62 99 181
62 99 179
62 99 180
61 98 179
62 100 181
62 99 179
62 99 181
62 99 181
62 99 179
61 98 179
62 99 179
62 99 177
62 99 180
61 99 181
62 99 181
61 98 176
62 99 178
62 99 180
62 99 179
61 98 177
62 99 177
61 98 176
62 99 181
62 99 180
63 99 178
62 99 175
62 99 179
62 99 178
62 99 179
62 99 176
62 99 177
62 99 178
62 98 175
63 100 180
62 99 178
61 98 174
62 99 176
62 99 178
61 98 174
62 99 173
61 97 170
62 99 178
62 98 173
62 99 176
62 99 174
62 99 176
62 99 177
62 99 174
61 98 174
62 99 173
61 98 175
61 98 171
62 98 173
62 99 177
61 98 172
61 98 172
61 98 172
62 98 173
61 95 164
62 98 171
61 97 171
60 95 164
61 97 171
61 95 166
59 92 156
80 101 146
94 106 124
91 96 85
100 102 75
107 107 69
90 92 63
106 106 68
95 96 64
95 98 70
107 107 73
97 100 70
105 108 74
105 107 76
101 103 71
100 102 72
112 112 76
99 103 74
103 104 73
102 105 78
110 111 78
114 116 82
114 115 80
110 112 81
124 125 87
114 116 83
114 116 83
120 122 85
118 119 83
125 126 87
127 128 87
132 132 91
131 132 90
126 126 87
140 139 93
129 129 88
146 144 95
141 140 95
135 135 92
144 143 93
133 133 88
144 142 93
147 145 97
148 145 96
148 147 93
151 148 96
155 153 98
156 153 98
150 148 96
155 153 98
156 154 99
158 156 97
163 160 102
162 158 101
156 153 97
161 157 99
164 160 99
164 160 102
162 158 99
163 159 101
165 162 103
167 162 103
164 160 101
169 165 100
167 163 104
171 166 101
172 166 103
168 163 101
166 162 100
171 166 103
168 163 101
171 166 101
170 165 105
169 165 102
169 164 98
176 170 102
176 170 103
172 167 106
174 168 105
172 167 102
176 170 108
174 168 101
173 167 103
175 169 102
175 169 99
173 167 102
173 167 98
177 171 106
171 166 94
171 166 99
173 168 105
176 169 101
175 168 101
175 169 102
171 166 98
173 168 101
176 169 101
171 165 99
171 165 97
176 168 101
173 167 99
174 167 101
175 167 99
170 166 102
171 164 98
168 162 97
168 163 94
175 168 97
165 159 91
164 159 92
170 163 91
171 164 97
171 165 99
172 165 97
167 160 94
169 162 94
168 161 94
163 158 87
160 154 88
167 160 91
164 158 89
166 160 95
166 159 95
152 148 84
155 150 86
163 157 92
165 159 90
165 159 90
155 149 78
159 155 86
151 146 78
150 144 79
154 148 80
149 143 80
147 142 75
153 147 78
142 135 73
145 139 69
151 144 80
146 140 69
140 135 65
135 129 66
143 139 67
145 141 70
153 153 64
147 149 54
148 155 52
156 169 41
157 169 44
164 179 36
158 176 25
163 182 22
169 189 16
168 187 22
172 196 0
174 197 0
174 198 0
170 192 0
172 195 0
172 196 0
172 195 0
171 195 0
168 193 0
171 194 0
172 196 0
170 193 0
173 196 0
172 196 0
171 195 0
176 198 0
172 196 0
172 195 0
173 196 0
172 195 0
170 194 0
172 196 0
171 195 0
172 196 0
172 195 0
173 195 0
173 197 0
172 196 0
172 196 0
170 193 0
173 197 0
173 196 0
171 194 0
170 193 0
169 194 0
172 195 0
172 195 0
171 195 0
173 196 0
172 195 0
172 195 0
172 196 0
173 195 0
172 196 0
174 197 0
173 196 0
170 193 0
174 196 0
173 196 0
174 197 0
173 196 0
170 193 0
174 198 0
170 193 0
174 196 0
171 195 0
171 194 0
171 195 0
173 196 0
171 194 0
171 194 0
172 195 0
174 198 0
172 196 0
171 194 0
170 193 0
170 193 0
174 196 0
169 193 0
173 196 0
170 194 0
171 194 0
171 194 0
174 196 0
172 195 0
170 193 0
170 194 0
170 194 0
174 197 0
171 195 0
174 197 0
174 198 0
172 195 0
174 197 0
171 194 0
171 194 0
170 192 0
174 197 0
172 196 0
170 193 0
171 193 0
172 195 0
171 195 0
171 194 0
171 195 0
173 197 0
170 194 0
169 192 25
157 180 67
134 159 118
80 112 170
63 100 179
63 100 181
63 99 177
62 99 178
62 99 180
63 100 180
62 99 181
62 99 177
62 99 178
63 100 180
62 99 180
62 99 181
62 99 180
62 99 180
62 99 180
61 99 181
62 99 181
62 99 181
61 99 181
61 99 181
62 99 179
62 99 181
61 99 179
62 99 179
61 98 176
62 99 179
61 99 180
62 99 179
62 99 179
62 99 181
62 99 181
62 99 180
62 99 178
62 99 179
62 99 181
62 99 181
62 99 180
61 99 180
62 99 181
62 99 180
62 99 181
62 99 179
61 98 179
62 99 181
62 99 178
62 99 179
62 99 180
62 99 181
62 99 180
62 99 179
61 99 180
61 99 180
62 99 181
62 99 180
62 99 181
62 99 179
62 99 180
62 99 177
61 99 179
62 99 180
62 99 180
62 99 180
62 99 180
62 99 180
62 99 180
62 99 179
62 99 180
62 99 180
62 99 180
62 99 181
61 99 180
62 99 178
62 99 176
61 99 179
63 100 180
62 99 181
63 100 180
62 99 178
62 99 180
62 99 178
61 99 179
61 98 177
62 99 179
61 99 179
62 99 178
63 100 181
62 99 181
62 99 179
62 99 179
62 99 179
62 99 181
62 99 180
62 99 180
62 99 179
62 99 179
62 99 177
62 99 178
62 99 177
62 99 179
63 100 177
63 100 179
62 99 177
62 99 177
62 99 177
62 99 177
62 99 178
61 98 178
62 99 180
62 99 175
62 99 177
61 98 178
62 99 178
62 98 175
62 99 180
62 99 177
62 99 178
62 99 174
62 99 174
62 99 180
62 99 177
62 99 178
62 99 175
61 98 171
62 99 174
63 99 177
62 99 179
62 99 177
62 99 175
61 98 173
62 99 176
62 99 175
62 99 173
61 98 174
62 99 172
61 97 170
60 96 167
62 98 171
61 96 169
60 96 167
61 97 168
61 96 163
61 97 167
61 96 167
60 95 163
61 96 167
60 94 161
64 93 152
86 103 134
82 96 117
82 85 68
108 109 76
90 91 60
97 97 66
101 102 68
93 95 64
92 93 65
92 94 66
101 101 67
87 90 67
106 107 76
98 101 73
101 104 75
110 111 77
105 106 73
110 112 79
102 104 74
114 117 83
114 115 79
102 104 74
116 117 80
115 117 82
111 114 81
120 121 86
123 124 85
130 130 89
119 120 83
122 123 84
138 137 93
137 136 88
134 134 91
138 137 92
142 140 93
132 132 88
142 141 95
146 144 96
132 133 88
150 148 98
147 145 96
148 146 93
158 155 100
154 151 98
144 143 93
156 153 100
154 151 95
155 153 96
151 149 93
162 159 101
160 157 101
155 153 101
160 156 99
156 153 97
161 158 99
168 163 104
164 161 101
160 156 97
163 160 99
170 165 106
162 158 101
165 161 100
164 160 101
164 161 102
164 160 96
173 168 104
169 164 100
173 168 103
172 166 102
172 167 101
177 170 106
175 169 104
170 165 100
173 167 101
172 166 102
168 164 100
173 168 102
173 167 100
175 169 102
176 169 101
173 168 103
172 167 103
174 168 103
173 167 101
174 168 102
169 164 96
173 168 101
175 169 102
170 165 99
172 167 100
176 169 99
174 168 101
176 169 103
172 166 100
175 169 103
174 167 98
168 162 95
173 168 96
172 167 101
169 163 100
168 162 95
171 165 99
171 166 97
172 166 97
175 168 101
170 165 99
170 165 100
172 165 93
169 162 93
160 155 86
166 159 91
166 161 94
167 161 93
159 154 85
160 154 89
166 159 93
168 162 97
166 159 91
167 160 90
164 158 91
164 157 87
165 158 91
160 154 86
161 155 84
159 152 84
159 153 82
163 156 91
164 157 82
160 153 84
162 155 89
156 149 83
151 145 74
159 153 81
152 145 76
143 138 66
147 141 71
155 149 75
149 144 75
141 136 67
147 140 72
147 141 69
151 149 67
143 147 48
150 156 54
146 152 52
147 155 45
158 171 34
158 170 44
161 180 22
161 177 19
170 189 19
169 190 0
173 196 0
171 195 0
174 198 0
173 196 0
174 197 0
168 193 0
174 198 0
172 195 0
171 195 0
174 197 0
173 196 0
172 196 0
174 197 0
173 196 0
174 197 0
174 197 0
173 197 0
172 196 0
173 197 0
173 197 0
174 198 0
171 195 0
170 194 0
170 194 0
170 194 0
171 194 0
174 197 0
172 195 0
172 196 0
172 195 0
172 196 0
170 194 0
174 197 0
173 196 0
173 197 0
174 197 0
172 196 0
170 194 0
172 196 0
174 197 0
172 195 0
173 196 0
174 197 0
173 197 0
171 195 0
171 195 0
174 197 0
173 196 0
168 192 0
174 197 0
171 194 0
170 194 0
170 194 0
172 195 0
173 196 0
173 196 0
175 198 0
171 195 0
174 197 0
174 197 0
172 196 0
175 197 0
172 194 0
168 192 0
171 194 0
173 197 0
169 193 0
169 192 0
170 193 0
171 194 0
172 196 0
172 194 0
171 195 0
170 194 0
174 197 0
168 191 0
171 194 0
171 194 0
171 194 0
174 197 0
171 195 0
172 196 0
170 194 0
171 194 0
172 195 0
170 194 0
170 193 0
171 193 0
172 194 0
171 194 0
169 193 0
170 193 0
172 196 0
173 195 0
170 194 0
172 195 0
170 193 0
163 187 54
142 167 110
92 123 161
62 99 178
62 99 179
62 99 178
63 100 178
62 99 181
62 99 180
62 99 177
62 99 181
62 99 180
62 99 181
62 99 180
62 99 179
62 99 179
62 99 178
62 99 180
62 99 181
62 99 180
62 99 180
62 99 181
62 99 180
62 99 181
62 99 180
61 99 180
63 100 180
62 99 181
62 99 180
62 99 181
61 98 178
62 99 181
62 99 181
61 99 179
62 99 181
62 99 180
62 99 181
62 99 180
62 99 180
61 99 180
62 99 177
62 99 179
62 99 181
62 99 180
62 99 181
62 99 181
61 99 180
62 99 180
62 99 180
62 99 179
62 99 180
62 99 180
62 99 181
62 99 180
63 100 180
62 99 180
62 99 180
62 99 178
62 99 179
62 99 178
62 99 180
62 99 181
61 99 181
62 99 180
61 99 178
62 99 177
62 99 181
62 99 179
62 99 181
61 98 178
62 99 179
62 99 179
62 99 180
62 99 180
62 99 180
61 98 178
61 98 177
62 99 179
62 99 179
62 99 176
62 99 179
62 99 178
61 98 174
61 99 180
62 99 179
61 98 178
62 99 177
62 99 180
62 99 180
62 99 180
61 99 177
63 100 181
62 99 180
62 99 179
62 99 178
62 99 178
62 99 178
62 99 178
62 99 180
62 99 179
62 99 179
62 99 178
62 99 179
62 99 179
62 99 178
62 99 175
63 100 180
62 99 178
62 99 177
62 99 179
62 99 180
62 99 180
62 98 174
62 99 179
61 99 180
61 98 174
62 99 177
61 98 174
62 99 177
62 99 177
62 99 178
61 98 178
62 98 172
62 99 174
62 98 173
63 99 178
62 99 175
62 99 175
62 99 174
62 98 175
62 98 174
62 99 173
61 98 172
62 98 173
61 98 171
62 99 179
62 99 175
62 99 174
62 99 174
61 97 170
61 98 172
60 95 167
62 98 174
62 98 169
60 96 170
62 98 169
61 97 170
61 97 169
62 98 170
61 97 168
61 96 166
69 97 158
84 98 123
91 98 90
86 90 73
72 76 56
102 101 69
93 94 64
96 97 65
100 100 69
104 104 71
86 90 65
95 98 71
107 108 75
103 106 75
98 101 72
95 98 71
105 107 74
94 97 71
100 103 72
114 115 81
109 111 80
105 107 75
117 118 82
126 126 86
102 105 74
124 125 86
122 123 85
131 130 89
123 125 88
134 134 90
121 122 87
132 132 87
128 128 86
121 123 87
124 124 85
135 135 93
129 129 85
143 141 93
145 143 94
146 144 95
146 144 93
154 150 97
153 151 99
145 144 91
150 148 96
151 149 95
155 152 94
146 145 94
159 155 96
149 148 97
160 157 99
153 151 96
151 149 97
159 156 95
161 158 99
165 161 102
165 161 101
164 160 100
160 156 96
160 156 100
167 163 100
168 164 99
168 164 99
167 163 95
171 165 102
170 166 102
168 163 101
169 164 102
170 165 100
168 164 106
168 163 98
176 170 107
170 165 101
170 166 101
170 166 102
172 167 103
171 166 96
178 170 104
172 167 100
178 171 103
171 165 98
174 168 102
175 170 104
173 167 100
171 166 102
173 167 99
175 170 104
175 169 103
172 166 99
175 168 101
175 169 103
168 162 98
168 163 100
174 168 96
173 167 100
174 168 103
174 167 96
173 167 99
171 165 94
170 164 97
170 165 96
167 161 96
170 163 97
171 165 95
176 169 103
169 163 95
172 166 97
171 165 93
173 166 97
173 166 97
162 157 88
166 160 94
165 159 88
169 163 95
169 163 94
165 158 87
163 158 89
155 151 81
167 161 88
164 158 89
157 151 87
162 156 92
160 155 88
154 148 81
162 156 84
156 150 86
166 158 89
160 153 84
155 148 85
160 153 84
164 157 88
159 152 79
150 144 76
144 139 72
148 142 75
150 144 76
151 145 76
149 144 75
146 140 69
143 139 64
146 143 68
140 137 65
147 152 51
142 149 44
151 157 48
161 170 52
147 156 39
154 166 44
161 176 28
166 185 30
168 188 22
166 188 11
173 197 0
172 194 0
173 196 0
175 198 0
172 196 0
174 197 0
173 197 0
176 198 0
172 195 0
172 194 0
172 196 0
171 194 0
174 197 0
173 197 0
172 196 0
173 196 0
171 195 0
174 197 0
172 196 0
172 196 0
171 194 0
173 196 0
174 197 0
172 195 0
174 197 0
175 197 0
172 195 0
171 195 0
171 195 0
171 195 0
173 197 0
172 196 0
173 197 0
169 193 0
170 193 0
174 197 0
171 194 0
170 194 0
170 194 0
170 194 0
167 191 0
173 196 0
174 197 0
171 194 0
173 196 0
171 195 0
172 195 0
173 196 0
171 195 0
169 193 0
167 192 0
169 193 0
172 195 0
170 194 0
171 194 0
170 194 0
170 195 0
173 196 0
173 196 0
171 195 0
171 194 0
171 194 0
173 196 0
169 193 0
171 195 0
172 196 0
172 196 0
168 191 0
171 195 0
170 194 0
172 196 0
173 197 0
172 195 0
171 193 0
173 196 0
171 195 0
167 189 0
172 196 0
171 194 0
171 194 0
170 194 0
174 197 0
169 193 0
173 197 0
169 193 0
170 193 0
167 190 0
170 193 0
172 195 0
171 193 0
172 195 0
171 192 0
171 195 0
171 194 0
169 194 0
171 193 0
165 188 51
144 168 103
120 146 139
69 104 176
62 99 179
62 99 179
62 99 178
62 99 177
62 99 181
62 99 179
62 99 180
62 99 180
62 99 180
62 99 179
62 99 179
62 99 181
61 99 180
62 99 178
62 99 180
62 99 180
62 99 180
62 99 180
61 99 179
62 99 181
62 99 178
62 99 178
61 99 180
62 99 181
62 99 179
62 99 181
61 98 178
62 99 180
62 99 179
61 99 180
62 99 178
62 99 181
62 99 180
61 99 181
62 99 178
61 98 177
61 98 178
62 99 181
62 99 181
63 100 181
61 99 181
62 99 180
62 99 181
62 99 180
62 99 181
62 99 178
62 99 180
61 98 178
62 99 179
62 99 181
62 99 181
62 99 180
62 99 180
62 99 178
62 99 178
62 99 180
62 99 180
62 99 180
61 99 178
62 99 181
63 100 179
62 99 180
62 99 181
62 99 181
62 99 180
62 99 178
61 99 178
61 98 175
62 99 180
62 99 178
61 99 179
61 99 179
62 100 181
62 99 179
62 98 178
62 99 179
62 99 178
61 99 179
62 99 179
61 99 178
61 99 180
62 99 178
61 98 179
62 99 178
62 99 178
62 99 178
62 99 180
62 99 179
62 99 176
61 98 178
62 99 180
61 98 178
62 99 178
62 99 180
62 99 179
62 99 179
62 99 179
62 99 179
62 99 179
62 99 177
61 99 179
61 98 174
62 99 178
62 99 177
62 99 174
62 99 181
62 99 176
62 99 179
62 99 178
62 99 177
61 98 175
62 99 178
62 99 179
62 99 177
62 99 178
62 99 177
62 99 180
62 99 180
61 98 174
62 99 176
62 99 178
62 99 177
61 98 177
62 99 175
62 98 170
62 99 178
62 98 170
61 98 172
62 98 173
62 99 177
62 98 172
62 98 171
62 98 169
63 99 176
61 97 165
62 98 172
61 97 171
61 97 171
62 98 167
62 98 174
61 97 167
61 96 167
62 98 170
61 96 166
60 95 162
62 98 170
60 96 165
60 94 158
66 98 162
69 93 142
80 96 125
86 92 88
93 95 68
88 90 59
80 83 56
95 96 67
89 90 64
81 85 63
96 98 68
89 93 65
96 98 70
105 107 75
87 90 64
103 105 75
97 101 74
101 104 75
113 114 78
114 114 77
108 111 80
102 104 75
96 99 71
106 109 78
119 120 82
123 124 86
111 115 82
109 111 77
132 132 90
124 125 84
131 131 86
129 129 87
131 130 88
141 139 91
122 124 86
135 136 90
139 139 90
136 135 87
140 138 91
142 140 91
134 134 88
139 139 91
148 146 96
147 145 96
146 144 91
154 151 96
156 152 97
154 151 96
154 152 97
154 152 97
159 156 98
152 150 95
162 158 104
159 156 100
160 156 101
163 159 96
165 161 99
164 161 101
166 162 100
173 168 103
164 160 100
160 156 93
166 161 95
167 164 103
158 155 99
170 165 102
162 159 98
168 163 99
172 167 102
173 166 101
173 167 100
172 166 102
171 165 98
169 164 99
168 163 92
173 168 101
175 170 104
174 168 104
172 167 101
171 166 99
177 170 104
170 165 99
176 169 100
172 167 98
170 165 99
177 171 103
172 167 101
172 166 98
170 166 100
173 167 99
170 165 98
171 166 99
172 166 97
172 166 99
175 169 102
170 164 95
170 165 99
168 161 95
170 165 100
168 161 95
172 166 95
169 164 96
170 163 94
171 164 92
163 158 90
173 167 97
168 162 97
167 162 95
171 164 99
165 159 90
167 160 90
173 165 95
167 161 95
164 158 95
168 162 90
163 158 84
161 155 89
163 156 89
162 155 87
166 160 88
162 155 89
163 157 87
156 150 81
157 151 80
166 159 87
153 147 83
153 147 80
150 144 79
165 159 84
154 148 79
151 146 80
150 145 79
141 136 71
156 149 82
151 144 79
157 150 80
152 146 76
148 141 73
154 148 75
138 131 66
146 145 60
141 142 56
143 143 52
153 158 59
151 155 52
154 162 52
159 172 45
154 166 39
163 179 34
164 181 22
169 191 0
170 193 11
170 193 0
171 194 0
172 196 0
172 195 0
170 193 0
172 196 0
173 197 0
171 195 0
172 195 0
173 196 0
173 196 0
173 196 0
172 196 0
174 197 0
171 195 0
172 196 0
172 195 0
173 197 0
171 195 0
172 196 0
172 195 0
175 198 0
173 196 0
171 195 0
169 192 0
170 193 0
172 196 0
171 195 0
172 196 0
171 195 0
172 196 0
172 195 0
172 195 0
171 193 0
172 195 0
169 193 0
170 194 0
172 195 0
174 197 0
173 196 0
171 195 0
172 196 0
174 196 0
168 192 0
171 195 0
173 196 0
175 197 0
172 196 0
173 197 0
173 195 0
167 191 0
173 196 0
170 194 0
173 196 0
171 194 0
169 192 0
172 195 0
169 192 0
174 197 0
173 196 0
172 195 0
172 195 0
172 195 0
174 196 0
173 196 0
169 193 0
173 196 0
172 195 0
171 195 0
171 194 0
174 197 0
171 195 0
173 196 0
170 194 0
170 193 0
170 193 0
170 193 0
172 195 0
172 195 0
172 196 0
169 193 0
167 191 0
172 194 0
173 196 0
168 192 0
168 192 0
170 194 0
173 197 0
168 192 0
168 191 0
167 190 0
172 196 0
169 193 0
172 195 0
170 194 0
169 193 0
160 184 67
124 151 131
81 113 169
63 100 180
62 99 176
62 99 178
62 99 181
62 99 179
62 99 180
62 99 181
62 99 180
62 99 180
62 99 180
63 100 181
62 99 180
62 99 180
62 99 181
62 99 179
62 99 179
62 99 179
62 99 180
62 99 181
62 99 180
62 99 179
62 99 181
62 99 180
62 99 180
62 99 181
62 99 180
62 99 180
62 99 180
62 99 181
62 99 181
62 99 179
62 99 181
62 99 179
62 99 179
62 99 181
62 99 180
62 99 179
62 99 180
61 98 178
61 99 179
62 99 180
62 99 181
62 99 179
61 98 179
62 99 181
61 99 179
62 99 181
62 99 181
61 98 178
62 99 180
62 99 181
62 99 180
62 99 180
62 99 180
61 99 180
62 99 180
61 98 180
62 99 180
61 99 181
62 99 181
62 99 179
62 99 179
63 100 180
62 99 180
61 98 180
61 98 174
62 99 180
61 98 177
62 99 179
61 98 179
61 99 181
62 99 180
62 99 178
62 99 180
62 99 180
62 99 177
61 98 176
63 100 181
62 99 180
62 99 176
62 99 181
61 98 179
61 99 180
62 99 180
62 99 178
62 99 179
62 99 179
62 99 179
62 99 181
63 99 177
61 99 178
61 98 176
62 99 178
62 99 177
62 99 176
61 98 176
62 99 178
62 99 179
62 99 181
62 99 179
62 99 179
62 99 173
61 98 174
62 99 178
62 99 177
62 99 180
61 98 174
61 98 178
62 99 173
62 99 179
62 99 180
63 99 177
62 99 179
62 99 175
61 98 178
62 99 175
62 99 178
62 99 176
62 98 172
62 98 174
62 99 177
62 99 174
62 98 172
62 99 175
61 98 171
62 99 178
62 99 175
63 99 176
61 98 177
62 99 173
62 99 176
62 99 176
62 99 173
62 98 171
62 98 170
62 98 170
62 99 179
61 98 174
61 97 168
61 97 170
61 97 167
62 98 173
61 98 168
62 97 166
61 97 168
62 98 171
59 93 154
60 94 159
62 97 169
60 94 164
64 94 152
72 91 124
81 91 103
81 86 67
86 87 56
90 91 63
84 85 59
83 85 60
91 94 66
88 90 63
84 85 58
85 88 62
101 102 71
105 107 76
95 99 70
96 100 73
95 99 74
104 106 74
106 109 79
106 109 76
105 108 77
111 112 78
110 111 77
106 108 75
104 107 70
122 122 84
118 120 84
137 136 89
120 121 79
113 116 80
130 130 86
127 127 84
130 130 86
129 129 88
133 133 89
139 138 88
136 135 90
141 141 94
141 140 92
150 148 95
140 139 89
145 144 92
154 150 93
143 142 90
151 149 93
142 141 94
142 142 95
156 153 98
160 157 98
154 151 96
152 149 96
162 158 95
162 158 98
156 153 93
163 160 103
159 156 99
166 161 97
165 160 100
163 159 100
168 163 103
165 161 97
168 164 100
169 164 105
168 163 99
168 163 100
164 159 94
166 162 99
169 164 98
171 166 102
173 168 104
171 166 104
172 166 103
173 167 100
172 167 102
173 168 101
171 166 98
173 167 100
175 169 101
178 170 101
170 164 98
170 166 96
170 165 95
174 167 99
174 168 97
172 167 97
171 165 93
173 167 103
175 169 99
170 165 98
175 167 101
175 168 104
174 167 101
171 165 98
175 168 99
174 168 101
169 164 96
170 164 93
171 164 99
175 168 102
170 164 95
171 165 100
165 160 94
168 162 98
166 160 93
172 166 98
171 165 93
165 159 87
167 161 90
162 156 84
164 158 90
168 161 87
163 157 88
163 157 90
166 159 92
155 150 84
173 166 99
161 155 88
161 155 84
155 149 82
158 152 84
165 159 87
162 155 82
161 155 85
157 151 81
160 154 84
159 153 81
156 150 81
148 142 77
155 150 80
153 147 80
160 153 84
155 149 79
152 147 76
149 143 79
147 142 72
149 142 74
149 143 77
143 136 65
144 139 68
139 137 58
150 149 61
149 152 51
141 146 45
145 151 48
153 164 39
150 163 39
159 170 44
160 174 22
169 186 34
168 189 0
170 191 11
171 195 0
174 197 0
175 197 0
174 196 0
171 195 0
173 197 0
172 195 0
171 195 0
175 198 0
174 197 0
172 195 0
172 196 0
173 197 0
172 194 0
174 197 0
172 195 0
172 196 0
172 196 0
174 196 0
174 197 0
171 194 0
171 195 0
172 196 0
173 197 0
170 194 0
173 197 0
172 197 0
170 193 0
170 194 0
173 196 0
174 197 0
171 194 0
172 195 0
171 195 0
172 195 0
174 197 0
174 196 0
173 196 0
175 198 0
171 194 0
174 198 0
174 197 0
170 193 0
173 196 0
171 195 0
171 194 0
171 195 0
173 197 0
174 197 0
169 193 0
170 195 0
169 192 0
173 197 0
171 195 0
173 196 0
170 194 0
171 196 0
173 196 0
172 195 0
170 194 0
171 194 0
171 194 0
169 193 0
171 193 0
171 195 0
171 194 0
172 195 0
172 196 0
171 194 0
167 191 0
172 196 0
172 195 0
171 195 0
167 191 0
172 196 0
170 193 0
174 198 0
171 193 0
167 191 0
171 194 0
172 195 0
170 193 0
170 194 0
170 193 0
170 194 0
166 190 0
171 194 0
172 195 0
171 195 0
171 195 0
172 195 0
171 194 0
171 195 0
174 197 0
171 195 0
164 187 62
143 167 107
97 126 154
64 101 178
63 100 179
62 99 176
62 99 180
62 99 180
62 99 180
63 99 179
62 99 181
62 99 180
62 99 181
63 100 179
62 99 179
62 99 181
62 99 181
62 99 179
62 99 180
62 99 179
62 99 181
62 99 180
62 99 176
62 99 178
61 99 181
62 99 178
62 99 178
62 99 181
62 99 181
62 99 179
62 99 180
62 99 179
62 99 179
62 99 180
62 99 180
62 99 180
63 100 180
62 99 181
63 100 180
62 99 181
62 99 178
62 99 180
62 99 181
62 99 181
62 99 179
62 99 179
62 99 180
62 99 180
62 99 179
62 99 178
62 99 179
62 99 181
61 99 181
62 100 181
62 99 179
62 99 180
62 99 181
61 98 176
62 99 179
62 99 180
62 99 181
62 98 175
62 99 180
62 99 180
62 99 180
62 99 181
62 99 175
62 99 180
61 98 179
62 99 177
62 99 180
62 99 179
62 99 178
62 99 179
62 99 177
62 99 181
62 99 180
62 99 178
61 98 177
63 100 180
61 98 176
62 99 179
62 99 178
62 100 181
61 98 177
62 99 180
62 99 179
61 98 176
62 99 180
62 99 179
62 99 179
62 99 176
62 99 176
62 99 176
61 98 178
62 99 177
62 98 176
62 99 177
63 99 179
62 99 179
62 99 176
62 99 179
62 99 177
62 99 177
62 99 176
62 99 173
63 99 178
62 99 176
62 99 175
62 99 174
63 99 176
62 99 181
62 99 177
62 99 179
62 99 178
62 99 177
62 99 174
62 99 176
62 99 174
62 99 178
62 99 177
62 99 177
62 99 174
63 99 177
61 98 173
61 98 170
63 99 178
62 98 173
62 99 174
61 98 170
62 99 178
62 98 172
63 99 176
62 98 172
62 98 171
62 99 173
62 98 172
62 98 173
62 98 175
63 99 173
62 99 173
62 98 174
61 97 166
62 98 174
61 98 173
61 97 169
61 98 173
62 97 165
61 96 164
61 97 170
61 96 166
61 96 164
60 95 159
61 96 166
59 92 155
67 96 152
76 90 111
72 84 96
85 88 67
91 91 58
98 99 66
83 86 64
92 94 64
86 88 61
77 82 60
84 87 64
76 80 58
93 97 68
94 96 68
100 102 73
98 101 72
88 93 68
99 101 70
104 106 74
93 96 68
110 112 76
115 117 80
110 112 78
108 110 77
119 119 80
119 120 83
122 122 83
129 129 86
123 124 87
121 122 82
133 133 88
131 131 86
137 137 89
137 136 86
138 137 89
141 139 91
136 135 88
142 141 91
143 141 86
153 151 97
138 137 91
146 144 92
146 144 93
151 149 97
152 149 94
147 144 88
147 144 91
160 156 96
157 153 99
153 151 94
161 156 95
164 159 100
161 157 98
163 159 98
165 161 101
163 158 95
167 162 98
159 155 92
169 164 98
166 162 100
168 162 98
164 159 93
164 160 98
167 163 102
164 160 96
172 166 100
169 164 99
168 163 95
169 164 100
168 164 100
173 167 100
165 161 94
171 167 101
168 163 94
171 166 100
168 163 96
172 166 102
175 169 102
174 167 101
171 166 102
172 166 100
170 164 96
173 167 102
168 163 96
173 167 96
173 167 97
173 167 101
173 166 99
171 165 97
174 168 98
172 165 100
175 168 99
174 168 99
173 167 95
171 165 95
174 168 101
169 163 93
168 162 91
169 163 95
173 165 94
170 164 90
172 166 97
166 160 88
171 165 97
167 162 90
171 164 94
165 159 90
170 163 94
167 160 91
168 162 93
171 164 96
162 157 87
168 161 86
171 164 90
167 161 89
161 155 91
163 156 84
166 159 84
164 157 88
157 151 80
157 151 84
155 149 76
155 149 84
154 147 80
160 153 84
153 147 77
151 145 75
155 149 80
160 154 81
159 152 84
149 142 65
147 142 70
150 144 73
151 144 74
144 138 72
146 140 71
155 148 80
138 133 64
153 148 73
149 147 61
147 148 62
147 154 48
156 163 52
150 162 39
168 178 51
160 174 42
161 179 25
164 183 25
170 190 19
171 193 0
173 196 0
173 197 0
173 197 0
171 195 0
173 197 0
174 197 0
171 194 0
170 194 0
170 193 0
172 195 0
172 196 0
172 196 0
174 197 0
171 195 0
173 197 0
173 196 0
171 195 0
171 194 0
173 197 0
173 196 0
172 195 0
173 196 0
168 192 0
172 195 0
171 194 0
171 195 0
172 196 0
174 197 0
172 196 0
174 197 0
174 197 0
171 195 0
170 194 0
169 192 0
172 196 0
170 194 0
174 197 0
167 191 0
171 195 0
172 196 0
170 193 0
174 198 0
171 194 0
171 194 0
169 193 0
170 193 0
173 196 0
170 193 0
173 197 0
171 194 0
169 193 0
171 194 0
170 194 0
172 195 0
172 195 0
173 197 0
171 195 0
172 195 0
173 196 0
172 196 0
172 195 0
170 193 0
170 194 0
172 195 0
174 196 0
171 194 0
172 196 0
174 198 0
173 196 0
169 192 0
170 194 0
167 190 0
172 196 0
172 195 0
173 196 0
171 195 0
171 194 0
173 197 0
172 195 0
170 193 0
172 195 0
173 195 0
173 196 0
170 193 0
170 193 0
170 194 0
171 195 0
168 192 0
172 196 0
173 196 0
173 196 0
173 196 0
169 193 0
172 195 0
170 193 36
151 175 84
128 154 125
80 112 170
63 100 181
62 99 179
62 100 181
63 100 180
63 100 181
62 99 177
63 99 179
62 99 181
63 100 180
61 99 179
63 100 181
62 99 178
62 99 180
62 99 178
62 99 181
62 99 179
62 99 180
62 99 180
62 99 181
62 99 180
62 99 179
62 99 181
62 99 181
62 99 176
62 99 180
62 99 181
61 99 178
62 99 180
62 99 179
62 99 180
61 99 179
62 99 180
62 99 181
62 99 180
61 98 178
62 99 181
62 99 180
62 99 179
62 99 180
62 99 180
62 99 179
62 99 178
62 99 180
61 99 180
61 99 178
61 99 179
62 99 179
62 99 181
62 99 179
62 99 177
61 99 179
61 98 178
62 99 177
62 99 177
62 99 180
62 99 179
62 99 177
61 98 179
61 99 179
62 99 179
61 98 179
62 99 178
62 99 178
62 99 179
62 99 177
62 99 181
62 99 181
62 99 179
62 99 179
62 99 179
62 99 180
63 99 180
62 99 179
61 98 179
61 98 177
63 100 181
62 99 178
62 99 176
61 98 180
62 99 178
62 99 180
62 99 176
63 100 180
62 99 179
62 99 177
62 99 180
62 99 180
62 99 178
62 99 178
62 99 180
61 98 174
63 99 177
62 99 181
62 98 175
62 99 178
61 98 174
62 99 174
62 99 178
61 98 172
62 99 177
62 99 179
62 99 180
62 99 179
62 99 178
62 99 177
63 100 179
62 99 175
62 99 176
62 99 179
62 99 175
62 99 176
63 100 179
61 98 174
62 99 175
62 98 171
62 99 177
62 99 170
62 99 176
62 99 173
62 99 172
62 99 172
61 98 173
62 99 177
62 99 176
62 98 173
61 98 177
62 98 174
61 98 172
61 98 168
62 99 178
62 98 170
62 98 168
62 98 175
62 98 171
62 99 172
62 99 175
62 98 173
63 99 168
61 97 171
61 97 166
61 98 173
62 99 176
61 97 165
61 96 168
62 99 173
60 95 158
61 97 173
61 96 163
61 96 163
62 98 169
60 96 161
60 96 163
65 97 157
76 97 133
76 91 111
77 85 84
75 78 55
80 82 53
80 84 61
96 96 62
88 90 63
88 91 65
83 86 60
78 81 59
90 95 69
94 96 70
88 93 67
99 102 72
104 106 76
101 103 73
96 100 73
111 112 78
119 120 82
110 112 79
126 126 85
110 112 77
111 113 77
110 112 75
126 126 85
133 132 89
124 126 86
126 127 86
136 136 92
128 130 87
140 140 91
128 128 84
126 127 86
135 134 86
129 129 82
134 133 87
135 135 86
146 145 91
146 144 90
148 145 92
145 144 94
147 145 89
153 149 91
149 147 94
155 152 96
152 150 95
152 150 94
152 149 91
157 153 96
159 155 95
153 150 92
159 156 100
160 156 95
162 158 98
162 158 96
159 156 95
165 160 97
164 159 93
166 162 99
165 161 90
167 162 96
163 158 96
174 167 98
161 157 93
171 165 100
168 163 90
172 167 101
168 164 98
171 166 100
171 166 100
169 164 97
171 166 97
173 167 103
173 167 97
175 169 103
171 166 100
174 168 102
174 168 100
177 170 104
172 167 96
174 168 97
173 167 95
173 167 99
177 170 101
171 165 95
167 163 93
174 168 102
176 168 100
170 164 92
166 161 93
169 164 92
167 162 90
173 167 97
172 165 88
172 167 99
171 165 98
172 166 93
174 167 98
170 162 96
170 163 93
170 164 94
166 161 89
170 163 92
168 162 91
171 165 93
168 161 90
168 162 92
169 163 90
166 160 91
163 157 90
161 156 87
169 163 89
163 157 90
162 156 84
160 154 82
166 160 87
165 157 87
164 158 85
158 152 84
152 148 79
161 155 85
160 154 86
155 150 81
159 153 80
152 146 72
160 154 84
162 156 81
149 143 70
150 144 74
143 137 73
150 143 75
153 147 77
144 139 64
146 140 67
148 142 69
131 127 59
141 138 62
136 136 49
141 143 51
150 153 57
151 154 57
151 162 47
152 166 36
160 173 34
159 175 28
165 184 16
167 188 16
171 192 19
173 196 0
171 195 0
172 196 0
171 195 0
173 196 0
173 197 0
171 195 0
170 194 0
170 193 0
170 194 0
175 198 0
174 197 0
173 197 0
173 197 0
171 196 0
172 197 0
171 194 0
174 197 0
175 198 0
172 196 0
172 195 0
171 195 0
175 198 0
170 193 0
173 197 0
167 191 0
172 196 0
170 194 0
174 197 0
175 198 0
171 194 0
171 195 0
174 196 0
173 196 0
172 196 0
173 196 0
173 196 0
175 198 0
171 196 0
171 194 0
172 195 0
171 194 0
172 196 0
172 195 0
170 193 0
171 194 0
173 195 0
174 197 0
171 195 0
173 196 0
172 195 0
172 196 0
174 197 0
173 196 0
174 197 0
175 197 0
171 194 0
170 193 0
173 196 0
172 195 0
170 193 0
175 197 0
172 195 0
165 188 0
173 196 0
171 195 0
170 193 0
171 194 0
172 195 0
171 194 0
172 196 0
169 192 0
170 193 0
169 192 0
171 194 0
173 196 0
171 195 0
171 195 0
169 192 0
172 196 0
171 194 0
172 195 0
173 196 0
171 193 0
173 196 0
171 195 0
171 194 0
169 192 0
172 196 0
173 197 0
172 196 0
169 192 0
171 195 0
173 196 0
165 188 47
147 171 95
90 119 161
63 100 180
62 99 178
62 99 180
62 99 178
63 99 178
63 99 179
63 100 181
63 100 180
63 100 181
61 99 179
62 99 181
62 99 180
62 99 180
62 99 180
62 99 179
61 99 180
62 99 178
61 99 180
62 99 180
62 99 179
62 99 180
62 99 178
62 99 178
62 99 181
62 99 180
62 99 179
61 99 178
62 99 180
63 99 179
62 99 180
62 99 179
62 99 180
62 99 181
62 99 180
61 99 179
63 100 181
62 99 180
62 99 179
62 99 179
62 99 180
62 99 180
63 100 179
62 99 179
62 99 180
61 99 180
62 99 180
62 99 181
61 98 178
61 99 179
61 99 179
63 100 180
62 99 178
61 99 178
62 99 179
62 99 179
62 99 180
62 99 178
62 99 180
62 99 180
62 99 179
62 99 179
62 99 179
62 99 178
62 99 179
61 99 179
62 99 179
62 99 179
62 99 179
61 99 176
62 99 180
62 99 180
62 99 181
62 99 180
62 99 177
62 99 180
62 99 179
62 99 181
62 99 176
62 99 177
61 98 176
62 99 177
62 99 180
61 99 178
62 99 178
61 98 175
62 99 179
62 99 177
62 99 176
62 99 179
62 99 175
62 99 175
61 99 179
63 100 181
62 99 179
62 99 176
61 98 176
62 99 179
62 99 177
62 99 174
62 99 179
62 99 177
62 99 174
61 98 175
62 99 177
62 99 174
62 99 176
62 99 178
61 98 172
62 98 175
62 99 177
62 99 180
62 99 178
62 99 178
63 99 177
62 99 176
63 100 178
62 99 176
62 99 178
62 99 177
62 99 177
62 99 176
62 99 177
62 99 176
63 99 175
62 99 173
62 99 175
61 98 171
62 99 174
61 98 171
62 99 172
62 99 175
62 98 172
61 97 173
63 99 175
62 99 177
62 98 169
62 98 169
61 98 171
62 98 167
62 98 172
61 97 166
62 98 174
61 97 171
61 97 167
62 98 170
62 98 169
62 98 168
62 98 170
60 96 167
62 98 171
61 97 167
62 96 166
61 96 165
59 93 155
62 93 149
71 90 126
89 97 102
58 67 72
89 91 61
87 89 63
92 94 64
99 101 71
79 82 59
73 77 57
94 96 69
86 90 65
97 99 70
88 91 64
97 101 72
89 94 68
91 95 66
91 94 67
96 100 72
97 100 69
100 104 74
99 103 77
102 105 74
114 116 80
114 115 77
103 106 74
129 129 87
127 127 83
112 115 79
133 133 90
116 117 82
141 140 86
144 142 90
130 130 88
131 132 87
128 128 82
150 147 93
131 131 86
140 138 88
136 135 85
142 140 88
147 144 88
145 143 90
151 149 94
146 144 89
154 151 94
146 144 92
147 145 88
158 155 96
156 154 97
156 152 95
156 153 95
163 159 95
165 160 98
159 156 96
159 155 97
164 160 98
167 162 97
162 159 96
171 166 99
158 154 93
167 162 102
166 162 98
169 164 99
168 164 97
170 165 98
170 164 99
168 163 97
170 164 95
175 169 100
173 167 102
172 166 100
171 165 95
170 165 96
172 167 101
168 163 95
177 170 101
175 168 99
170 164 98
169 164 91
174 167 97
174 168 99
175 168 97
174 168 99
174 168 100
174 168 101
169 164 93
175 169 100
171 165 99
174 166 96
168 163 93
172 166 95
172 166 97
172 165 98
174 167 95
170 163 97
173 167 91
170 164 95
171 164 96
170 164 91
165 159 91
163 158 90
171 165 92
172 166 95
169 163 91
173 166 96
166 161 91
164 158 79
169 163 95
171 164 92
163 157 87
161 155 87
164 158 87
162 156 83
161 155 83
162 156 85
154 149 83
151 145 80
157 151 84
165 157 84
161 154 84
153 148 83
158 153 77
156 150 78
153 147 80
159 153 82
159 152 85
151 144 74
154 149 79
148 143 70
150 144 77
154 147 79
151 144 72
147 141 72
152 146 70
146 140 68
142 136 66
142 140 63
140 137 60
152 155 61
151 153 61
153 157 54
158 167 45
158 172 44
154 167 39
161 178 25
171 188 28
169 189 11
170 193 0
173 197 0
175 198 0
173 197 0
172 195 0
172 195 0
173 196 0
169 192 0
172 194 0
168 192 0
174 197 0
173 197 0
173 195 0
172 195 0
172 196 0
175 197 0
174 197 0
172 195 0
172 196 0
174 197 0
173 196 0
173 196 0
173 197 0
173 196 0
173 196 0
169 193 0
173 197 0
172 196 0
172 196 0
172 195 0
174 197 0
171 194 0
173 196 0
171 194 0
170 194 0
170 193 0
172 194 0
172 195 0
172 195 0
174 197 0
172 195 0
174 196 0
173 196 0
171 194 0
173 196 0
172 196 0
174 197 0
173 196 0
174 197 0
171 194 0
172 195 0
170 194 0
173 196 0
174 197 0
172 195 0
171 194 0
170 194 0
171 195 0
170 193 0
173 196 0
174 197 0
168 192 0
174 197 0
171 194 0
170 194 0
170 193 0
172 196 0
171 194 0
173 196 0
172 196 0
172 196 0
170 192 0
169 192 0
172 195 0
169 193 0
170 194 0
172 195 0
169 193 0
169 193 0
170 194 0
169 193 0
171 195 0
169 193 0
174 197 0
170 194 0
173 196 0
168 192 0
173 195 0
172 195 0
170 195 0
171 196 0
171 194 0
171 194 0
172 195 0
161 185 51
146 170 92
117 144 142
68 103 176
62 99 180
63 100 181
63 100 181
62 99 181
62 99 181
62 99 177
62 99 175
62 98 177
61 98 178
62 99 179
62 99 180
62 99 180
62 99 179
62 99 181
63 100 181
62 99 178
62 99 179
62 99 181
62 99 180
63 99 179
62 99 180
62 99 176
62 99 179
62 99 178
62 99 180
61 99 180
62 99 180
62 99 178
62 99 176
62 99 181
62 99 180
61 99 180
62 99 179
62 99 178
62 99 177
62 99 181
62 99 176
62 99 178
61 98 176
62 99 181
62 99 179
62 99 178
62 99 179
61 98 175
61 98 179
63 100 180
62 99 179
62 99 181
62 99 177
62 99 179
62 99 176
62 99 177
62 99 180
62 99 180
62 99 179
62 99 179
61 99 178
61 99 179
62 99 180
62 99 176
62 99 179
61 99 179
61 98 177
62 99 179
62 99 181
62 99 179
61 98 176
62 99 179
61 98 177
62 99 181
62 99 179
62 99 178
61 99 180
62 99 177
62 99 177
62 99 176
61 99 180
62 99 179
62 99 180
62 99 176
62 99 177
62 99 180
62 99 178
61 98 175
62 99 178
62 99 178
61 98 179
62 99 178
62 99 173
62 99 178
62 99 179
62 99 176
62 99 178
62 99 174
62 99 177
62 99 178
62 99 177
62 99 177
62 99 178
62 99 178
62 99 178
61 99 178
62 99 175
61 98 178
62 99 181
62 99 174
62 99 176
62 99 175
62 99 177
62 99 176
62 99 178
62 99 176
62 99 174
62 98 173
63 99 174
62 99 175
62 99 177
62 99 178
62 99 171
61 98 171
62 99 178
62 99 175
62 99 177
62 99 176
62 99 177
62 99 175
62 99 174
62 99 175
62 99 174
62 99 170
61 98 173
63 99 177
62 99 176
61 97 172
62 99 174
62 99 175
61 97 165
61 98 171
62 98 169
61 98 173
61 98 169
61 98 172
61 97 169
62 98 169
61 97 170
62 98 170
62 98 170
61 97 169
61 97 164
61 97 161
62 97 168
61 96 169
59 93 160
61 96 163
62 95 158
71 93 138
77 91 108
69 81 88
75 81 67
73 78 59
64 71 55
83 85 60
86 89 62
70 74 54
71 77 58
89 92 65
84 88 63
75 80 57
92 94 65
101 104 72
100 102 71
96 99 70
93 96 70
96 99 69
105 107 73
115 116 80
112 114 79
112 114 78
122 121 79
111 111 72
115 117 80
118 120 81
121 123 81
125 125 81
131 131 85
126 127 83
129 130 84
135 134 86
132 132 79
136 135 89
131 130 82
141 139 89
134 133 86
138 137 88
137 136 88
148 145 93
151 148 91
147 145 88
146 144 90
148 146 90
151 148 87
152 150 96
155 151 90
146 144 89
156 153 93
161 157 97
162 157 100
161 157 88
158 153 96
152 150 91
170 165 99
167 162 96
160 156 95
167 161 95
169 164 102
168 163 96
166 162 97
166 161 90
165 160 92
169 164 101
169 165 99
174 168 99
171 165 99
172 166 100
165 161 95
174 167 102
165 161 95
170 164 93
170 165 98
168 162 91
174 167 100
169 164 94
176 170 103
170 166 97
172 167 104
172 165 95
173 167 100
175 169 99
175 169 101
173 168 97
171 165 94
174 167 94
171 165 95
169 163 95
172 165 100
170 164 97
174 167 95
171 165 93
170 164 90
174 167 101
166 161 93
174 166 93
168 162 95
171 165 96
170 164 93
166 160 88
160 155 87
169 163 94
166 160 92
167 161 95
166 159 90
165 158 91
162 156 81
166 159 90
167 161 90
162 157 82
167 160 89
166 158 90
167 160 90
159 152 78
160 153 81
161 155 83
153 148 77
160 152 84
157 150 82
160 154 84
157 150 84
158 153 85
163 155 82
158 152 81
154 148 77
161 154 81
152 146 70
150 144 78
160 153 83
152 146 71
147 140 76
139 135 60
140 134 63
142 136 67
147 142 66
140 135 56
145 147 57
146 150 51
151 155 58
150 160 47
159 170 41
149 162 37
165 180 36
164 183 25
168 188 19
171 192 16
169 193 0
174 197 0
170 194 0
174 197 0
175 198 0
174 197 0
175 197 0
173 196 0
172 195 0
172 195 0
174 197 0
174 197 0
173 196 0
172 195 0
172 196 0
174 197 0
170 194 0
172 196 0
174 198 0
171 195 0
173 196 0
171 194 0
172 196 0
173 196 0
171 194 0
171 195 0
173 196 0
173 195 0
172 196 0
172 195 0
172 195 0
170 194 0
172 195 0
173 196 0
173 196 0
172 196 0
170 193 0
172 195 0
170 194 0
170 193 0
171 195 0
171 194 0
173 196 0
171 195 0
170 193 0
170 194 0
171 195 0
169 192 0
173 196 0
173 196 0
170 194 0
170 193 0
170 194 0
170 194 0
173 197 0
171 194 0
170 194 0
172 196 0
169 193 0
174 197 0
170 194 0
170 193 0
170 194 0
171 195 0
174 197 0
171 194 0
173 196 0
171 195 0
171 194 0
174 197 0
172 196 0
172 195 0
170 192 0
173 196 0
172 195 0
171 195 0
174 197 0
171 194 0
172 195 0
168 192 0
170 194 0
172 195 0
171 195 0
171 194 0
171 195 0
170 193 0
169 192 0
171 195 0
172 196 0
169 192 0
171 194 0
172 195 0
171 194 0
170 193 25
164 187 60
125 152 126
93 122 160
63 100 180
63 100 179
62 99 177
62 99 178
62 99 181
63 100 180
62 99 179
62 99 180
62 99 177
62 99 177
62 99 176
62 99 179
63 99 180
62 99 180
62 99 180
62 99 179
62 99 180
62 99 180
62 99 179
62 99 180
61 99 180
62 99 177
62 99 180
62 99 180
62 99 179
62 99 179
62 99 179
62 99 178
62 99 180
62 99 178
62 99 179
62 99 177
62 99 180
63 99 179
61 99 180
61 99 181
63 100 180
62 99 179
61 99 179
61 99 180
62 99 179
62 99 179
62 99 180
62 99 180
62 99 178
62 99 181
62 99 179
62 99 179
62 99 180
62 99 177
62 99 178
62 99 180
62 99 181
62 99 181
62 99 178
61 99 178
62 99 179
62 99 180
62 99 178
62 99 179
61 98 178
62 99 177
62 99 178
63 100 180
62 99 173
62 99 179
62 99 179
61 98 179
62 99 178
61 99 178
62 99 178
61 99 178
62 99 180
62 99 180
63 99 176
62 99 178
62 99 178
61 98 177
61 98 176
62 99 180
62 99 178
62 99 180
62 99 178
62 99 177
62 99 178
62 99 179
63 100 180
62 99 178
62 99 180
61 99 177
62 99 176
62 98 175
62 99 176
62 99 175
62 99 178
63 100 179
61 98 178
62 99 177
62 99 174
63 99 177
62 99 177
62 99 177
61 98 177
62 99 176
62 99 179
62 99 177
63 99 178
62 99 178
63 100 180
61 98 177
61 98 176
61 98 176
62 99 175
61 98 175
62 99 176
62 99 172
62 99 178
62 98 174
62 99 175
62 99 172
62 99 176
62 99 178
62 99 175
62 99 174
62 99 175
63 100 178
62 99 175
62 99 174
62 99 171
63 99 174
62 99 171
62 98 175
62 98 169
62 99 173
62 99 175
62 99 173
62 98 171
63 99 171
62 99 173
62 98 170
61 98 172
62 98 171
62 99 175
62 98 167
61 98 168
62 98 165
62 97 167
62 98 171
61 96 162
62 98 169
61 96 162
61 96 164
61 97 166
61 96 166
61 94 161
59 94 155
64 95 156
64 86 126
61 77 102
68 75 67
53 60 48
74 78 56
80 85 64
83 87 62
82 85 60
71 78 59
79 83 61
88 93 67
86 88 62
85 89 65
92 95 69
90 94 68
99 103 75
96 99 69
94 98 70
100 102 72
105 107 73
101 104 71
117 119 80
113 115 79
113 114 78
119 121 83
118 119 75
115 116 79
136 132 81
109 112 76
135 133 88
129 130 83
136 137 90
137 136 85
141 139 90
127 129 87
140 139 91
140 138 87
143 141 89
138 136 85
141 139 86
146 144 89
145 142 90
148 146 90
147 145 89
158 154 91
154 151 93
160 155 97
152 149 90
159 156 97
157 154 93
164 159 96
157 154 97
163 159 97
161 157 99
164 160 97
162 158 93
155 152 83
162 159 96
166 161 96
169 163 93
168 163 94
166 162 95
167 162 97
169 164 98
171 165 100
167 163 95
167 161 92
164 160 90
173 167 100
172 167 103
169 165 92
173 167 100
172 166 99
171 165 95
172 165 94
170 166 99
173 167 99
172 166 97
174 168 100
172 166 97
171 165 94
174 167 96
173 166 101
173 166 96
173 166 97
169 163 93
172 166 95
169 163 92
172 166 96
172 166 97
168 162 93
172 165 97
176 169 100
171 165 95
172 165 95
171 164 94
173 167 97
164 159 90
169 163 95
164 159 91
168 162 87
168 162 93
167 161 89
161 156 87
168 162 87
169 163 95
162 155 87
168 162 91
168 162 87
164 157 87
161 155 84
161 155 84
162 156 82
156 150 82
161 154 84
160 153 84
161 154 84
162 155 85
166 159 88
154 148 79
155 148 75
150 144 75
149 143 71
156 150 82
148 142 68
156 150 75
151 145 70
149 144 70
148 142 73
151 145 74
150 143 71
145 139 68
146 140 73
142 136 69
142 137 63
145 143 57
140 142 47
146 150 49
149 152 56
151 161 42
157 167 45
161 175 37
162 178 30
166 184 30
166 184 25
167 188 19
172 192 16
173 196 0
173 196 0
174 196 0
173 196 0
170 193 0
171 195 0
173 196 0
173 196 0
172 195 0
166 189 0
172 196 0
174 197 0
174 197 0
170 194 0
171 194 0
172 195 0
174 197 0
172 196 0
171 195 0
170 193 0
173 196 0
171 195 0
171 194 0
171 195 0
171 195 0
170 194 0
171 194 0
174 197 0
173 196 0
172 195 0
172 196 0
171 194 0
172 195 0
172 195 0
173 197 0
174 197 0
171 195 0
169 193 0
172 194 0
170 193 0
171 195 0
171 194 0
172 196 0
171 194 0
170 193 0
171 195 0
172 195 0
171 195 0
174 197 0
170 194 0
173 196 0
174 197 0
171 194 0
172 195 0
172 195 0
173 196 0
173 197 0
174 197 0
170 193 0
175 198 0
166 189 0
168 191 0
172 196 0
170 192 0
171 195 0
170 194 0
170 194 0
171 194 0
172 196 0
171 194 0
169 193 0
173 196 0
173 196 0
173 196 0
171 194 0
169 193 0
170 194 0
171 195 0
170 193 0
169 192 0
171 194 0
170 194 0
173 197 0
172 195 0
171 194 0
168 191 0
174 195 0
168 191 0
168 191 0
168 192 0
171 195 0
169 192 0
166 189 40
156 179 84
110 138 148
67 103 176
63 100 180
62 99 180
62 99 181
63 100 178
63 100 181
62 99 180
63 100 181
63 100 180
63 100 177
62 99 178
62 99 178
62 99 179
61 99 178
62 99 179
62 99 180
61 98 177
62 99 180
62 99 174
62 99 179
63 100 179
61 99 178
61 98 177
62 99 179
62 99 180
62 99 180
62 99 180
62 99 179
62 99 180
62 99 179
62 99 178
63 100 178
62 99 180
62 99 179
62 99 177
61 99 180
62 99 178
62 99 178
61 98 180
62 99 179
62 99 179
63 99 180
61 98 177
62 99 178
61 98 176
62 99 180
62 99 180
61 98 177
62 99 179
62 100 181
62 99 179
62 99 179
61 99 180
62 99 178
62 99 180
62 99 180
62 99 180
62 99 178
62 99 178
61 98 178
62 99 179
62 99 179
62 99 179
62 99 178
63 99 178
61 98 178
63 99 179
62 99 180
62 99 181
62 99 178
62 99 178
62 99 180
63 99 179
63 100 180
62 99 179
62 99 176
63 100 177
62 99 178
62 99 178
62 99 179
62 99 177
60 98 176
62 99 180
62 99 179
61 99 178
62 99 177
62 99 175
61 98 174
62 99 179
61 98 170
62 99 180
62 99 178
61 99 178
62 99 177
63 100 178
62 99 177
62 99 175
63 99 178
63 99 176
62 99 177
62 99 178
62 99 177
62 99 176
62 99 178
63 99 176
62 99 177
62 99 178
63 99 177
61 98 174
62 99 176
62 99 176
62 99 178
62 99 172
62 99 174
63 99 177
62 99 178
62 99 172
62 98 172
62 99 174
62 99 175
63 100 178
62 99 176
62 99 175
62 98 168
63 99 178
62 99 176
62 99 173
62 99 176
62 99 176
62 99 175
62 99 177
62 98 175
62 98 168
61 97 172
62 99 174
63 99 173
62 98 172
62 99 171
61 98 170
62 99 172
62 98 173
62 98 174
61 98 169
61 96 163
61 98 169
61 97 166
62 98 165
60 96 168
61 96 160
62 98 168
61 97 165
62 98 167
62 98 169
61 97 166
61 96 163
61 95 156
59 93 154
59 93 155
61 87 131
69 85 112
67 79 90
63 69 56
80 82 56
68 73 55
73 77 56
80 83 58
86 90 66
85 88 63
92 95 67
89 93 66
82 86 61
76 82 61
85 90 65
97 99 68
107 109 74
92 97 69
111 113 76
87 92 66
106 107 71
112 113 73
97 100 67
103 107 73
118 119 81
119 119 79
125 125 82
111 113 79
117 119 81
133 132 87
131 131 81
139 137 85
138 136 86
134 133 89
133 133 89
137 137 90
139 137 86
137 135 82
137 135 86
141 139 88
144 142 90
149 147 88
145 143 87
141 140 85
155 152 94
150 148 94
154 151 87
157 153 95
152 150 92
165 160 100
159 155 92
158 155 94
163 159 97
161 157 89
162 157 95
164 159 98
163 159 98
158 154 94
165 160 97
166 160 97
164 160 98
159 156 89
166 161 90
169 164 94
171 166 96
166 162 99
170 165 99
172 165 95
167 161 97
172 166 101
171 165 97
172 167 97
175 168 97
172 166 95
167 162 92
164 159 86
167 162 89
176 169 100
174 167 99
175 168 98
170 165 93
172 165 97
172 166 96
172 166 97
174 167 93
169 164 93
174 167 98
174 167 97
170 164 90
171 165 95
170 164 94
169 163 97
169 163 94
172 165 96
171 165 90
171 165 97
164 159 87
171 165 92
171 165 93
166 160 89
172 164 93
161 155 85
168 162 87
167 160 93
168 162 90
165 159 88
169 161 90
165 159 87
166 159 88
160 155 83
162 157 90
157 151 82
161 154 83
166 161 93
161 155 80
158 152 84
165 159 92
157 152 84
163 157 84
155 150 75
161 155 80
158 152 84
156 150 80
163 156 84
158 151 81
152 147 71
154 148 75
151 145 73
147 141 70
142 137 68
155 148 75
147 143 69
145 139 63
136 130 61
141 137 69
134 134 48
149 148 64
150 154 56
154 159 59
149 160 32
163 175 39
159 171 36
153 168 42
163 182 19
170 190 22
167 187 22
169 190 16
171 194 0
172 196 0
173 196 0
174 197 0
173 196 0
172 195 0
174 197 0
174 197 0
174 197 0
171 195 0
174 197 0
172 195 0
173 196 0
172 195 0
173 196 0
172 195 0
172 196 0
169 192 0
171 195 0
174 197 0
171 195 0
173 196 0
173 196 0
171 194 0
170 194 0
174 197 0
171 195 0
172 196 0
172 196 0
173 196 0
175 197 0
172 196 0
174 197 0
172 196 0
173 197 0
169 193 0
174 198 0
173 196 0
172 195 0
174 197 0
172 195 0
173 197 0
170 193 0
171 194 0
172 196 0
173 196 0
173 196 0
169 193 0
169 193 0
172 195 0
172 196 0
171 195 0
171 195 0
172 195 0
172 195 0
172 195 0
171 194 0
171 193 0
173 196 0
171 195 0
170 192 0
174 198 0
169 193 0
172 194 0
167 190 0
169 193 0
172 196 0
170 193 0
169 192 0
169 192 0
171 194 0
170 193 0
171 195 0
173 196 0
171 194 0
168 192 0
168 192 0
170 193 0
169 192 0
169 193 0
170 193 0
172 195 0
170 194 0
169 191 0
171 195 0
169 191 0
167 191 0
171 194 0
172 193 0
172 195 0
172 196 0
171 195 0
162 186 65
132 158 121
85 116 167
62 99 180
63 100 181
62 99 180
62 99 180
63 100 178
62 99 176
62 99 178
63 100 180
62 99 179
62 99 179
62 99 181
61 98 178
61 99 179
62 99 179
62 99 179
62 99 179
62 99 177
62 99 179
62 99 181
62 99 176
62 99 180
62 99 180
61 99 179
62 99 179
62 99 180
62 99 179
63 100 181
62 99 177
62 99 180
62 99 179
62 99 180
62 99 178
61 98 176
62 99 177
62 99 180
62 99 179
63 99 179
62 99 180
62 99 177
62 99 179
62 99 179
62 99 176
62 99 181
62 99 178
62 99 180
62 99 181
62 99 178
61 99 179
61 98 174
62 99 180
62 99 179
62 99 181
62 99 179
62 99 179
62 99 177
61 98 179
63 100 180
62 99 179
62 99 179
62 99 178
62 99 177
62 99 180
62 99 180
62 99 176
62 99 179
62 99 179
63 100 179
62 99 177
62 99 178
62 99 175
63 100 179
62 99 178
63 100 181
62 99 177
62 99 178
61 98 177
63 99 178
62 99 177
62 99 175
62 99 179
63 100 181
62 99 178
62 99 175
62 99 178
62 99 177
62 99 180
62 99 181
62 99 177
62 99 176
62 99 175
62 99 179
62 99 174
63 100 176
63 100 180
62 99 173
62 99 175
62 99 176
62 99 178
62 99 177
61 99 177
62 99 177
62 99 173
61 98 177
62 99 176
62 99 175
62 99 175
62 99 177
62 99 177
62 99 179
62 99 175
62 99 173
62 98 169
62 99 175
62 99 178
61 98 172
62 99 176
62 99 176
63 99 177
62 99 173
62 98 173
61 98 172
62 99 175
62 98 173
62 98 175
62 99 175
62 99 176
62 98 173
62 99 173
62 99 171
62 98 170
63 100 174
62 99 172
62 98 172
62 99 175
62 99 176
62 99 171
63 99 178
62 99 173
62 98 172
62 98 172
62 99 175
62 98 169
63 99 175
61 97 166
62 99 172
61 97 167
62 98 170
62 98 169
61 97 168
62 97 162
61 97 165
61 97 166
61 97 162
60 95 160
60 94 159
61 96 165
60 94 161
60 94 159
60 89 139
66 86 121
65 80 96
64 72 67
68 72 51
69 73 51
84 86 60
76 81 60
88 89 61
67 72 53
75 80 57
82 85 59
88 93 66
83 87 60
90 93 64
97 101 73
91 95 69
92 97 71
99 101 68
101 104 67
111 112 77
104 106 70
108 110 72
110 112 78
107 109 75
120 121 83
116 118 76
113 115 77
129 130 86
124 125 83
128 128 82
134 133 84
143 141 85
129 128 83
127 127 81
131 131 83
133 132 84
142 140 92
154 150 89
151 147 88
146 144 92
150 148 92
148 146 90
141 140 82
154 150 89
155 151 94
150 147 86
149 148 86
151 148 91
151 149 85
150 148 88
163 159 94
154 150 90
159 155 91
163 158 98
160 156 93
163 159 100
166 161 91
164 159 94
164 160 96
161 157 92
169 163 97
164 159 92
173 167 97
167 161 89
169 163 95
171 166 97
168 163 94
163 158 90
172 166 97
167 162 92
173 167 97
172 166 99
167 162 90
175 168 101
173 166 102
171 165 93
173 167 102
173 167 95
172 166 96
168 163 95
168 163 94
170 164 92
172 166 90
170 164 91
172 165 95
173 167 94
169 163 85
168 162 87
168 162 88
171 165 93
173 167 97
174 167 97
170 164 92
174 168 95
169 162 89
169 163 92
166 161 88
169 162 93
166 160 87
170 163 93
173 165 92
160 154 87
168 161 93
169 162 87
164 158 88
172 165 93
164 158 87
170 163 93
166 160 87
162 155 84
164 158 84
160 154 81
159 152 80
163 156 82
158 152 75
161 155 77
164 158 84
154 147 76
152 147 74
151 145 74
149 144 69
163 157 86
159 151 82
153 146 80
148 143 72
154 147 72
137 132 62
142 136 64
147 141 65
149 143 69
141 136 64
144 138 75
142 136 66
135 133 58
152 152 57
146 147 61
156 161 51
147 155 45
149 156 45
156 167 42
154 170 19
162 177 37
161 178 28
166 186 16
167 187 19
170 190 11
173 196 0
171 195 0
174 198 0
175 198 0
174 197 0
173 197 0
170 194 0
172 196 0
172 196 0
171 195 0
173 197 0
171 195 0
172 196 0
173 196 0
169 192 0
172 196 0
173 196 0
174 197 0
172 196 0
173 196 0
171 194 0
172 195 0
170 193 0
175 198 0
170 194 0
171 194 0
171 194 0
172 195 0
170 194 0
170 193 0
172 195 0
175 198 0
170 194 0
173 196 0
173 195 0
173 196 0
172 196 0
173 196 0
174 197 0
171 195 0
171 195 0
169 192 0
172 195 0
170 193 0
173 196 0
171 194 0
174 195 0
172 195 0
171 195 0
173 197 0
173 196 0
169 193 0
169 193 0
170 194 0
170 193 0
171 195 0
171 195 0
172 195 0
170 193 0
171 195 0
170 193 0
171 195 0
167 191 0
171 194 0
172 196 0
172 195 0
171 195 0
172 195 0
174 197 0
172 196 0
172 196 0
172 195 0
174 196 0
169 192 0
171 194 0
172 195 0
171 194 0
172 196 0
173 195 0
173 196 0
172 195 0
168 191 0
172 195 0
170 193 0
170 193 0
165 188 0
171 194 0
170 193 0
172 196 0
167 190 0
171 194 0
165 189 47
142 166 107
118 145 135
73 107 175
63 100 181
62 99 178
62 99 180
62 99 181
62 99 177
63 99 179
62 99 177
63 100 181
62 99 177
62 99 176
62 99 180
63 100 179
62 99 180
62 99 177
62 99 179
61 98 178
61 98 178
62 99 179
63 100 178
62 99 179
62 99 178
62 99 179
61 99 178
62 99 180
62 99 179
61 99 179
62 99 177
61 98 178
62 99 179
62 99 179
62 99 179
62 99 178
62 99 179
62 99 181
62 99 180
62 99 178
62 99 178
61 99 179
62 99 179
61 99 179
62 99 179
62 99 181
62 99 176
62 99 177
62 99 176
62 99 178
62 99 180
62 99 179
62 99 178
62 99 177
62 99 181
62 99 179
62 99 176
61 99 178
62 99 178
62 99 177
62 99 180
62 99 177
62 99 178
62 99 179
62 99 180
62 99 180
61 98 175
62 99 179
62 99 179
62 99 179
62 99 176
62 99 174
62 99 177
62 99 180
61 98 177
62 99 179
62 99 176
63 99 177
62 99 177
62 99 177
63 99 179
61 98 175
62 99 177
62 99 174
62 99 178
62 99 180
62 99 177
62 99 181
63 100 180
62 99 176
62 99 179
62 99 179
62 99 174
61 99 178
62 99 175
62 99 177
62 99 178
62 99 173
62 99 178
62 99 176
63 99 177
63 99 177
63 100 178
62 99 179
62 99 177
62 99 176
62 99 174
61 98 174
62 99 178
62 99 178
61 98 174
63 100 177
62 99 172
62 99 177
63 100 180
62 99 172
62 98 171
62 99 178
62 98 168
62 99 175
63 99 175
62 98 175
63 99 174
62 99 174
62 98 172
62 99 174
61 98 173
63 100 177
63 100 176
62 99 172
62 98 174
61 98 171
62 99 175
61 98 175
62 98 172
62 99 177
62 98 174
61 97 167
62 98 169
61 98 170
62 98 173
62 99 176
63 99 177
63 99 170
62 98 170
61 98 174
61 98 169
61 97 164
61 97 169
62 98 170
62 98 172
62 99 174
61 97 167
61 97 163
61 97 165
61 96 163
62 98 169
61 97 167
61 96 165
60 96 163
60 95 164
60 93 154
59 93 150
61 89 137
66 82 101
77 86 86
74 79 65
62 68 50
75 79 57
68 73 55
70 75 57
71 75 56
79 85 64
70 74 51
77 82 60
82 87 62
80 84 61
83 87 61
91 95 67
91 94 65
98 101 69
104 106 70
109 110 72
105 107 71
112 114 71
119 120 77
111 112 76
112 115 76
114 115 76
128 126 81
125 126 84
127 127 81
129 129 84
129 128 82
136 135 89
133 132 84
134 133 86
134 133 86
147 144 88
142 139 82
130 130 80
145 142 88
150 147 92
152 148 95
156 152 95
150 147 90
146 144 87
143 141 90
155 152 94
160 155 93
154 150 89
157 153 95
152 149 91
164 160 95
162 157 95
161 156 91
161 156 91
157 154 91
160 157 90
155 152 90
156 152 85
165 160 95
166 161 87
164 158 93
166 161 98
170 164 97
168 163 96
170 165 97
165 161 93
175 168 100
163 159 89
171 165 99
168 163 94
174 168 97
169 163 91
174 168 97
174 167 95
173 167 96
172 166 96
170 163 93
172 166 92
173 167 94
169 163 88
171 165 93
172 165 90
171 165 97
170 163 89
173 167 95
169 163 93
173 167 97
168 163 87
169 162 88
170 164 94
170 164 96
169 163 95
170 164 95
173 166 95
171 164 91
172 165 92
170 165 89
170 164 96
168 161 90
168 161 87
163 157 85
166 159 88
163 157 87
166 160 85
162 156 81
163 156 84
168 161 85
159 153 86
162 156 86
162 156 88
165 158 89
166 160 87
159 153 84
159 153 86
163 156 85
166 159 86
155 149 81
155 149 79
152 146 79
167 160 87
152 145 71
152 148 74
149 144 77
155 149 74
142 137 64
141 135 67
148 142 70
155 148 75
135 130 63
149 143 74
139 134 64
136 132 59
140 135 63
143 139 64
144 143 58
149 151 58
144 149 47
153 159 49
146 157 28
156 169 34
159 173 42
164 179 37
160 178 28
169 189 16
167 187 19
168 191 11
173 197 0
171 194 0
174 197 0
174 196 0
171 194 0
173 196 0
171 194 0
173 196 0
172 195 0
171 195 0
174 197 0
172 195 0
170 194 0
173 196 0
171 195 0
172 195 0
171 195 0
174 197 0
174 197 0
172 196 0
171 195 0
173 196 0
171 195 0
172 196 0
171 195 0
172 196 0
173 195 0
172 195 0
174 197 0
172 195 0
173 197 0
173 197 0
170 194 0
173 196 0
171 194 0
169 193 0
171 195 0
172 196 0
173 196 0
172 196 0
171 195 0
173 196 0
171 194 0
172 196 0
170 194 0
171 194 0
173 197 0
173 196 0
172 195 0
174 197 0
172 196 0
168 193 0
170 193 0
168 191 0
171 195 0
169 193 0
173 196 0
170 193 0
172 196 0
172 195 0
172 195 0
172 195 0
170 193 0
169 193 0
170 194 0
170 193 0
172 196 0
170 194 0
167 190 0
171 195 0
171 195 0
170 194 0
169 193 0
173 197 0
174 197 0
172 195 0
172 195 0
172 196 0
171 194 0
170 193 0
172 194 0
169 193 0
172 195 0
171 194 0
171 193 0
170 193 0
172 195 0
171 195 0
170 193 0
165 189 0
171 193 18
162 185 60
137 162 118
84 115 162
62 99 178
63 100 178
63 100 178
62 99 176
63 100 180
62 99 178
62 99 180
62 99 180
63 100 181
62 99 180
62 99 178
62 99 178
62 99 179
62 99 180
61 99 178
62 99 180
62 99 179
62 99 180
62 99 181
62 99 177
62 99 178
61 99 178
62 99 178
62 99 181
62 99 178
62 99 180
62 99 180
62 99 179
61 98 178
62 99 180
62 99 179
62 99 177
61 98 179
62 99 179
62 99 178
62 99 176
62 99 179
62 99 179
62 99 180
62 99 179
62 99 179
62 99 179
62 99 181
62 99 178
62 99 178
63 100 181
62 99 180
62 99 178
62 99 178
63 99 178
62 99 178
61 99 179
62 99 179
62 99 180
63 100 181
62 99 176
62 98 177
62 99 178
62 99 178
62 99 181
62 99 175
62 99 180
62 99 178
62 99 178
62 99 178
62 99 181
62 99 178
61 98 178
62 98 174
63 100 178
63 99 178
62 99 177
62 99 177
62 99 180
62 99 179
62 99 177
62 99 177
61 98 176
62 99 177
62 99 176
62 99 176
62 99 174
62 99 178
62 99 177
62 99 178
62 99 174
62 99 177
62 99 178
63 99 178
61 98 172
62 99 176
62 99 179
62 99 178
62 99 175
61 98 173
62 99 175
63 100 177
62 99 174
62 99 176
62 98 175
62 99 173
62 99 175
62 98 169
62 99 173
62 99 173
62 99 179
62 99 173
62 99 177
62 99 176
63 100 179
62 99 179
62 99 178
61 98 170
62 98 173
62 99 172
61 98 176
62 99 174
62 99 175
62 99 173
62 99 178
63 99 174
62 99 178
61 98 170
62 99 174
62 99 174
63 99 176
63 99 174
62 99 173
62 99 170
62 99 175
62 99 177
62 99 170
62 99 179
62 99 170
62 99 176
62 98 171
62 98 166
62 98 168
62 99 177
62 99 170
62 98 170
61 97 166
62 97 166
62 98 173
61 97 169
62 98 168
63 99 174
62 98 169
61 97 168
61 96 157
62 98 169
61 97 161
61 96 163
61 97 165
62 97 166
61 97 166
61 96 163
60 94 154
60 94 158
59 94 156
64 91 142
61 84 122
58 76 99
58 63 49
61 66 49
54 61 49
71 74 55
74 78 55
75 78 56
66 73 53
74 79 57
83 88 60
75 81 58
89 93 63
85 89 66
85 88 62
97 100 71
100 103 67
106 107 70
96 99 66
102 104 71
112 113 74
100 104 71
113 114 76
109 113 78
118 118 75
120 120 79
113 114 75
127 126 79
117 119 78
136 134 85
129 129 82
134 134 83
145 143 88
135 133 82
124 124 80
144 142 88
146 143 89
144 143 90
141 138 87
135 134 83
143 141 86
146 143 86
142 140 85
154 150 88
159 154 91
155 151 94
156 151 93
146 143 83
155 151 90
153 150 88
152 149 91
159 155 94
156 152 92
163 158 94
160 156 93
161 157 93
169 163 97
165 160 94
154 151 86
168 163 93
162 158 91
163 159 90
163 158 91
164 159 90
165 161 92
169 163 97
164 160 87
168 163 95
169 164 95
169 163 95
171 166 96
169 164 92
166 161 89
168 163 90
170 165 96
175 167 96
169 163 90
174 167 93
165 159 86
169 163 90
170 163 86
168 163 88
170 164 92
170 163 89
173 166 94
174 168 94
172 166 90
168 163 90
166 160 84
174 166 97
173 167 95
170 163 93
169 163 90
167 161 90
165 159 86
169 162 91
167 162 86
168 161 87
164 159 80
167 161 89
169 162 88
162 156 88
166 161 92
166 160 84
162 157 85
162 156 82
167 161 87
160 155 80
159 153 81
159 153 81
157 151 80
161 155 76
159 152 84
162 155 84
162 155 87
153 147 73
155 149 77
153 147 79
157 152 75
157 151 78
157 151 80
153 146 81
153 147 74
152 146 76
153 147 73
145 140 67
153 146 75
151 145 69
141 136 66
150 144 69
140 134 63
152 146 75
144 141 65
148 144 62
151 155 52
148 156 45
157 165 49
159 169 51
157 172 28
162 178 30
158 175 19
166 184 25
168 187 19
169 191 11
170 193 0
173 196 0
175 197 0
171 194 0
174 197 0
174 197 0
172 195 0
171 195 0
171 195 0
172 196 0
174 197 0
171 195 0
172 196 0
173 197 0
175 198 0
171 194 0
172 195 0
173 196 0
171 195 0
172 195 0
175 198 0
171 195 0
175 197 0
170 194 0
172 195 0
170 193 0
169 193 0
170 195 0
171 194 0
173 196 0
171 194 0
168 191 0
173 195 0
174 196 0
170 194 0
171 194 0
174 197 0
172 196 0
172 196 0
171 195 0
171 194 0
173 196 0
174 197 0
172 196 0
171 196 0
170 194 0
170 193 0
170 194 0
173 197 0
169 193 0
171 195 0
172 195 0
172 196 0
169 192 0
171 195 0
172 195 0
169 193 0
171 196 0
171 195 0
169 193 0
170 193 0
171 195 0
166 190 0
172 194 0
174 197 0
168 192 0
169 192 0
171 193 0
171 195 0
171 194 0
171 194 0
169 193 0
172 195 0
168 192 0
170 193 0
171 195 0
168 192 0
170 194 0
172 195 0
173 197 0
170 192 0
171 193 0
170 193 0
170 194 0
171 194 0
168 191 0
170 193 0
168 191 0
167 190 0
172 195 0
171 194 0
168 191 44
150 173 94
116 142 140
72 107 172
63 100 178
62 99 178
62 99 179
63 100 181
62 99 176
63 99 176
62 99 176
63 99 178
62 99 176
62 99 178
62 99 180
62 99 180
62 99 178
62 99 181
63 99 178
62 99 179
61 98 177
62 99 179
62 99 180
62 99 178
62 99 179
62 99 177
62 99 178
62 99 179
62 99 176
62 99 180
62 99 181
62 99 177
62 99 179
61 98 180
62 99 180
61 98 176
62 99 178
62 99 177
62 99 179
62 99 179
62 99 178
62 99 179
62 99 181
62 99 179
62 99 180
62 99 178
62 99 178
63 99 177
62 99 178
62 99 180
61 98 180
63 100 181
62 99 175
62 99 180
62 99 180
62 99 179
62 99 177
62 99 178
62 99 180
62 99 179
62 99 176
62 99 177
62 98 174
62 99 179
62 99 178
62 99 180
62 99 180
61 98 177
62 99 178
62 99 178
62 99 178
62 99 176
62 99 177
63 99 179
62 99 177
62 99 174
62 99 177
62 99 179
62 99 176
62 99 173
62 99 173
62 99 179
61 98 173
63 100 180
62 98 173
62 99 177
62 98 174
62 99 177
62 99 176
62 99 178
62 99 176
62 99 180
62 99 175
62 99 177
62 99 178
61 98 175
62 99 179
62 99 175
62 99 179
61 98 174
62 99 178
62 99 179
61 98 173
62 99 176
62 99 175
62 99 177
62 99 174
62 99 176
62 99 175
62 99 178
62 99 177
63 99 177
63 100 179
62 99 173
62 99 176
62 99 176
62 99 178
62 99 177
62 99 179
62 99 176
62 99 175
62 99 173
61 98 167
62 99 171
62 98 171
62 99 179
62 99 171
62 99 177
62 99 173
62 99 169
61 98 173
61 98 176
62 99 175
62 98 169
61 98 166
62 99 169
61 98 175
62 99 173
62 99 174
62 99 172
62 99 173
62 98 171
62 99 170
62 99 176
62 98 167
62 99 174
62 98 174
61 97 164
62 97 168
62 98 165
62 99 172
62 98 171
61 97 164
61 97 161
61 96 165
61 96 161
61 96 166
61 97 165
62 98 170
60 96 171
61 96 164
61 96 162
61 96 162
60 93 147
63 94 151
66 90 133
57 77 109
65 72 65
59 67 56
64 67 48
55 63 49
64 68 45
69 74 53
70 76 57
73 77 57
71 77 55
84 89 62
74 79 55
82 87 63
92 95 65
88 93 66
92 95 67
93 95 63
103 106 72
104 106 70
94 97 63
106 107 69
116 117 73
108 110 70
108 110 73
113 114 72
108 110 72
129 129 83
125 125 80
120 120 77
130 130 80
130 130 76
133 132 82
133 134 84
134 134 82
145 142 89
145 143 86
138 136 86
145 142 87
144 142 84
136 134 79
139 138 86
154 150 90
147 143 86
154 150 90
154 150 83
149 146 90
163 158 95
152 149 87
162 157 95
161 156 92
154 150 92
160 157 88
162 158 90
162 158 95
165 160 90
167 161 94
159 155 88
164 159 93
165 159 92
165 160 92
167 162 94
160 155 86
168 162 94
166 160 89
165 160 86
168 163 96
171 164 92
169 164 95
170 164 88
176 167 96
167 161 88
172 164 94
167 161 89
167 161 89
163 158 82
173 167 93
170 163 91
175 168 95
173 166 94
175 168 97
174 167 96
170 164 89
173 166 97
171 165 96
169 162 92
168 163 90
171 164 93
168 162 95
170 163 90
167 160 87
173 166 93
166 160 87
165 159 82
167 161 88
167 161 92
169 162 92
172 165 91
166 160 87
163 157 84
162 156 85
168 162 82
171 164 90
167 160 88
162 155 80
167 161 88
161 156 80
168 161 87
161 154 84
158 152 77
162 155 80
163 156 80
155 148 79
161 154 84
150 144 74
162 155 78
159 153 76
152 146 75
154 148 75
153 149 71
154 148 73
150 145 69
151 145 76
148 142 73
157 150 79
147 142 68
153 147 72
140 135 65
141 135 68
140 134 63
145 138 68
142 137 66
142 139 59
139 139 54
142 145 52
146 149 57
149 156 42
160 170 47
154 165 42
160 174 36
156 174 22
162 181 19
165 184 16
169 189 19
170 191 11
172 195 0
173 197 0
172 196 0
174 198 0
171 195 0
173 196 0
172 196 0
172 196 0
174 198 0
170 194 0
174 197 0
170 193 0
173 196 0
171 194 0
173 196 0
171 194 0
171 195 0
170 193 0
171 194 0
171 195 0
173 197 0
173 196 0
172 196 0
170 193 0
172 195 0
172 195 0
174 196 0
170 192 0
170 193 0
171 196 0
169 193 0
171 194 0
170 194 0
174 197 0
172 195 0
174 197 0
173 196 0
171 194 0
172 195 0
170 193 0
169 192 0
172 196 0
171 194 0
172 195 0
172 195 0
172 195 0
169 193 0
170 194 0
170 193 0
171 194 0
173 196 0
172 195 0
170 193 0
170 194 0
173 195 0
173 197 0
170 193 0
172 195 0
168 191 0
171 195 0
170 193 0
174 197 0
172 195 0
168 192 0
173 197 0
169 192 0
172 195 0
169 192 0
172 195 0
170 194 0
173 195 0
171 195 0
172 195 0
172 196 0
171 194 0
171 194 0
172 195 0
172 195 0
171 194 0
171 194 0
170 192 0
173 195 0
173 195 0
166 190 0
171 194 0
168 190 0
171 194 0
171 194 0
166 190 0
170 193 0
163 187 57
142 167 105
91 121 158
63 100 179
63 100 179
63 100 178
63 99 175
62 99 178
63 100 179
62 99 180
62 99 179
62 99 176
63 100 177
62 99 180
62 99 177
62 99 175
62 99 178
62 99 179
62 99 181
62 98 175
62 99 178
62 99 178
62 99 178
62 99 180
62 99 177
62 99 178
62 99 181
62 99 179
62 99 177
62 99 178
62 99 179
62 99 178
62 99 179
62 99 180
62 99 180
62 99 178
62 99 179
62 99 179
62 99 175
62 99 178
62 99 178
62 99 177
62 99 179
61 99 179
62 99 178
63 100 179
62 99 178
62 99 177
62 99 180
62 99 177
62 99 179
62 99 180
62 99 177
62 99 175
62 99 181
61 98 177
62 99 179
62 99 177
62 99 175
62 99 179
61 98 176
63 100 179
62 99 178
62 99 178
62 99 178
62 99 171
62 99 180
62 99 178
62 99 176
62 99 176
62 99 178
62 99 174
62 99 177
61 98 178
62 99 179
62 99 178
62 98 174
62 99 174
61 98 177
62 99 179
62 99 178
62 99 176
62 99 176
61 98 174
62 99 178
62 99 176
62 99 177
62 99 179
62 99 177
62 99 177
62 99 176
62 99 176
62 99 177
61 98 176
62 99 178
62 99 180
62 99 178
62 98 171
62 99 179
62 99 178
62 99 175
62 99 177
62 99 176
63 100 179
62 99 173
62 99 178
62 99 176
62 99 177
62 99 177
61 98 173
62 99 177
62 99 175
63 99 178
62 99 170
63 99 173
62 99 179
62 99 175
63 100 180
62 98 166
62 99 179
63 99 175
62 99 177
62 98 171
62 98 173
62 98 173
62 99 175
62 99 174
62 98 171
62 98 171
63 99 177
62 99 173
62 98 172
62 99 171
62 99 173
62 99 174
61 98 173
63 100 176
61 98 170
61 98 172
62 98 170
62 98 169
62 98 169
62 99 172
62 98 171
62 99 175
62 99 174
61 98 169
62 98 171
62 98 167
62 99 173
62 99 171
62 98 169
61 97 167
62 98 170
62 97 166
61 97 167
60 96 164
61 97 166
62 98 169
60 95 162
59 94 157
62 97 165
59 92 155
60 94 160
61 96 160
60 88 139
64 85 126
62 77 97
65 72 70
65 69 49
65 69 46
76 80 55
74 77 55
73 78 57
73 78 56
60 67 52
82 86 62
71 76 56
92 94 57
86 91 63
81 86 59
91 94 62
91 97 71
111 112 73
102 105 70
112 112 71
93 96 67
118 119 80
111 114 72
112 114 74
107 110 71
111 112 75
129 129 80
124 125 77
136 134 79
121 121 74
120 121 77
137 136 82
127 127 84
126 126 80
137 136 86
141 139 90
142 139 84
145 142 86
144 142 86
140 138 82
148 146 87
148 144 87
145 142 84
152 148 87
156 151 86
146 142 80
159 156 92
157 153 89
153 149 88
152 149 85
156 152 86
152 148 90
159 155 91
161 156 88
164 159 93
159 155 89
168 163 96
163 157 89
169 163 93
164 159 88
166 161 96
165 160 90
166 161 96
167 161 93
170 164 97
171 165 92
169 163 93
172 165 93
172 165 94
174 166 94
171 165 97
170 163 92
171 166 89
170 164 96
170 164 90
171 165 93
165 160 90
169 163 90
169 164 94
168 163 95
168 162 90
171 166 88
169 162 93
166 159 83
172 165 91
170 163 92
164 159 85
168 161 87
165 159 88
170 164 90
162 157 81
169 163 84
170 164 87
167 162 89
173 166 92
166 160 87
167 161 90
162 156 87
167 160 91
163 157 84
163 156 83
167 160 86
168 162 89
162 156 84
169 162 93
162 156 84
163 156 84
164 158 84
163 155 78
163 156 87
156 150 75
161 154 83
157 150 75
158 151 78
158 152 77
159 153 80
160 153 81
153 147 74
155 149 77
154 147 68
155 148 76
151 144 75
144 139 64
157 151 73
150 144 71
137 130 63
142 136 72
144 138 68
143 137 63
135 129 63
138 134 57
151 150 63
137 138 53
143 145 49
141 146 41
157 166 44
149 159 39
157 169 34
158 169 37
164 182 25
162 181 22
169 192 0
167 187 0
169 191 0
173 197 0
172 195 0
174 197 0
170 193 0
171 195 0
173 196 0
173 197 0
173 197 0
172 195 0
174 197 0
173 196 0
172 196 0
169 193 0
171 195 0
174 198 0
173 197 0
173 196 0
169 192 0
174 196 0
171 195 0
172 195 0
172 196 0
172 195 0
173 196 0
172 195 0
171 195 0
174 198 0
174 197 0
173 196 0
173 197 0
171 194 0
173 195 0
173 197 0
172 195 0
170 194 0
173 196 0
172 196 0
173 196 0
172 196 0
171 195 0
171 194 0
171 195 0
170 194 0
171 195 0
169 192 0
173 196 0
172 195 0
168 191 0
172 195 0
170 194 0
171 195 0
172 195 0
171 193 0
170 193 0
172 195 0
169 193 0
172 196 0
172 196 0
170 193 0
172 195 0
170 193 0
172 196 0
169 192 0
171 195 0
170 193 0
173 197 0
171 194 0
169 192 0
170 193 0
172 195 0
169 193 0
172 195 0
172 195 0
170 193 0
170 193 0
170 192 0
169 193 0
169 193 0
171 195 0
171 193 0
171 193 0
170 193 0
168 191 0
174 197 0
171 194 0
171 194 0
172 196 0
167 191 0
172 196 0
169 192 18
155 178 72
128 154 126
68 103 171
62 99 178
63 100 179
63 100 181
62 99 177
63 100 181
63 99 180
62 99 180
62 99 178
62 99 180
63 100 179
62 99 181
62 99 178
61 98 176
62 99 181
63 99 177
62 99 178
62 99 177
61 98 179
62 99 179
62 99 178
62 99 176
62 99 177
62 99 179
62 99 180
62 99 179
62 99 178
61 98 176
62 99 179
62 99 179
62 99 178
61 99 179
62 99 179
62 99 179
61 98 175
62 99 180
62 99 178
62 99 177
62 99 177
63 100 178
62 99 179
62 99 181
61 98 176
62 99 176
62 99 179
62 99 175
62 99 176
62 99 179
62 99 180
62 99 177
62 99 178
62 99 180
61 99 179
62 99 178
61 98 175
62 99 176
62 99 178
62 99 177
62 99 179
62 99 176
62 99 178
62 98 175
61 98 179
62 98 174
62 99 177
62 99 177
62 99 178
62 99 177
62 99 177
61 98 173
62 99 177
61 98 175
62 99 175
62 99 177
62 99 176
61 98 174
62 99 177
62 99 178
62 99 175
62 99 175
62 99 179
62 99 177
62 99 178
62 99 179
62 99 177
62 99 179
62 99 178
63 99 175
63 99 178
61 98 174
62 99 176
62 99 177
62 99 178
62 99 178
62 99 174
62 99 175
62 99 177
62 99 177
62 99 177
62 99 177
62 99 177
63 100 178
63 99 175
62 99 177
63 100 176
62 99 179
62 99 175
62 99 176
62 98 175
62 99 173
62 99 174
62 99 177
62 99 176
62 99 174
62 99 174
62 99 175
62 99 174
62 99 178
62 98 172
62 99 175
62 99 175
62 99 172
62 98 170
62 99 177
62 99 177
62 98 168
62 98 173
62 99 173
63 99 175
62 99 175
63 99 174
63 99 174
62 99 174
63 99 175
62 99 171
62 99 169
62 99 174
63 99 172
62 98 171
63 100 176
62 98 164
62 98 171
62 98 165
62 99 172
62 99 174
62 98 167
62 99 172
62 98 170
61 98 167
61 97 165
62 98 165
62 98 162
61 95 155
61 96 164
61 96 164
61 97 159
62 99 174
62 97 165
61 97 164
61 96 165
61 96 162
61 96 161
60 94 156
59 93 156
63 88 129
59 73 94
56 65 61
56 62 46
57 63 42
57 64 50
76 82 57
67 73 50
69 75 54
74 77 52
70 76 56
86 89 60
81 86 56
88 91 58
103 104 68
90 93 63
90 93 63
103 103 65
97 100 63
100 101 69
99 102 67
98 100 63
108 109 71
114 115 70
120 120 75
119 120 78
119 119 78
129 128 83
116 118 75
126 125 76
115 117 72
138 137 86
129 128 78
123 123 76
136 135 84
142 139 82
136 134 81
142 139 86
144 141 88
137 136 77
140 138 85
151 147 85
151 149 87
140 138 82
154 151 92
154 149 85
145 143 81
164 159 94
151 147 85
155 151 88
153 150 86
160 155 85
166 160 92
159 154 92
156 152 85
162 157 88
161 157 94
165 160 90
164 160 95
162 157 87
161 156 94
165 160 87
162 157 90
170 164 94
163 158 93
174 168 102
171 164 93
162 157 93
169 163 91
169 163 92
170 164 90
164 159 85
170 164 89
170 164 93
168 162 93
167 161 89
162 158 84
171 164 89
175 168 95
172 166 90
169 163 91
171 165 94
168 162 83
168 162 88
171 164 94
165 160 91
170 164 91
173 166 91
166 160 83
173 165 94
174 166 96
169 163 89
169 162 87
169 162 88
169 161 91
164 159 81
164 157 84
166 158 89
163 157 79
164 157 87
166 159 86
164 159 84
167 160 86
163 157 84
159 152 80
161 155 82
165 158 86
162 156 80
159 153 79
163 157 83
159 153 80
159 153 79
158 151 80
155 149 69
160 154 81
157 149 75
149 143 75
160 152 80
158 152 75
155 148 75
151 146 71
144 138 68
149 144 68
147 140 72
151 144 69
147 141 65
140 134 63
141 136 67
141 135 67
135 132 62
141 137 48
141 140 49
146 150 51
144 149 44
149 154 48
147 153 47
159 167 45
150 166 22
168 182 42
163 182 19
162 180 22
167 188 11
171 193 0
171 193 0
173 196 0
172 195 0
173 197 0
170 194 0
172 196 0
173 196 0
173 197 0
172 196 0
173 196 0
170 194 0
173 197 0
172 195 0
170 195 0
170 195 0
172 196 0
171 194 0
173 197 0
170 194 0
171 195 0
174 197 0
173 195 0
169 192 0
172 194 0
172 196 0
173 196 0
173 197 0
171 195 0
173 196 0
170 193 0
174 197 0
173 196 0
171 195 0
173 196 0
172 195 0
171 195 0
171 194 0
172 195 0
167 190 0
169 192 0
173 196 0
174 196 0
171 194 0
172 195 0
173 196 0
171 194 0
172 195 0
170 194 0
171 195 0
171 195 0
171 194 0
173 196 0
172 197 0
169 191 0
168 191 0
172 195 0
173 195 0
172 195 0
171 194 0
173 196 0
173 196 0
172 196 0
169 193 0
171 195 0
172 195 0
172 195 0
171 195 0
169 193 0
171 194 0
170 194 0
171 194 0
170 193 0
172 194 0
172 195 0
172 196 0
169 193 0
169 192 0
166 189 0
171 194 0
170 194 0
171 195 0
168 190 0
168 192 0
174 197 0
168 192 0
167 190 0
170 194 0
170 192 0
169 191 0
168 192 0
168 192 44
139 163 99
94 122 159
63 100 177
63 100 178
62 99 178
63 99 179
63 100 179
63 100 178
62 99 177
62 99 178
63 99 178
63 99 180
62 99 177
62 99 179
62 99 178
62 98 177
62 99 178
61 99 178
61 98 176
62 99 180
62 99 178
63 99 179
62 99 180
62 99 180
62 99 176
62 99 178
62 99 180
62 99 177
62 99 178
62 99 179
61 99 177
61 98 176
61 99 177
62 99 180
63 99 177
62 99 179
62 99 179
62 99 181
62 99 178
63 100 181
62 99 175
62 99 178
61 99 179
61 98 176
62 99 179
62 99 178
62 99 178
62 99 178
62 99 176
62 99 175
62 99 178
63 100 178
62 99 177
62 99 178
62 99 176
62 99 179
61 98 178
62 99 179
61 98 178
62 99 177
62 99 178
62 99 178
62 99 176
62 99 179
63 99 179
62 98 172
62 99 179
62 99 175
62 99 179
62 99 176
62 98 174
62 99 176
62 99 176
63 100 180
62 99 178
63 100 177
62 99 179
61 99 178
62 99 179
62 99 176
62 99 175
61 98 175
62 99 178
63 99 176
62 99 177
61 98 176
62 99 177
62 99 175
62 99 176
62 99 176
62 99 179
62 99 178
62 99 176
62 99 180
61 99 179
62 99 176
62 99 177
62 99 176
62 99 177
62 99 179
62 99 177
62 99 175
62 99 176
62 99 174
62 99 172
62 99 173
62 99 174
62 99 174
62 99 173
61 98 168
62 98 173
61 98 174
62 99 179
63 99 176
63 100 179
62 99 175
62 99 176
62 99 175
62 99 174
62 99 174
63 100 179
62 99 177
62 99 175
61 98 174
62 99 175
62 99 172
62 99 174
62 99 174
62 98 170
61 98 173
61 98 171
63 99 175
61 98 172
63 99 175
61 98 174
61 98 171
62 98 170
62 98 171
62 98 171
63 99 173
61 97 167
62 98 169
61 97 166
62 99 173
62 98 169
63 99 169
61 97 167
62 99 170
62 98 170
62 98 165
61 97 165
62 98 169
62 99 168
62 98 168
62 98 168
61 97 166
61 97 162
61 96 160
61 97 165
60 95 163
61 95 159
61 96 160
61 95 159
62 96 158
61 96 158
59 93 157
57 86 137
52 72 95
70 81 90
57 66 56
63 68 49
50 58 46
68 72 50
58 64 44
80 83 56
60 66 48
74 78 52
81 86 60
88 92 64
83 87 62
86 89 61
84 90 64
96 98 65
102 103 64
98 100 64
95 98 66
102 103 65
101 104 69
96 99 65
109 111 75
112 113 69
122 122 76
114 115 73
115 117 75
112 112 71
130 129 78
126 126 78
137 135 81
130 130 81
136 134 81
131 130 76
131 131 76
138 135 86
139 137 76
141 140 81
141 140 83
147 144 87
137 135 76
148 144 81
151 148 88
154 150 88
146 143 81
158 153 88
158 153 87
152 148 86
148 146 88
159 155 88
165 160 94
154 151 85
159 156 87
156 153 85
162 158 85
159 155 88
160 157 94
166 161 92
168 162 93
167 162 92
168 162 89
168 161 87
167 161 88
169 163 84
164 159 92
168 162 91
168 162 86
171 165 99
169 163 92
171 165 94
169 164 89
167 162 90
169 163 86
170 165 92
172 167 95
171 165 93
168 162 90
171 164 93
164 159 80
167 160 85
168 161 86
168 162 87
167 161 86
171 164 93
172 165 89
171 165 89
167 161 85
171 164 86
173 167 96
170 163 90
164 157 84
173 167 96
173 165 91
167 160 88
165 159 82
166 160 83
166 159 83
166 160 85
167 161 84
165 159 84
161 154 81
166 159 83
164 158 84
162 157 77
166 159 81
164 158 89
164 157 85
162 156 81
161 153 80
155 149 73
161 155 78
160 154 82
162 156 79
159 153 76
150 144 68
158 152 75
151 145 72
154 148 75
156 150 72
143 137 63
150 145 72
149 143 69
143 137 65
142 137 62
153 147 68
150 143 67
145 139 67
147 141 69
141 137 60
136 133 57
138 136 61
142 144 54
141 146 39
153 160 47
147 155 45
153 164 37
161 175 25
159 175 28
166 183 28
163 182 16
168 188 16
163 184 0
170 194 0
170 194 0
172 196 0
171 195 0
171 195 0
172 197 0
172 195 0
172 196 0
171 195 0
172 196 0
174 197 0
171 195 0
172 196 0
170 194 0
172 196 0
173 196 0
172 195 0
173 196 0
172 195 0
171 194 0
171 195 0
174 197 0
172 195 0
171 195 0
174 197 0
173 196 0
171 195 0
171 194 0
170 194 0
172 196 0
172 195 0
173 195 0
169 192 0
170 195 0
170 193 0
173 196 0
172 196 0
172 195 0
173 196 0
172 196 0
171 194 0
170 194 0
172 195 0
172 196 0
173 196 0
171 195 0
169 193 0
170 194 0
170 193 0
168 192 0
172 196 0
172 194 0
172 195 0
173 197 0
170 194 0
169 192 0
172 196 0
171 195 0
174 196 0
171 195 0
173 197 0
169 192 0
172 196 0
170 192 0
170 193 0
171 194 0
175 198 0
169 191 0
170 193 0
171 193 0
170 194 0
173 196 0
169 193 0
169 193 0
171 194 0
171 194 0
170 193 0
170 193 0
169 192 0
173 196 0
172 195 0
171 194 0
170 193 0
169 192 0
172 195 0
166 190 0
166 189 0
172 194 0
168 191 0
169 193 0
159 183 67
127 153 129
75 109 169
62 99 177
63 99 176
62 99 176
62 99 176
63 100 179
62 99 179
63 100 180
62 99 177
63 100 178
62 99 180
62 99 177
62 99 180
63 100 178
62 99 177
63 100 179
62 99 177
62 99 179
62 99 177
62 99 178
63 99 177
62 99 180
62 99 178
62 99 178
62 99 178
63 99 175
62 99 177
61 98 179
62 99 181
62 99 179
62 99 179
62 99 178
61 98 177
62 99 176
62 99 178
61 98 175
61 98 176
62 99 175
62 99 180
62 99 177
62 99 178
62 99 179
61 99 177
62 99 181
62 99 179
62 99 176
62 98 178
62 99 177
62 99 178
62 99 176
62 99 176
63 100 178
62 99 180
62 99 179
63 100 181
62 99 176
63 99 179
62 99 180
61 98 176
61 98 176
62 99 178
61 99 177
62 99 174
62 98 175
62 99 178
62 99 177
62 99 179
62 99 177
62 98 175
62 99 179
62 99 179
62 99 177
62 99 177
62 99 177
62 99 179
62 99 177
62 99 179
61 98 176
61 98 176
62 99 179
62 99 176
63 99 177
62 99 175
62 99 179
62 99 175
62 99 176
62 99 174
62 99 178
63 99 177
62 99 172
63 100 180
62 99 174
62 99 175
62 99 175
62 99 176
62 99 175
61 98 170
62 99 178
62 99 175
62 98 175
62 99 176
62 98 172
62 99 174
62 98 173
62 99 173
62 98 172
61 98 174
62 99 176
62 99 175
62 99 173
62 99 174
62 99 173
63 99 178
62 99 176
61 98 173
63 99 175
63 99 175
62 99 173
62 99 175
62 99 173
61 98 169
62 98 171
62 99 174
62 99 174
62 98 172
62 99 174
62 99 173
62 99 173
62 99 174
62 99 170
62 99 173
62 99 171
62 99 172
62 99 174
62 99 172
62 98 171
62 99 171
62 98 165
62 98 170
63 99 171
63 99 173
62 98 169
62 98 173
62 99 171
61 97 163
62 98 169
61 98 166
61 97 168
62 99 168
62 98 166
61 98 167
62 98 172
61 97 165
61 97 171
61 97 158
61 97 164
61 97 162
62 98 166
61 96 165
61 97 166
61 96 160
61 96 164
59 95 164
60 94 153
59 93 154
59 91 148
59 85 124
54 70 95
63 71 77
58 63 46
56 63 45
62 68 49
74 77 49
73 77 52
67 72 54
77 81 53
70 76 54
91 94 62
78 82 54
78 83 57
78 83 54
90 94 65
103 104 64
98 98 60
91 95 59
95 99 66
91 94 64
106 108 72
113 112 67
113 114 68
114 115 74
120 119 75
126 126 77
108 110 73
120 121 71
132 130 77
124 123 72
137 135 79
139 137 81
129 129 81
134 133 80
135 133 79
143 141 89
142 139 82
145 143 82
145 143 84
140 137 82
141 138 84
144 141 77
149 146 82
149 146 79
161 156 91
154 151 87
159 155 86
156 152 88
157 152 88
155 151 86
158 154 89
160 155 90
160 154 87
163 157 89
158 154 88
160 155 86
167 162 93
168 162 94
165 160 86
162 157 84
162 158 89
166 160 86
166 160 87
163 158 81
166 160 92
165 160 91
175 168 94
170 164 90
170 164 89
172 166 88
167 162 87
169 164 93
165 159 78
173 167 95
171 164 87
170 163 92
168 162 89
168 163 90
161 156 78
168 162 90
170 163 89
171 164 89
165 159 85
174 166 90
170 163 89
167 161 85
169 162 84
168 161 87
166 161 89
166 160 84
163 157 86
162 156 79
167 160 84
165 159 87
165 159 80
167 161 84
163 157 81
163 157 79
164 158 87
163 156 86
163 156 80
157 151 77
161 155 78
167 160 87
152 147 70
152 146 74
159 153 76
155 148 77
159 153 80
157 151 72
164 157 81
154 149 68
155 148 82
151 145 71
162 155 81
158 152 79
151 145 71
154 148 73
154 147 72
151 145 72
151 145 69
143 136 66
138 133 64
149 144 71
137 132 59
150 144 68
145 138 66
142 138 63
130 127 51
136 135 51
147 149 53
145 149 45
149 153 56
151 162 37
156 167 39
157 173 25
163 180 30
159 177 19
167 185 22
170 190 19
167 188 11
172 194 0
172 196 0
173 196 0
171 195 0
172 196 0
170 194 0
170 194 0
172 196 0
173 197 0
172 195 0
172 196 0
171 195 0
170 193 0
173 196 0
170 194 0
174 197 0
173 196 0
173 196 0
174 197 0
172 195 0
171 194 0
171 195 0
171 194 0
171 194 0
170 194 0
170 193 0
171 195 0
171 195 0
172 195 0
170 194 0
172 196 0
172 195 0
173 196 0
173 197 0
171 194 0
172 195 0
172 196 0
170 194 0
169 193 0
172 195 0
171 195 0
172 196 0
167 190 0
170 193 0
173 197 0
171 195 0
173 196 0
169 191 0
170 194 0
170 193 0
171 194 0
172 195 0
172 196 0
170 192 0
171 195 0
167 191 0
170 192 0
171 195 0
171 194 0
172 196 0
169 192 0
170 193 0
171 194 0
171 194 0
171 195 0
170 195 0
171 194 0
171 194 0
171 194 0
168 191 0
169 193 0
173 196 0
171 195 0
171 194 0
171 194 0
171 195 0
170 194 0
172 195 0
170 193 0
166 191 0
170 193 0
168 191 0
167 190 0
171 195 0
171 194 0
168 190 0
172 194 0
167 188 0
169 193 0
167 191 40
151 174 84
108 135 149
68 103 172
63 100 176
63 100 177
63 100 178
63 100 180
63 100 177
62 99 177
63 100 177
63 100 179
62 99 176
63 99 178
62 99 174
62 99 180
62 99 179
62 99 180
63 100 179
62 99 176
62 99 178
62 99 178
62 99 178
62 99 177
62 99 179
62 99 176
62 99 179
63 100 178
62 99 177
62 99 181
62 99 177
62 99 179
63 99 178
63 99 177
63 99 178
62 99 173
62 99 174
62 99 179
62 99 176
62 99 174
62 99 180
62 99 181
62 99 176
62 99 177
62 99 178
61 98 174
62 99 176
62 99 176
62 99 177
61 98 176
62 99 179
63 100 179
62 99 180
62 99 177
62 99 181
62 99 176
62 99 178
62 99 177
62 99 176
63 100 179
63 99 177
62 99 177
62 99 177
62 99 179
62 99 177
62 98 175
63 99 179
63 100 179
62 99 175
62 99 179
63 99 176
62 99 174
62 99 176
62 99 176
62 99 178
62 99 177
62 99 178
62 99 175
61 98 174
61 98 175
62 99 176
63 99 176
62 99 177
62 99 178
62 99 176
62 99 176
62 99 180
62 99 179
61 98 171
62 99 177
62 99 176
62 99 178
62 99 174
62 99 178
62 99 177
62 99 174
63 99 176
61 99 178
62 98 171
62 99 178
61 98 173
62 99 173
62 99 178
61 98 173
62 99 176
62 98 171
62 99 177
62 98 169
62 99 174
62 99 174
62 99 176
62 99 174
61 97 164
62 99 174
63 100 178
61 98 175
63 99 175
62 99 174
62 99 175
62 99 174
62 98 171
62 99 174
63 99 172
62 99 170
62 98 169
62 99 173
62 98 168
62 99 171
62 99 176
63 99 172
63 99 173
62 99 176
63 100 177
63 99 172
62 99 174
63 99 177
62 98 171
62 98 169
63 99 173
61 98 169
62 99 172
62 98 172
62 99 170
63 99 175
62 98 167
61 98 168
62 99 174
62 98 165
62 98 165
63 99 171
62 99 172
61 97 167
63 99 170
62 98 166
62 98 166
62 98 167
61 97 166
62 98 171
61 97 164
61 97 158
61 97 161
62 98 168
62 98 172
62 98 166
61 96 161
61 96 161
60 94 157
61 96 160
59 92 146
62 86 127
55 74 101
51 62 64
53 61 51
55 60 44
60 66 50
66 70 47
60 65 47
63 69 45
68 73 47
69 76 55
77 81 53
67 73 52
81 85 52
86 90 60
83 88 58
103 105 68
97 99 63
101 103 63
111 111 70
103 105 66
103 105 73
108 109 75
101 104 62
125 124 73
111 113 68
117 119 71
118 119 69
120 120 74
127 126 76
121 121 68
135 133 79
132 132 76
139 136 81
131 130 75
148 145 84
145 141 84
137 135 79
149 146 84
152 149 90
147 144 87
151 147 87
143 142 82
145 142 83
150 146 82
152 149 83
150 146 81
151 147 85
155 151 83
156 152 87
148 145 86
160 156 87
159 156 90
158 154 81
164 159 90
162 156 86
161 156 83
162 156 89
152 149 79
171 165 95
161 155 83
167 161 88
166 159 87
168 162 91
161 155 83
163 159 86
170 163 84
165 159 93
164 158 89
172 165 90
170 165 91
167 161 82
167 161 90
170 164 93
171 164 90
168 162 90
167 160 91
170 164 90
172 165 89
171 165 94
167 161 84
167 160 88
165 160 87
164 158 85
165 159 87
169 162 85
164 158 87
171 164 92
167 161 80
165 159 84
168 162 87
169 162 86
165 159 84
164 158 84
167 160 87
170 162 90
169 163 84
164 159 87
166 160 82
165 158 83
154 148 72
159 154 82
168 161 92
162 155 85
160 153 83
156 150 79
165 159 80
160 154 76
164 158 80
165 159 83
156 150 74
159 153 71
163 156 82
159 152 75
153 148 75
154 148 74
152 146 72
155 149 72
157 151 72
150 143 75
144 138 63
148 142 66
151 144 75
139 134 70
144 138 67
141 135 61
133 127 58
145 139 67
134 131 52
133 131 51
139 140 47
147 150 51
145 149 51
155 165 47
158 170 41
158 168 42
156 169 39
162 176 34
162 180 0
169 188 19
169 192 0
172 194 0
172 192 0
172 195 0
169 193 0
170 193 0
170 194 0
171 195 0
172 195 0
171 194 0
172 196 0
171 194 0
171 195 0
172 195 0
170 194 0
169 193 0
172 196 0
172 195 0
174 197 0
174 197 0
172 196 0
171 194 0
171 195 0
174 196 0
173 195 0
170 194 0
171 195 0
170 193 0
170 193 0
172 195 0
171 195 0
171 194 0
174 197 0
171 194 0
173 196 0
172 195 0
172 195 0
171 195 0
170 193 0
169 192 0
168 191 0
169 193 0
173 196 0
170 193 0
171 195 0
172 196 0
172 196 0
170 194 0
170 194 0
174 197 0
170 193 0
174 197 0
172 195 0
169 193 0
174 197 0
169 192 0
172 195 0
171 194 0
171 194 0
171 195 0
171 194 0
172 195 0
171 194 0
170 193 0
170 194 0
167 190 0
172 194 0
170 193 0
169 192 0
173 196 0
174 197 0
170 194 0
170 194 0
166 189 0
170 194 0
169 193 0
172 195 0
171 194 0
172 196 0
171 194 0
169 192 0
168 192 0
169 192 0
166 189 0
170 193 0
171 195 0
170 194 0
169 193 0
169 192 0
168 191 0
171 194 0
167 191 40
139 164 105
97 126 157
63 100 177
63 99 175
63 99 177
62 99 176
62 99 177
62 99 175
63 99 178
62 99 178
63 100 178
62 99 178
63 99 177
63 100 179
63 99 178
62 99 178
62 99 178
61 99 179
62 99 176
62 99 177
62 99 178
62 99 178
63 100 180
62 99 179
62 99 174
62 99 178
62 99 177
62 99 178
62 99 178
62 99 178
62 99 174
61 98 173
62 99 176
63 99 175
62 99 176
62 99 176
61 99 176
62 99 180
62 99 174
61 98 172
62 99 174
62 99 179
62 99 175
62 99 178
62 99 179
62 99 177
62 99 179
62 99 178
62 99 177
61 98 176
62 99 175
62 99 179
62 99 179
62 99 175
63 99 176
62 99 179
62 99 177
61 98 176
63 99 177
62 99 177
61 99 176
62 99 178
63 99 175
62 99 176
62 99 178
62 99 175
62 99 178
63 99 177
63 99 178
63 99 177
62 99 179
62 99 180
62 99 177
62 99 178
61 98 177
62 99 178
62 99 174
62 99 174
62 99 179
62 99 176
63 99 178
62 99 174
62 99 178
62 99 177
62 99 175
63 99 177
62 99 177
62 99 177
63 99 177
62 99 178
62 99 173
63 99 176
62 98 171
62 99 175
62 98 172
62 99 176
62 98 173
62 99 174
63 100 176
62 99 175
62 99 177
63 100 180
62 99 173
62 99 175
62 99 177
62 99 170
62 99 174
62 98 171
63 99 173
63 99 174
62 99 173
62 99 173
62 99 176
62 98 175
62 99 173
62 99 175
63 99 173
62 99 175
62 99 177
62 99 172
62 99 175
62 99 175
62 99 172
62 99 173
63 99 177
63 99 170
62 98 170
62 99 172
62 99 171
63 99 176
61 98 169
62 98 171
64 100 176
61 98 175
63 99 171
62 99 170
62 99 171
62 98 168
62 99 166
62 99 171
62 99 172
62 98 167
63 99 174
62 98 167
62 99 170
62 98 171
62 98 166
62 99 171
61 97 167
60 96 155
62 99 168
62 98 168
61 97 165
63 99 171
61 97 163
62 97 166
61 97 167
62 98 171
62 97 160
60 95 156
61 97 166
61 96 160
61 96 160
61 96 159
62 97 164
60 95 153
59 94 157
60 94 161
58 90 146
60 82 115
51 67 78
50 58 41
47 53 41
60 65 43
61 67 40
63 69 48
66 71 47
67 71 48
68 72 43
73 77 48
72 78 53
78 82 52
88 90 53
82 87 56
83 88 58
98 100 61
100 103 62
97 99 67
103 106 70
108 109 69
112 113 72
115 114 70
110 111 69
113 113 70
124 123 70
120 119 71
126 127 75
123 121 76
125 124 79
140 138 76
131 129 76
134 132 77
130 129 77
140 139 82
138 136 74
143 140 81
141 139 82
148 144 84
145 142 83
151 148 82
151 148 86
151 148 86
154 150 89
152 148 83
155 151 84
146 143 83
152 147 86
159 154 93
148 144 83
155 151 84
154 150 83
162 156 88
156 152 86
160 155 89
161 155 85
165 159 91
160 156 87
162 157 91
163 158 87
153 150 81
165 160 86
169 162 87
164 159 86
165 160 85
168 162 86
168 162 88
164 159 87
167 160 84
166 161 86
167 161 88
169 162 91
172 165 90
173 167 95
168 161 86
169 163 84
168 161 90
167 161 85
171 164 90
162 157 79
168 161 87
165 158 80
166 160 84
167 161 91
170 163 86
169 163 86
161 154 79
168 161 87
168 162 84
163 157 81
164 159 81
163 158 80
161 156 80
161 156 80
167 160 84
164 158 80
163 157 81
159 152 79
166 160 83
161 155 84
160 155 79
165 158 84
162 155 81
160 152 81
152 147 71
158 152 76
162 156 78
158 152 82
153 148 70
159 152 80
156 149 71
152 146 72
158 152 77
148 143 71
161 155 77
157 152 71
144 138 63
152 146 67
152 146 63
154 147 70
142 137 67
140 135 64
145 139 63
146 139 67
145 139 59
144 138 63
134 129 60
132 130 52
139 135 56
140 142 47
144 146 51
154 162 42
147 155 36
151 163 30
155 168 34
162 176 34
154 170 19
164 183 11
166 188 11
169 188 19
173 194 11
173 194 0
173 197 0
172 196 0
172 195 0
173 196 0
174 198 0
172 196 0
172 196 0
169 192 0
170 193 0
171 194 0
174 197 0
171 193 0
171 194 0
172 195 0
173 196 0
173 196 0
175 198 0
172 195 0
170 194 0
172 195 0
171 194 0
172 195 0
171 195 0
171 194 0
172 196 0
174 196 0
171 194 0
170 194 0
170 194 0
172 195 0
172 195 0
170 194 0
172 196 0
169 192 0
170 193 0
169 193 0
169 192 0
174 197 0
172 196 0
171 194 0
171 195 0
172 195 0
172 196 0
172 195 0
169 192 0
168 193 0
168 190 0
171 195 0
168 192 0
170 194 0
170 195 0
171 195 0
171 194 0
173 196 0
168 193 0
165 189 0
170 193 0
168 192 0
170 193 0
170 194 0
171 194 0
173 196 0
169 192 0
168 191 0
168 192 0
170 193 0
170 193 0
173 196 0
170 193 0
167 191 0
171 194 0
169 193 0
170 193 0
173 196 0
167 190 0
171 194 0
170 193 0
172 195 0
173 196 0
169 192 0
169 192 0
168 191 0
168 192 0
170 193 0
170 194 0
170 194 0
168 191 0
171 195 0
150 175 80
120 146 134
71 105 176
63 99 172
63 100 175
62 99 176
63 99 178
64 100 179
62 99 178
64 100 180
63 99 178
62 99 179
63 100 177
63 100 181
62 99 176
63 100 179
61 99 177
63 99 176
62 99 178
62 99 179
62 99 175
62 99 176
62 99 179
62 99 178
63 99 177
62 99 181
62 99 175
62 99 177
62 99 178
62 99 179
62 99 177
63 99 180
62 99 180
61 98 175
62 99 176
62 99 180
62 99 178
62 99 177
61 98 176
62 99 179
62 99 178
62 99 178
62 99 178
62 99 179
62 99 177
62 99 176
61 98 175
61 99 178
63 99 177
62 99 178
62 99 174
63 99 175
62 99 179
62 98 171
63 100 179
62 99 180
62 99 177
62 99 178
62 99 178
62 99 176
62 99 177
62 99 175
62 99 177
62 99 174
62 99 179
62 99 173
62 99 179
62 99 179
62 99 180
62 99 177
62 99 178
61 98 175
61 98 179
61 99 178
62 99 176
62 99 177
62 99 175
63 99 176
63 100 178
63 99 178
62 99 175
62 99 173
62 99 179
62 99 176
62 99 175
61 98 172
62 99 177
62 99 175
62 99 177
62 99 175
62 99 175
62 99 173
62 99 170
62 99 177
62 99 175
62 99 174
62 99 176
62 99 172
62 99 176
62 99 175
62 99 175
62 99 173
61 98 169
61 98 174
63 99 175
63 99 173
62 99 176
62 98 173
62 99 176
62 99 175
62 99 171
62 99 175
62 99 175
62 99 172
62 99 178
62 99 175
62 99 174
63 99 174
63 100 176
63 100 177
62 99 172
62 99 172
62 99 174
62 99 172
62 99 173
62 99 173
63 99 173
62 99 175
62 99 169
62 99 172
62 99 175
63 99 180
62 98 171
63 99 175
61 98 172
62 98 168
63 100 177
62 99 176
62 99 171
62 98 171
62 99 169
62 99 171
61 97 162
62 98 167
63 99 171
62 98 169
61 98 169
62 98 174
62 97 163
62 99 169
62 98 170
63 99 176
62 98 169
62 98 168
62 98 167
62 98 166
61 97 160
61 97 161
61 96 159
61 96 163
61 96 162
61 97 162
61 97 163
62 97 163
61 97 164
61 96 157
61 96 161
61 95 155
60 94 151
57 90 147
63 87 127
60 77 104
64 74 73
45 52 38
57 62 39
55 59 38
61 68 49
76 81 54
62 68 48
75 78 50
74 77 52
91 94 63
72 77 54
83 88 57
89 92 60
90 93 58
101 103 64
103 104 63
107 109 65
99 101 62
104 106 67
108 109 65
115 115 66
119 119 72
120 121 71
110 111 69
116 117 70
124 123 73
118 119 73
120 120 73
124 124 69
127 126 77
136 134 78
139 136 74
140 137 79
148 144 87
139 138 81
143 140 82
135 133 78
145 141 83
148 143 78
149 146 84
152 148 82
148 145 81
153 149 85
149 146 88
154 149 85
149 146 77
159 154 89
157 153 84
153 150 86
157 153 84
159 155 82
159 155 83
164 160 91
158 153 81
164 159 87
159 154 85
157 153 82
158 154 83
165 159 82
162 156 86
160 156 83
166 160 86
167 161 91
161 156 87
165 159 86
167 161 89
163 158 83
166 161 87
168 162 88
168 162 90
170 162 88
167 162 83
169 162 89
170 164 93
166 159 82
170 163 84
167 161 84
169 162 85
170 163 89
168 161 92
170 163 84
165 159 87
160 155 78
171 165 92
168 162 80
166 160 84
163 157 81
167 159 80
165 158 87
159 154 75
164 157 78
167 160 84
165 158 82
163 156 79
162 155 82
159 153 79
158 153 74
167 160 86
164 158 83
165 158 82
158 151 77
154 148 75
160 153 78
162 156 83
159 154 73
162 155 78
153 147 69
154 148 71
164 158 80
156 149 79
152 145 69
161 155 70
147 141 67
141 135 66
149 143 73
151 144 75
147 141 67
151 145 68
148 142 67
150 143 70
140 134 65
145 140 65
142 137 64
141 135 59
135 130 56
148 143 62
143 143 59
145 147 53
143 147 49
147 154 39
154 162 48
150 160 32
154 170 22
155 170 34
163 182 11
163 181 16
165 184 19
170 191 0
168 189 0
173 193 0
170 193 0
172 196 0
173 196 0
174 197 0
174 197 0
173 197 0
171 194 0
170 194 0
168 192 0
171 194 0
174 198 0
173 197 0
174 197 0
173 196 0
172 196 0
171 194 0
171 195 0
175 198 0
174 197 0
172 197 0
172 196 0
171 195 0
173 196 0
170 194 0
172 196 0
172 195 0
172 196 0
173 197 0
167 190 0
170 194 0
175 198 0
172 194 0
173 196 0
173 196 0
170 194 0
171 195 0
174 196 0
170 194 0
167 191 0
171 194 0
173 196 0
166 189 0
169 192 0
167 190 0
172 195 0
170 193 0
171 195 0
169 192 0
172 195 0
172 195 0
169 192 0
169 193 0
174 197 0
171 194 0
171 193 0
172 195 0
172 195 0
172 195 0
169 193 0
171 194 0
168 192 0
171 194 0
171 194 0
171 194 0
168 192 0
172 196 0
170 193 0
169 192 0
170 194 0
171 193 0
168 192 0
165 187 0
172 194 0
172 196 0
167 190 0
166 190 0
169 193 0
172 196 0
171 194 0
166 188 0
172 195 0
168 192 0
170 193 0
170 194 0
171 194 0
170 192 0
167 191 0
168 191 25
135 159 108
112 139 141
64 100 180
63 99 174
63 99 175
62 99 180
63 100 180
63 100 181
63 100 179
62 99 171
62 99 176
62 99 178
62 99 177
62 99 179
63 99 177
63 100 180
62 99 177
62 99 177
62 99 178
62 99 179
62 99 177
63 100 179
62 99 180
62 99 178
62 99 178
62 99 178
62 99 176
61 98 177
62 99 177
62 99 178
62 98 173
62 99 180
62 99 175
62 99 175
62 99 177
63 99 174
62 99 178
62 99 178
62 99 177
62 99 177
62 99 179
63 99 178
61 98 177
62 99 178
61 98 174
62 99 177
62 99 178
62 99 178
62 99 179
63 99 178
62 99 175
62 99 175
62 99 178
62 99 177
62 99 178
62 99 177
62 99 178
62 99 176
62 99 177
62 99 178
63 100 177
62 99 176
62 99 178
62 99 179
63 100 179
62 99 177
62 98 175
62 99 175
62 99 177
62 99 175
62 99 174
63 100 179
62 99 176
62 99 175
62 99 177
62 99 175
62 99 178
63 99 177
62 99 176
62 99 174
62 99 176
62 99 175
62 99 180
62 99 175
62 99 175
62 99 175
62 99 176
61 98 172
62 98 172
62 99 177
63 99 177
62 99 178
62 98 173
63 99 174
62 99 176
62 99 175
63 100 177
63 99 176
62 99 175
62 99 177
62 98 173
61 98 173
62 98 171
62 99 173
62 99 176
62 98 172
62 99 177
61 98 174
62 99 177
61 98 175
62 99 177
63 99 178
62 99 173
62 99 168
62 99 176
63 99 177
62 99 175
61 97 166
62 99 175
62 98 173
62 99 173
62 99 175
62 99 175
62 99 176
62 99 175
62 99 174
62 98 170
62 98 171
63 99 169
62 99 174
63 99 174
62 99 173
62 99 171
62 98 167
62 99 172
62 98 170
62 99 170
63 99 172
62 99 172
62 98 169
63 99 172
62 98 169
62 99 173
62 98 168
61 98 165
62 99 170
62 99 174
62 98 172
62 99 173
61 97 166
61 97 165
62 98 167
63 99 172
62 98 169
62 98 168
62 98 169
61 98 167
61 97 165
62 98 168
61 96 161
61 97 166
62 98 165
60 95 159
61 97 160
61 96 159
62 96 161
61 96 163
60 95 155
60 95 152
62 96 151
57 86 130
56 79 117
60 71 79
67 71 50
58 64 46
54 60 39
52 59 38
60 64 43
69 73 42
64 70 48
74 79 53
81 84 52
75 79 46
76 81 49
81 86 59
94 95 59
93 95 57
87 91 58
85 90 58
105 105 58
100 101 61
107 108 67
108 110 71
107 108 63
118 117 64
118 118 69
126 125 70
120 120 74
128 127 74
132 130 75
121 120 68
129 127 77
120 120 70
132 130 80
130 128 76
135 134 80
136 134 77
129 129 72
144 141 80
153 149 87
147 143 84
135 134 78
152 148 82
150 146 79
148 144 81
150 146 83
157 153 89
146 143 76
157 152 81
161 155 91
157 153 83
163 158 91
155 151 83
157 152 82
161 156 84
163 158 87
166 160 85
159 155 82
156 152 82
167 161 89
163 158 82
164 159 86
166 160 84
163 157 81
164 158 85
165 159 85
157 151 79
167 161 85
171 165 89
173 167 93
166 161 90
169 162 87
172 165 88
167 161 84
170 164 92
167 160 83
174 167 96
172 165 91
162 156 79
169 163 87
168 162 88
163 157 79
169 163 90
171 164 90
166 161 81
171 164 87
164 158 84
165 158 82
166 161 78
164 158 80
169 163 84
159 154 80
159 153 72
162 156 77
169 162 81
164 158 82
163 158 80
159 153 76
157 152 72
161 154 80
166 160 83
158 153 74
157 151 78
160 154 78
156 150 76
160 155 74
157 150 75
161 155 79
158 151 80
156 150 74
161 154 75
148 142 74
144 138 67
153 147 71
153 146 75
146 139 68
150 143 72
151 145 74
149 144 63
152 146 70
139 134 56
150 144 70
138 133 60
145 140 58
140 134 61
137 132 57
146 141 59
137 135 51
152 150 60
139 142 42
150 156 52
146 152 41
158 172 34
161 172 45
161 175 32
163 180 25
163 180 28
164 182 11
168 189 22
170 193 0
173 194 11
173 196 0
171 194 0
171 195 0
171 194 0
174 197 0
172 196 0
171 194 0
171 195 0
171 194 0
172 195 0
171 195 0
170 194 0
175 198 0
175 197 0
170 193 0
170 193 0
170 194 0
170 193 0
172 196 0
174 197 0
172 195 0
172 196 0
170 193 0
172 195 0
174 197 0
173 196 0
172 196 0
171 195 0
173 196 0
173 196 0
173 195 0
171 195 0
173 196 0
169 193 0
169 193 0
172 195 0
172 196 0
170 194 0
172 195 0
171 194 0
174 197 0
174 197 0
171 195 0
172 195 0
169 193 0
169 193 0
173 196 0
169 192 0
173 196 0
171 195 0
172 195 0
171 194 0
169 192 0
172 195 0
170 194 0
173 196 0
171 195 0
173 196 0
170 194 0
172 195 0
171 194 0
172 194 0
171 194 0
169 193 0
172 194 0
171 195 0
174 198 0
169 193 0
168 192 0
169 192 0
168 191 0
167 189 0
170 193 0
167 190 0
170 194 0
169 192 0
167 191 0
168 191 0
170 193 0
172 195 0
171 194 0
168 192 0
165 188 0
169 192 0
169 192 0
172 195 0
170 193 0
166 189 0
167 190 36
128 154 122
95 124 154
63 99 174
64 100 179
63 100 175
62 99 177
64 100 179
63 100 179
63 99 174
63 99 177
62 99 175
62 99 179
62 99 178
62 99 177
61 98 174
63 100 178
62 99 177
63 100 181
62 99 179
62 99 176
62 99 177
62 99 176
62 99 176
61 98 173
62 99 176
62 99 177
61 99 179
62 99 177
62 99 177
62 99 178
62 99 178
63 99 178
62 99 178
62 99 177
62 99 176
62 99 175
62 99 179
62 99 175
62 99 179
62 99 177
62 99 180
62 99 177
61 98 175
62 99 181
62 99 179
62 99 175
62 99 175
62 99 177
62 99 176
62 99 177
62 99 179
62 99 175
61 98 176
62 99 177
62 99 178
62 99 176
62 99 178
62 98 176
62 99 175
62 99 176
61 98 174
63 99 177
62 98 174
62 99 181
62 99 174
62 99 179
62 99 177
62 99 178
62 99 174
63 100 177
62 99 175
62 99 177
62 99 174
62 99 175
62 99 180
62 99 174
63 99 178
62 98 173
63 100 181
62 99 173
62 99 179
63 99 178
61 98 175
62 99 177
63 100 178
62 98 173
63 99 177
63 99 178
62 99 177
62 98 175
62 99 174
63 99 174
62 99 177
62 99 174
62 98 175
62 98 171
63 99 179
62 99 176
62 99 173
63 100 175
62 99 179
62 99 178
63 99 175
62 99 171
62 99 176
62 99 175
62 98 170
62 99 175
62 99 179
62 99 178
62 99 172
62 98 170
62 99 175
63 100 178
62 98 169
63 99 176
62 98 167
61 98 171
62 99 175
62 99 170
62 99 172
63 99 176
63 100 175
63 99 176
62 98 168
62 98 170
63 99 175
63 99 173
62 99 174
62 99 175
62 99 170
62 98 167
61 98 168
61 98 167
63 99 173
61 98 169
61 97 160
62 99 170
63 99 173
62 99 174
61 98 164
62 99 170
62 98 165
62 98 164
61 97 165
62 99 172
61 97 161
61 97 164
62 99 168
61 98 167
62 98 168
62 99 174
62 98 164
62 98 170
62 98 165
62 98 168
61 97 167
63 99 170
61 97 164
61 96 162
61 97 165
61 97 159
62 97 162
61 97 157
60 94 152
60 96 154
62 97 164
62 97 163
60 95 157
60 94 158
57 87 133
56 78 104
47 66 84
56 66 62
44 50 27
56 62 36
57 64 45
68 73 51
56 62 40
65 71 50
74 79 53
74 79 53
71 76 46
84 87 51
87 90 55
85 87 52
91 94 60
98 101 59
90 93 60
111 112 70
101 104 58
106 107 63
97 99 64
122 121 75
111 112 67
106 106 64
108 109 63
116 116 68
120 119 64
113 114 68
123 122 69
133 131 69
138 136 73
146 143 82
133 132 78
134 133 79
137 135 82
134 131 74
139 137 80
136 134 76
149 144 83
143 141 80
146 142 80
147 144 76
151 147 74
157 153 83
156 151 83
144 141 77
155 151 84
151 146 84
160 155 81
159 154 88
156 151 77
159 154 84
161 156 84
156 152 81
154 150 84
161 156 89
155 151 81
157 152 81
162 156 89
167 162 89
164 158 83
171 164 91
167 160 91
165 159 80
165 159 84
162 157 82
165 159 89
169 162 88
171 164 86
165 160 82
165 160 82
166 159 86
170 163 83
169 162 87
164 158 80
166 161 85
164 158 82
169 162 87
165 159 80
169 163 87
172 165 82
170 163 83
166 159 87
164 159 84
168 162 81
162 156 79
170 163 85
167 161 82
168 161 79
168 161 84
159 154 75
166 158 77
163 156 83
166 160 84
165 158 81
160 154 76
164 158 84
165 158 80
163 156 76
157 151 77
161 154 80
157 151 75
155 150 78
156 149 75
164 157 75
160 153 80
147 141 72
158 152 71
158 151 78
154 147 78
158 152 75
154 147 68
147 141 72
150 144 68
152 146 73
142 138 61
150 143 68
142 136 56
142 136 63
145 139 65
148 141 65
145 139 67
145 139 59
136 130 53
138 135 48
146 145 51
138 142 42
144 148 48
154 163 41
153 159 44
155 165 41
163 179 32
154 166 32
162 178 22
160 177 16
166 185 16
166 187 11
167 188 0
173 194 0
171 192 0
170 194 0
171 195 0
172 196 0
170 194 0
172 195 0
172 195 0
172 196 0
171 194 0
171 195 0
171 195 0
171 195 0
172 196 0
173 197 0
172 195 0
169 193 0
173 196 0
166 190 0
171 195 0
170 193 0
172 196 0
169 193 0
169 193 0
169 193 0
169 192 0
172 196 0
174 197 0
170 194 0
173 196 0
174 197 0
171 195 0
174 197 0
172 194 0
171 195 0
170 193 0
169 193 0
173 196 0
173 196 0
171 194 0
169 193 0
170 194 0
173 196 0
173 196 0
170 194 0
170 195 0
170 193 0
169 192 0
166 190 0
169 192 0
171 194 0
171 194 0
170 193 0
170 194 0
169 192 0
169 192 0
168 192 0
171 195 0
170 194 0
171 195 0
169 192 0
168 191 0
169 193 0
171 195 0
169 193 0
169 192 0
172 195 0
171 194 0
170 194 0
168 192 0
168 192 0
171 194 0
172 194 0
171 194 0
170 193 0
173 196 0
166 190 0
168 191 0
168 191 0
172 194 0
172 195 0
166 188 0
164 187 0
170 193 0
172 195 0
169 191 0
170 193 0
169 193 0
169 193 18
156 181 70
131 156 122
68 103 169
63 99 175
63 100 179
63 100 179
62 99 176
63 99 176
62 99 178
63 100 176
62 99 180
61 98 174
63 99 177
62 98 171
63 99 179
62 99 178
62 99 176
63 100 178
62 99 179
63 99 178
62 99 178
62 99 176
62 99 174
62 99 179
62 99 178
62 99 175
62 99 178
62 99 178
63 99 178
62 99 175
62 98 171
62 99 179
62 99 177
62 99 176
62 99 176
62 99 178
62 99 178
61 98 174
63 99 176
63 99 179
62 99 177
63 99 179
62 99 175
62 99 175
62 99 176
62 99 176
62 99 177
62 99 174
62 99 179
61 98 176
62 99 176
61 99 176
62 99 177
62 98 170
62 99 178
62 99 179
62 99 179
62 99 178
62 99 176
62 99 176
62 99 178
62 99 179
62 99 178
62 99 179
62 99 177
62 99 173
61 98 172
62 99 175
62 99 178
61 98 175
62 99 175
62 99 178
63 100 180
62 99 174
62 99 175
62 99 177
62 99 176
61 98 173
62 99 175
62 98 173
62 98 172
62 99 173
62 99 174
62 98 172
62 99 176
62 99 174
62 99 176
62 99 176
63 99 175
62 98 173
62 98 173
62 99 172
63 99 176
61 98 172
62 99 173
62 99 174
63 99 175
62 98 173
62 99 175
63 99 176
62 99 171
62 99 177
62 99 171
63 99 176
62 99 173
62 99 175
62 99 177
62 99 171
62 99 170
63 99 177
61 98 170
62 99 177
62 99 173
62 99 176
62 99 175
63 99 171
62 99 176
63 99 175
63 100 177
63 99 177
61 98 170
62 98 175
62 98 169
63 99 175
63 99 174
62 99 173
62 99 171
61 98 165
62 99 169
63 99 177
62 98 168
62 98 167
62 99 173
62 98 167
62 99 169
63 99 172
62 98 172
63 99 172
62 98 169
61 98 164
63 99 171
62 98 167
62 98 163
62 99 171
62 98 168
62 98 168
62 98 164
62 98 161
62 98 170
63 99 173
61 97 167
61 97 161
62 98 168
62 98 167
61 97 161
62 98 169
62 98 168
62 97 164
62 97 157
62 97 160
61 97 166
62 98 166
62 97 165
61 96 160
63 98 166
61 96 158
60 94 153
59 94 151
61 96 159
59 93 150
59 94 156
57 89 140
52 80 120
49 69 90
59 68 73
62 65 45
50 58 38
61 66 43
58 62 37
72 75 48
82 85 49
58 66 42
82 85 54
84 87 50
79 84 56
79 82 52
82 86 55
90 93 60
89 93 58
95 97 56
99 101 56
98 101 67
105 105 62
108 109 65
112 112 61
118 117 71
114 115 67
118 118 68
124 124 74
130 128 73
118 118 70
133 131 81
133 132 74
123 122 74
134 132 69
136 134 75
136 134 72
139 137 79
138 135 73
136 133 74
132 130 79
145 142 80
146 143 80
139 137 77
155 150 78
150 146 78
150 146 74
149 146 77
157 153 84
148 144 78
151 147 84
155 151 81
156 152 87
159 154 81
149 146 75
162 157 91
153 149 86
165 159 84
158 152 83
164 158 88
163 157 84
162 156 87
165 160 86
158 153 80
164 159 81
166 161 89
166 161 89
169 162 90
167 162 90
166 160 83
160 154 79
169 162 87
167 161 84
168 162 85
168 162 89
166 160 81
163 157 83
163 157 78
170 163 85
164 157 84
170 163 89
170 163 85
168 163 82
162 157 82
167 160 84
172 164 93
166 160 83
169 163 81
165 159 82
164 158 74
173 165 86
166 160 84
164 158 80
160 154 80
163 156 80
158 151 76
168 162 85
164 158 82
164 158 81
163 158 80
160 154 79
163 156 86
158 152 76
157 151 66
165 158 84
158 152 76
159 153 73
160 153 76
162 155 75
160 154 76
156 150 73
155 149 72
149 143 61
153 147 68
153 147 74
158 151 75
155 148 72
146 141 67
154 148 72
153 147 67
150 144 69
146 140 62
146 139 69
143 137 62
146 139 62
144 139 62
143 137 63
142 139 57
138 140 41
141 141 47
142 145 42
151 156 42
148 156 39
159 173 30
160 175 30
156 171 22
163 181 19
167 184 28
169 188 19
167 186 0
170 193 11
168 189 0
167 190 0
173 196 0
171 195 0
170 194 0
175 198 0
172 195 0
174 196 0
170 193 0
172 196 0
171 193 0
172 195 0
171 195 0
167 190 0
171 194 0
170 194 0
170 194 0
171 196 0
171 195 0
171 194 0
171 194 0
168 192 0
169 193 0
173 196 0
173 196 0
174 197 0
173 196 0
171 193 0
169 193 0
171 194 0
173 195 0
168 192 0
171 194 0
170 194 0
170 193 0
172 196 0
173 196 0
170 194 0
171 195 0
171 195 0
172 195 0
171 195 0
169 193 0
173 195 0
172 195 0
169 191 0
166 188 0
175 198 0
171 194 0
171 194 0
170 194 0
166 189 0
170 193 0
170 194 0
171 193 0
173 197 0
175 198 0
172 195 0
169 192 0
172 195 0
168 192 0
174 197 0
170 194 0
173 196 0
169 193 0
169 191 0
173 196 0
165 188 0
170 193 0
169 192 0
168 191 0
169 192 0
168 191 0
167 191 0
170 194 0
169 193 0
170 193 0
170 193 0
171 193 0
169 193 0
169 193 0
169 192 0
166 190 0
171 194 0
171 194 0
167 190 0
170 192 0
171 194 0
166 190 36
151 176 80
97 127 154
68 103 176
63 100 177
63 100 178
63 100 176
62 99 176
63 100 180
63 100 180
62 99 178
62 99 176
63 99 175
62 99 178
62 99 176
63 99 175
63 100 181
62 99 178
63 99 177
62 99 178
62 99 178
62 99 178
62 99 177
62 99 178
62 99 176
62 99 178
62 99 177
63 99 178
62 99 176
62 98 175
62 98 172
61 98 174
62 98 175
62 99 179
62 99 180
62 99 176
62 99 176
62 99 177
62 99 178
62 99 179
61 98 176
62 99 176
63 100 179
62 99 177
62 99 178
62 98 175
62 99 176
62 99 178
62 99 175
62 99 176
62 98 170
62 99 177
62 99 176
63 99 179
62 99 174
62 99 173
62 98 173
63 99 177
62 99 176
63 99 179
62 99 178
62 99 176
62 99 172
63 100 180
62 99 177
62 99 177
62 99 176
62 98 174
62 99 176
63 100 176
62 99 178
62 99 173
62 99 176
63 99 177
63 100 178
62 98 174
62 99 178
63 99 177
62 99 178
62 99 175
62 99 175
63 99 169
62 99 174
61 98 170
61 98 174
63 99 176
62 99 177
61 97 168
62 99 174
62 99 177
62 99 178
62 98 171
62 99 176
62 99 177
61 98 173
61 98 174
62 99 174
63 99 172
62 98 171
62 99 174
63 99 173
62 99 176
62 98 170
62 99 173
62 98 173
63 99 177
61 98 174
62 98 169
62 99 175
62 99 174
63 99 173
62 98 171
62 98 169
63 99 174
62 99 171
62 98 171
62 99 174
61 97 164
62 99 174
63 99 171
63 99 172
62 98 170
62 99 175
63 100 175
62 99 176
61 98 169
62 99 175
61 98 170
61 98 170
62 99 173
62 98 171
63 99 171
62 99 169
63 99 174
62 98 161
62 99 172
62 98 171
63 99 172
62 98 165
62 99 175
61 98 167
62 99 169
62 98 167
61 98 168
62 98 169
62 99 172
61 97 166
62 98 169
62 98 167
62 98 169
62 98 169
62 98 168
62 98 166
62 98 168
62 98 168
62 98 166
62 98 169
62 98 165
62 98 164
62 98 165
62 97 163
61 98 165
63 99 166
61 96 159
62 98 169
61 97 163
61 97 161
62 98 163
60 95 156
60 95 159
61 95 157
60 95 156
60 95 158
56 86 135
50 72 102
58 70 74
58 64 48
61 64 33
56 62 38
70 72 43
59 64 38
62 66 36
70 76 52
65 72 43
89 93 47
86 88 57
81 85 51
92 94 59
80 84 50
89 93 52
98 100 59
95 98 61
94 96 57
110 111 60
107 108 58
110 110 64
103 106 64
111 110 61
117 117 62
114 114 72
124 124 74
124 123 73
122 120 64
119 118 65
129 126 71
133 131 76
129 128 72
138 136 82
134 132 76
139 136 71
140 138 73
143 139 75
138 136 80
138 135 77
147 144 82
139 136 77
152 147 78
149 145 84
156 151 83
151 146 81
152 148 80
157 151 82
149 145 79
154 149 77
150 147 76
166 160 86
165 158 89
161 156 81
164 157 90
160 155 80
160 154 82
162 157 81
155 150 79
158 153 84
157 153 75
159 153 84
163 157 82
167 160 83
163 157 80
165 159 87
168 161 87
164 157 80
166 160 86
165 159 79
165 159 82
167 161 80
165 159 84
162 157 80
163 157 76
163 158 77
167 161 83
169 162 87
165 157 82
168 161 87
163 158 80
166 160 80
169 163 82
162 156 75
169 162 84
164 158 83
164 158 80
163 158 76
156 151 74
163 157 82
160 154 80
166 160 84
163 158 74
165 158 76
165 158 80
166 160 79
160 154 75
165 157 79
159 152 74
158 152 71
152 147 59
155 149 71
163 157 80
155 149 72
156 150 70
154 147 73
153 147 72
153 146 74
154 147 74
149 144 71
153 146 72
149 143 66
154 148 74
146 141 65
147 142 63
142 137 56
149 143 64
148 142 62
152 146 67
147 141 68
141 136 56
131 125 52
133 128 52
136 131 56
144 139 56
138 139 51
140 143 48
150 153 49
153 161 44
147 156 42
152 162 36
158 173 25
158 174 30
165 182 22
163 181 16
168 188 0
172 193 0
172 194 0
170 193 0
173 194 0
171 194 0
173 196 0
173 197 0
172 196 0
172 195 0
172 195 0
171 195 0
168 192 0
172 195 0
172 196 0
172 194 0
168 192 0
170 195 0
171 194 0
169 193 0
173 196 0
169 191 0
173 196 0
171 195 0
167 191 0
174 197 0
170 194 0
171 194 0
173 196 0
172 196 0
174 197 0
173 197 0
173 195 0
172 194 0
170 194 0
172 195 0
172 195 0
174 197 0
173 195 0
171 194 0
170 194 0
172 195 0
171 195 0
171 195 0
174 197 0
167 191 0
172 195 0
172 195 0
168 192 0
171 195 0
165 190 0
173 196 0
169 193 0
172 195 0
172 195 0
171 195 0
170 193 0
172 195 0
170 194 0
171 195 0
168 192 0
170 193 0
171 194 0
171 193 0
171 194 0
170 193 0
167 190 0
170 194 0
169 192 0
171 194 0
167 190 0
172 195 0
168 192 0
168 191 0
168 191 0
169 192 0
172 194 0
165 188 0
171 193 0
167 191 0
166 189 0
167 190 0
165 189 0
168 190 0
169 192 0
167 190 0
171 195 0
167 189 0
171 195 0
168 190 0
171 193 0
165 189 47
136 160 111
91 121 159
64 100 179
64 100 178
62 99 175
63 99 177
63 100 177
63 100 178
63 100 179
63 99 177
62 99 178
63 99 178
63 99 176
62 99 175
63 100 180
63 99 176
62 99 177
62 99 178
63 99 178
62 99 177
62 99 179
62 99 180
62 99 180
62 98 175
62 99 175
63 99 176
62 99 179
62 99 179
62 99 176
63 100 179
62 99 180
62 99 175
62 99 179
62 99 177
62 99 179
62 99 177
62 99 178
62 99 175
61 98 174
62 99 180
62 99 176
62 99 178
62 99 175
62 99 179
62 99 177
62 98 175
62 99 177
62 99 178
62 99 177
62 99 177
62 99 174
63 99 174
61 98 172
62 99 176
62 99 175
62 99 177
62 98 171
63 100 179
61 98 176
62 99 177
62 99 175
62 99 174
62 99 175
62 99 176
62 99 176
62 99 173
63 100 178
62 99 173
62 98 172
63 99 172
62 99 178
62 99 178
61 98 174
62 99 177
62 99 175
62 99 170
62 99 172
61 98 174
62 99 175
62 99 175
61 99 178
62 99 175
62 98 172
63 100 178
62 98 169
61 98 174
63 100 178
62 99 176
61 98 171
62 99 175
62 98 173
63 100 174
62 98 171
63 99 173
61 98 171
61 98 172
63 99 177
62 99 175
61 98 175
62 99 180
62 98 171
62 99 176
62 99 176
63 99 168
62 98 169
61 98 171
63 99 172
62 99 170
61 98 168
63 99 169
62 99 175
62 99 176
62 99 174
62 98 171
62 99 172
63 99 169
61 98 172
62 99 172
62 98 170
62 99 172
62 99 171
62 99 173
63 99 173
62 99 174
62 99 172
61 98 167
62 98 168
62 99 171
63 99 168
62 99 172
62 98 168
62 99 173
62 99 171
63 99 175
62 98 172
62 99 171
62 98 166
63 99 170
62 99 171
62 99 173
62 99 175
61 97 167
61 97 163
62 98 167
62 99 168
62 98 169
62 98 166
62 98 171
61 97 162
62 98 165
63 99 171
62 99 170
61 97 160
62 99 166
63 99 170
62 98 167
62 98 165
62 98 168
62 98 168
61 97 165
63 99 168
62 97 161
62 97 164
61 98 170
63 98 165
61 97 161
61 96 156
61 95 157
60 95 154
60 94 151
58 91 150
60 95 149
65 93 134
49 72 109
44 58 72
61 68 55
49 55 38
45 51 32
63 68 42
61 66 43
71 76 45
65 69 45
77 81 42
80 83 48
66 72 40
74 79 48
87 87 51
84 86 51
89 94 60
96 98 61
97 99 56
105 107 64
99 100 53
97 99 60
112 113 65
110 110 61
119 118 67
121 121 69
116 115 66
127 125 68
126 124 69
120 121 70
120 120 68
121 121 69
131 130 69
134 131 75
140 137 75
136 133 71
135 132 73
142 140 75
136 134 74
138 135 72
149 146 74
141 139 73
153 148 81
149 144 75
153 149 78
151 146 81
149 145 73
144 141 76
158 153 85
150 147 76
143 140 72
150 147 80
157 152 80
163 158 82
159 154 81
157 152 87
157 151 81
160 154 81
162 155 84
166 160 84
165 160 86
161 155 79
165 160 84
167 161 84
164 158 74
163 158 75
166 160 87
165 159 86
163 157 82
164 158 86
163 157 83
164 158 83
163 158 71
163 157 82
171 163 84
164 158 80
165 159 85
162 155 77
166 160 80
165 158 85
164 157 78
162 156 83
161 156 74
166 160 80
162 156 75
165 159 83
165 157 75
162 155 77
164 157 84
167 161 84
161 155 78
162 156 79
158 152 72
163 157 82
163 156 75
160 154 71
163 156 80
153 148 75
159 153 64
163 157 75
159 152 75
157 151 78
153 147 69
158 151 77
157 151 74
155 149 65
162 155 77
157 150 72
158 151 73
150 144 67
155 148 72
152 146 66
149 144 62
151 146 68
151 144 71
142 136 64
149 143 67
149 143 74
137 132 52
140 134 59
144 138 57
135 129 59
142 136 64
136 131 56
140 137 48
142 140 52
146 146 49
138 142 48
145 150 37
146 152 45
157 169 39
158 173 22
163 176 25
160 177 19
163 182 22
164 181 16
170 192 11
170 191 11
172 195 0
168 189 0
170 192 0
172 195 0
169 192 0
173 197 0
168 192 0
173 197 0
173 196 0
174 196 0
172 196 0
172 194 0
172 196 0
170 192 0
171 195 0
167 190 0
172 195 0
170 194 0
173 197 0
170 193 0
167 191 0
172 196 0
169 192 0
171 194 0
173 196 0
168 192 0
171 195 0
173 195 0
171 195 0
169 193 0
171 194 0
168 192 0
172 195 0
173 196 0
173 196 0
170 194 0
169 192 0
169 192 0
172 195 0
170 194 0
173 196 0
172 195 0
172 194 0
175 197 0
172 195 0
171 194 0
173 195 0
174 196 0
170 193 0
170 193 0
169 192 0
173 195 0
172 196 0
168 192 0
172 195 0
170 194 0
171 194 0
173 196 0
169 192 0
175 197 0
171 195 0
171 194 0
172 195 0
169 192 0
169 192 0
169 193 0
166 190 0
170 193 0
168 192 0
173 197 0
172 194 0
170 193 0
170 193 0
171 194 0
168 192 0
170 193 0
169 193 0
169 192 0
169 192 0
171 195 0
168 191 0
164 188 0
164 187 0
169 192 0
167 191 0
173 196 0
169 193 0
170 193 0
169 192 0
157 182 70
130 156 124
83 115 165
63 100 176
63 100 175
63 100 178
63 99 176
63 99 178
63 100 180
62 99 175
64 100 177
63 100 178
62 99 176
63 99 178
62 99 178
62 99 175
63 99 177
63 100 179
62 99 178
62 99 176
62 99 179
62 98 172
62 99 175
61 98 175
62 99 176
62 99 175
62 99 176
62 98 175
61 98 174
62 99 180
62 98 175
62 99 175
62 99 177
62 99 175
61 98 173
62 99 177
62 99 177
62 99 176
62 99 176
62 99 176
63 99 180
62 99 180
62 99 174
62 99 175
62 99 177
61 98 171
63 99 176
62 99 177
62 99 176
62 99 177
62 99 175
62 99 174
62 99 176
62 99 175
62 99 179
63 99 174
62 99 176
63 99 177
63 99 177
62 99 174
62 99 174
62 98 174
63 100 177
62 99 173
62 99 177
62 99 176
62 99 176
61 98 173
62 99 179
62 99 176
62 99 176
62 99 177
62 98 172
62 99 175
63 99 174
62 99 175
61 98 176
62 99 175
62 98 174
62 99 178
62 99 176
62 98 173
62 99 178
61 98 171
61 98 175
62 99 176
62 98 172
62 99 177
62 99 175
62 99 172
61 98 171
62 99 173
62 99 174
63 100 177
62 99 174
62 99 173
62 99 176
63 99 176
62 98 175
61 98 171
62 98 170
62 99 172
62 99 174
62 99 169
62 98 170
62 99 178
62 98 170
62 99 174
62 98 164
62 99 171
63 99 172
62 99 172
63 99 170
61 98 170
62 99 173
61 98 172
62 99 173
62 99 173
62 98 168
62 99 174
62 99 173
63 99 176
61 98 169
62 99 174
62 98 164
62 99 174
62 98 169
62 99 176
62 99 175
62 99 174
62 99 169
62 99 171
63 99 176
62 98 164
61 98 170
62 98 169
62 98 168
62 98 167
63 100 176
62 98 173
62 99 170
62 98 171
62 98 164
62 98 168
62 98 170
62 98 169
62 98 169
62 98 163
63 100 172
62 98 169
62 98 169
61 97 152
61 97 163
62 98 164
61 97 159
63 99 168
63 99 168
63 99 166
60 96 158
63 99 170
62 98 169
62 98 161
61 97 165
60 96 161
61 97 165
60 95 154
62 97 162
62 98 167
61 97 157
61 96 158
60 96 163
60 95 155
60 94 155
56 88 141
55 80 117
57 71 85
63 70 58
55 59 31
64 66 41
69 72 40
51 58 35
60 65 40
65 71 47
64 69 44
73 77 43
86 88 46
94 96 59
72 78 54
88 90 52
97 98 58
95 97 57
98 98 59
105 106 66
97 99 58
99 100 53
115 113 58
110 111 60
115 115 63
123 122 62
126 124 73
112 113 68
125 124 75
135 132 69
140 137 71
127 126 69
128 126 67
130 129 65
135 133 75
134 132 72
141 138 76
144 141 76
142 138 77
142 139 81
145 142 80
151 146 79
154 150 81
149 145 78
148 144 82
147 143 75
149 145 77
144 141 76
158 152 77
153 149 79
142 139 73
153 149 79
160 155 84
161 155 78
153 148 79
164 158 84
159 154 75
157 152 72
160 154 79
162 157 75
162 157 80
158 152 76
162 156 80
163 157 81
169 163 86
163 158 82
164 158 81
164 158 81
167 161 85
166 160 84
160 155 71
161 155 73
171 164 88
166 160 83
163 156 75
172 164 89
164 158 75
163 157 79
165 159 81
165 158 81
168 161 81
164 158 80
165 159 76
169 162 85
170 163 87
162 156 77
161 155 77
163 157 77
164 157 79
163 157 77
163 157 77
161 155 74
160 154 70
148 144 69
162 156 77
158 152 74
154 148 68
160 154 68
157 151 70
155 150 69
160 153 79
160 153 73
157 152 71
155 150 67
150 144 63
156 150 73
158 151 73
152 146 62
154 148 70
145 139 62
149 142 66
146 141 64
146 141 60
157 151 74
150 143 66
144 139 63
142 137 52
139 134 64
143 138 59
141 135 61
146 140 62
146 140 63
140 135 52
136 131 54
142 141 54
135 136 47
146 148 57
130 133 39
143 148 32
148 159 32
155 168 28
160 175 25
158 174 19
161 179 19
160 178 16
168 189 0
166 188 11
168 191 0
171 191 0
171 192 0
173 195 0
172 195 0
172 195 0
171 195 0
174 197 0
174 197 0
173 197 0
173 196 0
171 194 0
173 196 0
175 198 0
172 195 0
172 196 0
174 197 0
171 195 0
172 197 0
172 195 0
172 195 0
171 194 0
172 195 0
170 194 0
171 195 0
172 195 0
175 197 0
169 193 0
170 194 0
174 198 0
168 191 0
171 195 0
171 194 0
175 198 0
171 195 0
170 194 0
170 194 0
173 196 0
171 194 0
174 197 0
172 195 0
168 192 0
173 196 0
166 188 0
172 196 0
169 192 0
169 192 0
174 197 0
172 196 0
168 192 0
170 193 0
171 195 0
168 192 0
173 196 0
172 195 0
170 195 0
171 194 0
170 193 0
171 194 0
167 191 0
166 190 0
169 193 0
167 190 0
170 193 0
170 194 0
170 194 0
173 196 0
170 194 0
166 190 0
170 193 0
163 186 0
167 189 0
170 194 0
171 193 0
169 192 0
168 192 0
169 192 0
168 191 0
170 193 0
168 192 0
167 189 0
170 194 0
174 197 0
169 193 0
166 189 0
169 192 0
168 191 0
171 194 0
168 191 0
166 189 25
144 168 90
118 145 137
71 106 176
63 99 174
62 99 178
63 99 176
64 100 179
62 99 175
63 99 176
63 100 177
62 99 178
62 99 176
62 99 175
62 99 176
62 99 178
62 99 177
62 99 179
62 99 176
62 99 178
63 99 179
63 100 178
62 99 181
62 99 177
62 99 177
63 100 178
62 98 172
61 98 177
62 99 173
62 98 174
62 99 176
62 98 176
62 99 177
62 99 179
63 99 175
62 99 180
62 99 177
62 98 174
62 99 181
62 99 178
62 99 179
62 99 179
62 99 179
62 99 176
62 99 178
63 99 179
62 98 174
62 98 174
62 99 176
62 99 179
62 99 176
62 99 174
63 99 178
62 99 173
61 98 174
62 99 173
62 99 178
63 99 176
62 99 175
62 99 178
62 98 171
62 98 173
62 99 178
63 99 177
62 99 175
62 99 175
61 97 170
62 99 173
61 98 175
62 99 176
62 99 176
62 99 173
63 100 178
62 99 177
62 98 173
63 100 176
62 99 176
63 99 177
62 99 172
62 99 174
62 99 175
62 99 170
62 99 175
62 98 167
62 99 178
62 99 175
61 98 174
63 99 175
62 99 175
61 98 173
62 99 175
62 99 170
62 99 174
62 99 172
63 100 175
62 99 174
62 99 178
62 98 173
62 99 173
62 99 174
62 98 172
62 98 173
62 99 171
62 99 174
61 98 172
62 99 173
62 99 176
62 98 173
63 100 175
62 99 171
61 98 167
62 98 173
62 99 170
62 99 175
62 99 173
63 100 175
62 98 171
62 99 176
62 98 170
62 98 171
62 98 164
62 99 172
62 99 170
63 99 175
63 99 173
62 98 170
62 99 174
62 99 171
61 98 171
63 99 173
62 99 166
62 98 168
62 98 172
62 98 174
64 100 175
61 98 167
62 99 166
63 99 171
63 99 175
63 99 175
63 99 172
63 99 174
62 99 171
62 99 172
62 98 167
62 99 170
62 99 169
63 99 175
62 99 167
62 98 168
62 98 168
62 98 168
62 99 169
62 98 169
61 97 163
62 99 170
62 98 167
62 98 165
62 97 157
62 97 155
62 98 164
62 97 162
61 96 152
60 95 161
62 97 165
61 97 157
61 96 154
63 99 170
61 95 157
60 94 148
60 95 154
61 95 156
59 93 155
61 96 161
60 93 146
56 82 124
59 75 92
47 60 69
52 59 39
59 64 34
53 60 36
71 73 39
60 66 40
55 63 35
66 71 43
74 78 44
75 78 45
80 84 47
77 80 42
79 82 50
79 83 50
82 85 48
101 102 57
94 96 50
95 97 55
111 111 61
104 104 51
118 117 63
110 110 61
117 117 61
114 115 60
117 117 62
132 130 70
113 112 61
119 117 66
124 123 72
123 123 66
128 128 70
128 126 71
118 118 65
136 133 72
145 142 83
139 136 74
134 133 74
145 142 74
134 131 73
151 147 83
144 140 75
147 143 78
146 143 81
155 150 83
161 155 85
157 152 75
144 141 74
158 153 78
140 137 76
160 154 79
153 148 70
160 154 80
162 156 81
154 151 74
152 148 70
161 155 82
166 160 87
156 151 78
164 159 82
159 153 76
164 159 81
155 151 70
167 161 81
161 155 79
162 157 80
163 157 82
162 156 77
161 155 74
168 161 83
159 153 75
165 159 85
167 160 81
167 161 80
162 156 78
167 161 82
160 155 74
164 158 77
166 159 83
160 154 76
160 154 74
165 158 84
162 155 78
161 154 75
165 158 79
167 160 80
165 159 84
166 160 79
167 160 81
163 157 73
161 154 78
163 156 80
163 156 75
161 156 77
163 156 80
156 150 75
164 157 79
160 154 76
163 157 77
156 150 65
157 150 74
157 150 73
158 151 78
152 147 67
155 148 72
147 142 62
149 143 62
151 145 66
156 149 68
148 143 56
159 152 75
152 146 63
149 143 64
147 141 62
148 142 61
148 141 67
141 136 62
146 139 65
148 140 66
133 127 53
148 143 60
137 135 56
141 139 52
136 136 47
141 143 47
151 155 47
154 163 44
147 157 25
155 168 28
159 174 22
161 174 32
165 183 28
162 181 22
166 185 19
168 189 0
170 190 0
171 191 0
171 192 0
172 193 0
173 196 0
170 194 0
171 195 0
171 195 0
173 197 0
173 197 0
172 196 0
171 195 0
170 194 0
171 195 0
173 195 0
171 195 0
173 196 0
173 196 0
170 194 0
174 197 0
170 193 0
173 197 0
171 195 0
171 194 0
172 195 0
175 198 0
174 197 0
168 191 0
171 193 0
170 192 0
171 194 0
169 192 0
173 196 0
171 195 0
170 194 0
172 195 0
171 195 0
172 196 0
171 194 0
169 192 0
168 192 0
172 196 0
169 192 0
171 193 0
169 193 0
168 191 0
171 195 0
172 196 0
169 193 0
171 194 0
168 192 0
170 194 0
170 194 0
170 192 0
170 192 0
169 192 0
171 194 0
168 191 0
170 193 0
168 191 0
170 193 0
174 197 0
171 194 0
171 194 0
171 194 0
168 191 0
171 194 0
167 190 0
169 192 0
170 192 0
170 192 0
170 194 0
169 192 0
171 193 0
171 194 0
171 194 0
171 194 0
172 194 0
168 193 0
172 195 0
170 193 0
169 192 0
167 190 0
168 192 0
166 189 0
166 189 0
167 190 0
168 192 0
173 195 0
170 193 0
140 164 105
99 127 153
63 100 177
63 99 177
63 100 179
62 99 175
63 99 177
62 99 174
63 100 175
63 100 179
62 99 179
62 99 174
62 99 174
62 99 177
63 99 176
62 99 175
62 98 176
62 99 174
62 98 174
63 99 178
63 100 176
62 99 179
62 99 173
62 99 173
62 99 176
61 98 176
61 98 176
62 99 178
61 98 171
62 99 172
62 99 179
62 99 175
62 99 175
62 99 178
62 99 179
62 99 177
62 98 173
61 98 176
62 99 178
62 99 174
61 98 174
62 99 175
62 98 175
61 98 177
62 99 178
61 98 175
61 98 173
62 99 174
61 98 174
61 98 173
62 99 175
62 98 173
62 99 176
62 99 175
61 98 175
62 99 175
62 99 179
62 99 176
62 99 174
62 99 177
61 98 177
62 99 172
61 98 172
62 99 177
61 98 170
62 99 173
62 98 173
62 99 174
62 99 176
62 99 178
62 99 176
62 99 177
62 98 170
62 99 177
62 99 174
62 98 170
62 99 177
62 99 176
62 99 174
63 99 173
63 99 178
62 99 171
62 99 175
62 99 178
61 98 175
62 99 174
62 99 178
62 99 172
62 98 172
63 99 176
62 99 178
62 98 173
63 100 176
62 99 175
62 98 172
62 99 172
63 100 178
62 99 175
62 99 171
61 98 167
61 98 171
62 99 177
62 99 171
62 99 175
62 99 176
62 99 173
62 99 175
62 99 175
62 99 174
62 99 172
62 99 173
62 99 171
62 99 177
63 99 177
62 99 173
62 99 173
62 99 173
63 99 177
63 99 173
62 98 164
62 99 172
62 99 173
62 99 170
62 98 171
63 99 172
62 99 170
62 99 169
63 99 176
62 99 173
61 98 166
62 99 172
61 98 169
62 99 170
62 98 165
62 98 171
62 98 169
62 99 174
63 99 177
63 100 174
62 99 169
62 99 167
62 98 169
62 98 167
63 99 172
62 98 167
62 98 166
62 98 168
62 99 168
61 98 165
62 98 168
62 98 162
62 98 170
62 98 162
61 98 163
62 97 164
63 99 169
62 98 167
60 96 157
61 97 165
61 96 162
61 97 161
61 96 160
62 98 166
61 97 162
61 97 161
61 96 153
61 97 161
61 96 159
61 96 160
61 96 154
60 95 155
60 94 151
60 94 156
60 94 150
58 87 131
57 76 106
50 63 64
50 55 34
56 61 32
55 58 29
64 69 27
62 67 37
59 66 39
68 72 41
74 78 44
70 76 52
80 82 44
82 86 45
82 87 45
82 86 41
100 101 52
97 98 53
104 106 56
102 103 63
113 114 66
106 106 54
101 103 58
112 113 59
111 111 67
110 110 56
116 117 64
124 122 59
115 116 63
126 125 66
125 124 63
135 132 71
126 125 64
126 125 71
128 127 62
125 124 62
140 137 75
141 138 78
147 143 80
145 142 71
141 138 73
142 138 71
149 145 74
152 148 75
146 143 75
145 141 72
152 148 72
148 144 76
153 149 81
153 148 78
151 146 75
159 153 80
156 151 84
153 148 77
153 148 73
161 155 81
164 157 80
157 152 80
153 148 74
158 153 78
163 156 81
157 152 79
164 158 85
160 154 78
162 156 81
161 155 80
165 159 82
157 151 75
163 157 82
173 165 90
162 156 79
165 159 82
159 154 72
170 163 80
165 159 81
161 155 75
166 160 77
167 160 75
163 157 77
164 158 80
159 153 72
167 161 81
169 161 86
170 164 84
159 152 80
165 159 80
161 153 77
160 154 72
160 154 67
153 147 70
156 149 74
158 152 73
158 152 71
156 150 72
164 158 78
158 151 71
156 150 75
166 159 80
162 155 75
157 150 69
153 147 65
161 155 74
154 148 66
152 147 68
149 144 60
161 155 70
159 152 80
148 143 67
148 143 60
145 139 66
157 151 66
147 142 61
152 147 59
146 141 63
157 151 67
147 142 63
144 139 60
144 136 53
147 140 59
142 137 53
141 135 57
134 129 51
142 140 51
141 140 51
145 147 49
144 149 34
144 150 36
153 161 39
151 160 41
154 168 30
161 176 22
163 179 25
164 180 30
168 186 19
167 185 0
166 186 0
173 194 0
169 192 0
169 192 0
171 193 0
174 197 0
169 193 0
172 195 0
171 194 0
172 195 0
172 195 0
172 196 0
170 194 0
170 194 0
170 193 0
173 195 0
171 194 0
171 195 0
171 195 0
169 193 0
174 197 0
172 196 0
172 195 0
171 195 0
170 193 0
171 195 0
171 195 0
173 196 0
171 195 0
170 194 0
172 195 0
171 195 0
172 195 0
173 196 0
168 192 0
172 196 0
172 195 0
168 191 0
171 195 0
170 194 0
170 194 0
170 194 0
173 196 0
171 194 0
169 192 0
171 195 0
168 192 0
171 194 0
170 194 0
171 193 0
169 193 0
169 192 0
170 194 0
169 193 0
174 197 0
170 193 0
171 194 0
166 188 0
169 194 0
168 192 0
168 192 0
168 191 0
173 196 0
174 197 0
169 191 0
172 195 0
170 193 0
166 188 0
171 194 0
170 194 0
171 194 0
171 195 0
169 191 0
170 192 0
169 192 0
167 189 0
169 192 0
171 193 0
170 193 0
169 193 0
169 192 0
167 190 0
168 191 0
169 193 0
170 194 0
167 191 0
169 192 0
170 193 0
167 189 0
163 187 0
166 190 36
135 161 117
88 118 161
63 100 174
62 99 170
62 99 177
63 100 178
63 100 177
63 100 177
62 98 170
63 99 174
63 100 178
63 100 180
62 99 176
63 99 179
62 98 175
62 98 174
62 99 178
62 99 175
62 99 174
62 98 176
63 100 176
62 99 177
62 99 174
63 99 178
63 100 177
62 99 175
62 99 175
62 98 171
62 99 178
62 99 179
62 99 175
62 98 174
62 99 174
62 99 174
62 99 175
62 99 176
62 99 174
62 99 179
61 98 174
62 99 174
62 99 175
61 98 175
62 99 173
62 98 175
62 99 176
62 99 173
62 99 179
62 98 175
62 99 176
62 99 176
62 99 180
62 98 174
62 99 175
62 99 175
62 99 176
62 99 174
62 99 178
62 99 176
62 99 176
62 99 175
62 98 174
62 99 173
62 99 179
62 99 175
61 98 172
62 99 175
62 99 173
62 98 173
62 99 176
62 99 174
62 99 175
62 99 176
62 99 178
62 99 175
62 98 175
62 99 174
62 99 174
62 99 175
62 99 174
62 99 171
62 99 173
62 99 175
62 99 177
61 98 172
61 98 171
62 99 174
61 98 172
62 99 174
61 98 167
62 99 172
62 99 172
62 98 172
62 98 175
63 100 175
61 98 176
62 99 172
62 99 173
63 99 174
62 99 173
62 99 174
62 99 177
62 99 171
63 99 174
62 98 170
62 99 173
63 99 171
62 99 174
62 99 171
62 98 169
62 99 172
62 99 173
61 98 169
62 98 171
62 99 174
62 98 168
62 98 168
63 99 172
63 99 176
62 98 169
62 99 171
63 99 175
62 99 171
62 99 172
62 99 172
62 99 170
62 99 173
63 99 172
62 99 172
62 98 169
62 99 171
62 99 172
62 98 167
62 98 169
62 98 167
63 99 171
62 99 169
62 98 171
62 98 169
62 98 174
62 99 173
62 98 166
62 98 166
63 99 171
61 97 161
62 98 167
62 99 168
63 99 171
62 99 171
61 98 163
63 99 169
61 98 165
62 98 161
63 99 167
61 98 161
62 98 166
62 98 167
61 97 162
61 97 164
61 97 159
61 97 162
62 98 165
61 96 160
60 96 156
60 95 151
62 97 160
62 98 163
60 96 157
61 97 161
61 96 158
60 95 157
61 95 154
60 95 146
60 95 152
59 93 148
59 89 135
56 78 110
49 64 81
52 62 50
56 60 30
53 58 28
59 64 33
64 68 37
67 69 34
71 75 38
68 73 44
58 65 38
75 78 45
89 90 45
93 96 53
85 88 49
90 94 50
94 95 50
94 95 51
91 94 49
105 106 61
106 107 59
112 112 62
109 109 56
106 106 52
113 112 57
117 117 65
110 110 61
114 115 57
115 116 63
129 127 66
127 126 62
115 115 62
137 135 65
130 128 68
134 132 70
131 129 68
140 137 70
142 138 72
139 137 71
140 137 78
141 137 67
143 138 68
144 142 75
139 136 64
143 139 71
150 145 77
152 148 76
146 143 70
151 146 75
157 151 77
160 154 81
158 154 80
156 152 76
159 153 78
156 151 76
163 157 81
159 154 77
160 155 78
164 157 82
161 156 78
160 155 76
157 152 74
157 152 68
161 156 72
156 150 75
167 160 81
163 157 73
164 157 87
157 152 71
166 159 82
161 156 80
167 160 82
165 158 76
162 155 78
162 155 78
160 154 76
164 157 77
165 158 79
162 156 73
162 156 79
159 153 75
164 157 82
158 153 69
161 154 70
161 154 75
155 150 71
163 156 76
165 158 78
160 153 80
159 153 79
160 154 73
161 155 72
157 151 67
158 151 75
166 158 83
154 148 66
162 155 76
158 151 75
151 144 69
152 147 72
154 148 72
162 155 72
154 148 71
158 151 78
157 151 66
156 148 68
152 145 68
151 144 68
153 148 66
153 146 72
150 143 66
151 145 65
150 144 67
138 133 58
132 128 53
144 139 56
146 140 57
149 141 62
142 136 57
141 137 57
140 135 56
138 136 52
138 138 47
139 142 39
141 144 28
147 154 34
154 163 37
152 161 37
161 178 30
156 172 19
157 174 22
163 181 19
161 178 11
164 182 11
170 191 0
168 189 0
167 188 0
170 191 0
170 190 0
173 196 0
172 195 0
172 195 0
170 194 0
174 197 0
175 198 0
171 194 0
171 195 0
173 196 0
173 196 0
172 195 0
169 193 0
172 196 0
171 195 0
173 195 0
170 194 0
173 197 0
172 194 0
170 193 0
171 194 0
172 195 0
172 195 0
170 194 0
170 193 0
171 194 0
173 197 0
172 195 0
173 196 0
172 194 0
170 194 0
166 189 0
171 195 0
168 191 0
169 192 0
174 197 0
169 193 0
170 194 0
171 195 0
171 194 0
171 195 0
171 195 0
169 192 0
174 197 0
173 196 0
171 194 0
168 191 0
170 193 0
173 196 0
171 194 0
170 194 0
171 194 0
170 194 0
170 194 0
167 190 0
171 195 0
170 193 0
166 190 0
168 192 0
169 192 0
169 193 0
167 191 0
168 192 0
168 191 0
167 191 0
170 193 0
172 195 0
169 192 0
167 190 0
171 194 0
171 194 0
172 195 0
169 192 0
169 192 0
169 191 0
170 192 0
171 193 0
171 194 0
170 192 0
169 192 0
172 195 0
161 185 0
163 186 0
171 195 0
170 193 0
167 191 18
152 175 74
117 143 137
75 108 171
63 99 173
63 100 179
63 100 178
63 100 176
63 99 172
63 99 174
63 100 177
62 99 175
62 98 171
63 100 178
62 99 176
63 100 179
63 100 178
62 99 175
62 99 178
62 99 175
61 98 175
62 99 177
61 97 170
62 99 173
63 99 179
62 99 174
62 99 175
62 99 177
61 98 173
62 99 176
62 99 177
62 99 176
62 99 176
63 99 177
62 99 179
62 99 174
63 100 178
62 99 179
62 99 176
62 99 176
62 99 175
62 99 175
62 99 174
62 99 176
62 99 173
62 99 173
63 99 174
62 99 176
62 99 177
62 98 173
62 99 174
62 99 175
62 99 174
63 100 178
63 100 178
62 99 176
62 99 176
62 99 174
63 99 175
62 98 174
62 98 170
62 99 175
62 99 173
62 99 175
62 99 170
61 98 174
63 99 177
62 99 177
62 99 177
62 99 177
62 99 171
62 99 178
62 99 177
62 99 176
62 99 179
62 99 178
62 99 176
62 99 171
61 98 174
62 99 172
62 99 175
61 98 175
62 99 173
61 97 164
62 99 178
62 99 172
62 99 176
61 98 166
63 99 173
62 98 167
62 99 174
62 99 177
62 99 171
62 98 168
61 98 172
61 98 173
61 98 169
62 99 175
62 99 177
63 99 177
63 100 176
62 98 169
62 99 173
62 99 175
62 98 171
62 99 174
62 98 171
61 98 169
62 98 173
62 99 173
62 99 170
63 99 174
61 97 169
63 99 174
62 99 170
61 98 166
62 99 173
62 98 168
63 100 175
62 98 170
62 99 170
62 99 171
62 99 170
61 98 172
62 98 164
62 99 170
61 98 168
62 98 171
62 99 168
62 99 169
63 100 175
63 99 170
63 99 174
63 99 173
63 99 175
63 99 174
62 99 168
62 99 168
63 99 172
62 98 165
62 98 169
61 98 169
62 98 165
62 99 167
62 99 169
62 99 168
63 99 171
62 98 168
62 99 166
62 98 165
62 98 168
62 98 172
61 97 156
63 99 168
62 98 161
63 99 169
61 98 164
62 98 169
60 96 161
63 99 173
62 98 165
62 98 164
61 97 158
61 97 164
61 97 160
62 97 161
61 97 167
61 96 157
60 96 149
61 96 155
60 95 154
62 97 159
62 97 167
60 95 150
59 93 145
61 95 153
61 93 152
51 76 114
63 80 94
51 59 47
52 58 31
63 66 30
65 68 24
67 71 40
68 72 37
65 70 40
69 75 42
80 83 38
85 88 47
64 68 40
97 98 55
94 94 52
88 91 53
89 92 48
97 99 55
100 102 57
98 101 53
110 111 61
112 113 57
114 113 61
108 108 55
105 106 59
121 119 66
116 115 65
119 118 58
122 122 62
126 125 63
137 134 68
118 118 66
125 124 63
133 130 67
136 134 74
132 129 68
135 132 69
131 130 68
132 130 68
139 136 71
146 142 76
143 140 68
143 139 78
148 144 72
142 139 73
144 141 73
148 143 71
154 149 75
158 151 79
146 142 73
153 149 74
150 145 74
147 144 71
161 155 78
155 150 76
158 152 81
153 149 78
160 154 77
157 152 79
160 154 79
162 156 81
162 157 80
163 157 78
158 153 69
162 156 73
170 162 84
158 152 78
163 157 76
166 159 82
160 154 78
159 153 74
164 158 82
159 152 77
162 156 74
168 160 86
161 155 77
163 157 78
162 156 76
163 157 79
159 154 72
164 157 79
160 154 71
162 156 77
163 156 70
159 152 71
161 155 79
162 155 78
158 152 71
163 156 79
158 152 68
154 147 67
166 158 80
158 151 79
164 156 78
158 152 68
154 149 65
155 149 66
155 148 72
157 151 74
158 151 69
155 149 71
152 147 65
155 149 75
158 151 75
152 145 68
145 140 57
146 141 62
156 149 71
151 145 66
143 136 67
148 143 62
150 144 63
145 140 61
145 140 54
138 134 52
141 135 59
145 139 58
149 143 66
131 126 49
151 145 65
139 135 57
132 130 44
135 135 42
142 145 47
150 156 42
150 158 36
153 162 39
149 160 32
163 180 28
159 172 25
160 178 16
164 183 16
169 188 11
169 190 0
172 194 0
171 192 0
172 192 0
171 192 0
170 191 0
173 197 0
171 195 0
173 197 0
170 194 0
173 196 0
174 197 0
173 196 0
173 196 0
169 194 0
171 195 0
172 196 0
171 194 0
172 195 0
168 192 0
170 194 0
170 193 0
172 196 0
172 196 0
172 195 0
169 193 0
170 194 0
171 194 0
171 195 0
172 196 0
170 192 0
172 195 0
169 193 0
172 194 0
172 194 0
169 193 0
172 196 0
168 191 0
170 193 0
169 193 0
169 192 0
167 190 0
165 189 0
170 194 0
170 193 0
170 192 0
172 195 0
167 190 0
170 194 0
172 196 0
170 193 0
168 192 0
172 196 0
169 192 0
168 191 0
169 192 0
171 193 0
169 193 0
171 195 0
173 196 0
167 191 0
170 193 0
168 191 0
170 192 0
170 193 0
167 191 0
173 196 0
169 193 0
167 190 0
167 191 0
170 193 0
172 196 0
167 190 0
171 194 0
170 193 0
170 194 0
168 191 0
169 194 0
168 191 0
167 190 0
168 192 0
170 194 0
169 192 0
170 194 0
167 190 0
168 191 0
170 193 0
166 189 0
169 192 0
170 193 0
165 188 18
159 183 70
119 145 137
65 101 172
63 100 176
64 101 179
63 100 177
63 100 174
63 100 177
63 99 174
63 100 177
62 99 177
63 100 176
62 99 173
62 99 176
62 99 176
62 99 174
62 99 178
63 99 176
62 99 174
62 99 176
63 99 176
62 99 176
62 99 176
62 99 177
62 99 176
62 99 177
62 99 178
62 99 178
63 99 175
62 99 176
62 99 177
62 98 172
62 99 176
63 99 178
62 99 179
62 99 173
63 99 178
63 100 177
62 99 174
62 99 176
62 99 179
62 99 178
63 99 172
63 100 177
62 99 176
62 99 175
62 99 175
61 98 173
63 100 177
62 99 176
62 99 177
62 98 174
62 99 174
62 98 172
62 99 176
62 99 174
62 99 174
62 99 178
62 99 176
61 98 175
61 98 173
62 99 176
62 99 176
62 99 176
63 99 176
62 99 178
63 100 178
61 98 173
62 99 174
62 99 175
62 99 172
62 98 173
62 99 174
62 98 168
62 99 177
62 99 177
63 99 172
62 99 172
62 98 168
63 99 171
63 99 172
62 99 175
62 99 178
62 99 176
62 98 170
61 98 173
61 98 172
62 99 170
62 99 173
62 99 172
62 98 167
62 99 175
62 99 177
63 99 173
62 99 170
61 98 175
63 99 172
62 98 173
62 99 170
61 98 170
62 99 174
62 99 174
63 99 173
61 97 166
62 99 171
62 99 174
62 99 171
63 99 177
62 99 173
62 99 173
63 99 176
62 98 168
62 99 172
62 99 173
63 99 177
63 99 172
62 99 171
62 99 171
62 98 171
62 98 169
62 99 172
62 99 173
63 99 174
63 99 175
62 98 171
63 99 174
62 99 169
62 99 166
62 99 172
62 99 169
61 98 165
61 97 166
62 98 169
63 99 171
62 99 168
62 99 174
62 98 166
61 98 166
62 99 172
62 98 166
63 99 172
62 99 166
62 99 172
61 97 165
61 97 159
63 99 171
61 98 169
62 99 171
61 97 159
62 98 168
61 97 162
61 97 161
61 98 167
62 98 163
62 98 162
62 98 158
62 98 161
62 99 170
62 98 164
61 97 155
61 96 162
62 97 162
62 98 160
61 97 161
62 98 167
62 98 162
61 96 156
61 97 159
61 96 160
62 97 162
60 95 149
61 96 157
59 93 143
61 96 157
59 92 147
60 93 150
54 81 118
56 74 91
59 67 58
57 63 43
58 63 33
66 67 30
74 76 37
66 71 30
76 79 37
61 66 31
79 82 44
69 74 41
74 77 44
76 79 39
93 95 48
81 84 44
92 94 52
80 84 47
101 102 50
106 107 55
108 109 58
109 109 52
112 112 55
113 112 50
109 109 53
110 109 62
119 118 58
114 114 58
124 123 63
130 129 69
134 131 68
129 127 64
123 122 62
134 132 66
141 138 74
133 131 65
137 135 71
135 132 67
145 141 75
141 137 70
137 134 71
141 138 76
150 146 76
146 143 71
147 143 71
145 142 68
151 146 73
152 148 69
152 147 73
159 154 75
152 147 73
158 153 76
148 144 61
156 150 70
165 159 81
152 147 71
156 151 83
165 158 80
157 152 73
159 153 76
155 150 69
164 157 81
162 156 80
159 153 73
161 155 84
156 151 68
164 157 78
157 150 68
162 156 77
164 158 77
168 160 86
153 147 71
161 155 72
159 154 72
166 160 75
161 155 80
166 159 82
169 162 86
165 157 77
161 155 79
158 152 70
157 152 76
161 155 73
162 156 80
156 151 71
160 154 74
165 157 75
154 148 71
152 146 70
155 149 63
155 150 71
150 145 61
156 150 65
158 151 70
153 147 69
151 145 64
156 150 69
147 142 52
152 146 65
155 148 67
156 151 64
155 148 67
155 150 65
152 146 68
156 150 71
147 142 60
149 143 70
158 150 73
155 148 67
149 144 69
150 145 65
152 147 73
148 141 59
145 139 61
137 132 51
142 136 58
135 129 51
138 133 53
135 129 52
145 141 58
145 140 54
143 144 44
147 150 42
139 142 44
142 149 36
145 155 28
151 159 37
159 171 39
163 179 28
162 178 25
166 184 22
164 183 19
169 188 11
167 187 0
171 192 0
172 193 0
171 192 0
171 192 0
172 193 0
171 194 0
174 197 0
172 195 0
172 195 0
165 188 0
173 196 0
170 193 0
169 193 0
172 195 0
170 194 0
169 192 0
170 193 0
170 194 0
171 195 0
168 192 0
173 196 0
172 195 0
169 193 0
170 194 0
169 193 0
171 194 0
172 195 0
170 194 0
170 193 0
171 194 0
174 197 0
169 193 0
170 194 0
172 196 0
172 195 0
169 192 0
171 194 0
171 194 0
173 196 0
171 195 0
170 193 0
172 196 0
168 192 0
171 195 0
171 194 0
169 192 0
170 194 0
169 193 0
172 195 0
168 191 0
169 192 0
167 192 0
172 195 0
171 195 0
172 195 0
169 192 0
171 194 0
170 194 0
170 193 0
170 192 0
167 190 0
172 195 0
167 190 0
171 194 0
170 194 0
169 192 0
169 192 0
170 193 0
167 191 0
166 190 0
167 190 0
167 190 0
172 196 0
173 196 0
168 191 0
168 193 0
167 191 0
168 192 0
171 195 0
168 192 0
170 193 0
168 192 0
170 193 0
171 194 0
168 192 0
170 193 0
173 195 0
172 195 0
165 188 0
163 186 36
146 171 99
105 133 144
63 100 176
63 100 178
63 99 176
63 100 177
63 100 178
63 99 177
63 100 178
62 99 172
63 99 178
63 100 178
63 99 176
62 99 177
63 99 177
62 99 180
62 99 176
62 99 175
62 99 178
62 99 173
62 99 178
63 100 179
62 99 173
62 99 176
62 98 176
62 99 178
62 99 173
63 99 176
62 99 177
61 97 172
61 98 175
62 99 174
61 98 173
62 99 175
62 99 179
61 98 171
62 99 178
62 98 175
62 99 175
62 99 174
62 99 174
62 98 175
62 99 177
62 99 175
62 99 172
62 98 174
62 99 176
62 99 179
62 99 178
61 98 172
62 99 174
62 99 173
62 99 177
62 99 176
62 98 173
62 99 173
62 98 173
61 98 171
62 99 170
62 99 176
62 99 177
62 99 175
62 99 175
62 99 177
62 99 177
62 99 177
62 99 173
62 99 177
62 98 173
62 99 173
62 99 178
62 98 172
62 99 172
62 99 175
61 98 171
61 99 178
62 99 172
62 99 173
63 99 174
63 99 176
62 99 176
62 99 174
62 99 175
62 99 176
62 99 174
63 99 173
62 99 172
62 99 171
62 99 171
62 99 174
61 98 171
63 99 175
62 99 175
62 99 169
62 99 170
61 98 173
62 99 176
62 99 176
62 99 172
62 99 173
62 99 175
62 99 176
62 98 169
62 99 172
62 99 171
62 99 176
62 98 168
61 98 166
61 98 172
63 99 174
62 98 170
63 99 175
62 99 168
62 99 172
62 99 168
63 99 173
62 99 171
62 99 172
62 99 176
62 99 170
62 98 170
62 99 173
62 99 169
62 98 166
62 99 169
61 98 166
62 99 174
62 99 171
61 98 163
62 98 172
63 100 175
63 99 174
62 99 170
63 99 170
62 98 167
62 99 170
61 98 166
62 98 167
61 98 167
63 99 176
62 98 169
62 98 163
62 99 172
62 98 167
62 98 166
62 98 166
62 98 163
62 98 169
62 98 164
62 98 166
63 99 169
62 98 162
62 98 160
61 98 169
62 97 159
62 98 161
61 96 155
61 97 160
62 98 164
63 99 170
62 98 169
61 97 158
61 97 158
62 98 164
63 99 169
61 97 160
61 97 159
60 96 158
61 97 163
61 96 159
61 96 155
61 95 154
61 96 154
58 92 143
58 91 141
60 94 147
56 86 135
55 78 104
63 75 83
52 59 32
62 65 28
56 60 30
75 77 34
76 80 41
71 73 35
54 62 41
72 76 42
72 77 45
73 76 42
86 89 46
92 93 48
98 100 51
88 90 51
85 89 52
100 99 47
97 99 45
106 106 51
100 101 59
111 111 54
115 113 59
113 113 53
113 113 56
119 118 58
124 124 64
125 122 61
116 116 54
128 126 65
121 120 67
135 133 70
136 132 69
134 132 67
129 127 58
128 126 68
141 137 72
137 134 67
138 135 72
131 128 61
145 142 65
139 137 65
152 148 71
151 147 75
152 148 79
152 147 76
149 145 74
147 143 64
149 144 72
143 139 71
154 149 73
164 159 76
153 148 76
150 146 78
158 153 76
160 154 75
156 151 75
161 155 80
157 151 77
160 154 71
159 153 75
159 152 74
165 159 83
160 154 72
158 152 75
162 156 77
163 157 73
153 148 75
163 156 78
157 152 71
165 160 77
160 154 67
163 157 74
162 155 77
160 154 75
162 156 78
162 155 73
161 154 75
164 156 76
161 156 72
162 156 76
157 151 69
163 157 70
154 149 72
163 156 76
157 151 70
157 152 65
160 153 67
161 154 79
162 156 77
158 153 64
157 151 65
156 150 67
150 145 64
154 147 73
155 149 63
149 143 63
152 145 65
145 139 63
151 144 63
153 147 63
150 144 66
146 141 62
154 148 65
151 146 60
143 138 56
149 143 64
151 146 68
147 141 62
143 138 57
149 144 59
142 135 57
146 140 64
136 129 52
145 140 58
138 133 56
142 136 63
139 134 49
133 131 49
143 143 56
136 140 39
138 142 37
150 154 52
154 162 45
153 164 28
159 174 19
161 173 32
155 169 30
159 176 16
166 185 22
165 183 19
165 185 11
168 189 0
171 192 0
170 191 0
169 189 0
165 185 0
168 187 0
172 195 0
172 196 0
172 195 0
172 194 0
171 195 0
170 194 0
171 196 0
168 192 0
170 194 0
166 190 0
171 195 0
175 198 0
172 196 0
171 194 0
171 195 0
171 194 0
168 193 0
171 194 0
170 194 0
174 197 0
171 195 0
173 196 0
172 195 0
171 195 0
171 195 0
173 197 0
167 191 0
173 196 0
170 193 0
172 196 0
172 196 0
171 194 0
170 193 0
168 191 0
169 193 0
173 195 0
173 195 0
171 194 0
168 192 0
170 193 0
173 196 0
172 195 0
168 190 0
168 191 0
172 196 0
172 195 0
171 194 0
166 190 0
172 196 0
164 189 0
170 193 0
170 192 0
170 194 0
169 193 0
168 192 0
170 193 0
173 196 0
168 191 0
168 191 0
168 191 0
168 192 0
167 190 0
167 190 0
168 192 0
168 191 0
166 190 0
166 189 0
172 195 0
172 195 0
169 190 0
167 190 0
168 190 0
163 186 0
171 194 0
171 194 0
168 192 0
168 192 0
173 196 0
164 187 0
170 193 0
168 192 0
168 191 0
168 192 0
170 193 0
160 184 54
140 165 100
100 129 152
63 100 178
63 100 177
63 100 176
64 100 174
63 100 176
63 100 177
62 99 175
63 100 179
62 99 175
63 99 175
62 99 176
62 99 177
62 99 173
61 98 176
62 99 175
62 99 175
62 99 173
63 99 176
63 100 178
62 99 177
62 99 176
63 99 179
61 99 176
62 98 173
62 99 177
63 99 176
62 98 174
61 98 171
63 99 178
62 98 172
62 98 171
62 99 173
62 99 176
63 99 177
62 99 176
62 99 175
62 99 175
62 99 177
62 99 175
62 99 176
62 99 177
62 99 175
62 99 174
62 99 173
62 99 172
62 99 177
62 99 176
61 98 174
61 98 174
63 99 174
62 98 171
62 98 174
62 99 175
62 98 174
62 99 175
63 100 177
62 99 172
62 99 176
62 98 172
62 98 174
62 99 175
61 98 174
62 99 172
62 98 177
63 100 178
61 98 173
62 98 170
62 99 175
62 99 172
62 99 175
63 99 173
62 99 176
63 99 176
63 99 176
62 99 171
62 99 172
61 98 172
62 99 173
62 99 173
62 99 172
62 99 177
62 99 174
61 97 164
63 99 177
62 99 173
62 99 171
62 98 170
63 99 172
61 98 169
62 99 170
62 99 172
62 99 170
62 99 170
62 99 171
62 98 168
62 98 166
62 99 169
62 99 171
62 98 171
62 98 170
63 100 173
62 98 165
62 99 171
63 99 174
62 99 175
62 99 170
61 98 173
61 98 170
62 99 167
62 98 169
62 99 172
62 99 171
62 99 170
63 99 172
62 99 171
61 98 167
62 98 166
62 99 171
61 98 167
62 98 167
62 99 175
62 98 170
62 99 170
62 99 168
63 99 172
64 100 175
61 97 162
62 98 166
61 98 171
62 99 168
61 98 164
63 99 171
62 98 167
62 99 174
62 99 170
62 99 167
63 99 174
62 99 171
62 99 168
62 98 173
63 99 168
61 98 167
62 98 163
62 99 169
61 97 161
62 98 159
61 98 165
61 97 164
62 98 159
62 98 164
61 97 162
62 98 168
61 97 161
63 99 166
62 98 166
61 98 163
62 98 162
62 98 158
62 98 171
62 98 162
62 97 160
62 97 158
62 98 163
61 96 159
62 98 162
62 97 160
61 97 160
61 96 153
61 96 157
61 96 154
60 94 156
59 93 139
60 94 155
59 93 151
60 89 132
64 82 96
64 75 78
56 63 48
65 68 26
56 58 21
78 81 31
73 76 39
66 71 36
80 83 40
95 95 44
74 78 44
84 87 45
80 84 47
84 87 47
89 90 47
96 98 48
89 91 50
95 97 40
94 94 48
103 103 49
113 112 56
109 110 56
105 104 54
107 106 53
131 129 56
122 120 57
118 117 60
119 119 65
130 128 68
123 122 64
112 113 59
125 124 62
126 125 62
128 127 59
135 132 66
127 125 68
138 136 64
141 137 64
140 136 69
146 142 69
136 133 69
151 146 74
140 137 68
152 148 78
144 140 73
149 145 69
161 155 76
148 143 67
152 147 67
153 148 74
157 151 71
150 145 77
155 150 79
154 149 70
156 151 73
155 149 73
153 148 74
161 155 82
163 156 75
157 152 71
153 148 67
161 155 81
165 158 75
163 156 72
157 152 70
165 159 80
162 156 76
160 154 78
157 151 68
161 154 77
165 157 81
160 155 73
161 155 75
165 158 82
157 152 74
160 154 67
161 155 74
162 156 77
163 157 75
160 153 67
161 154 75
150 145 63
159 152 72
163 157 75
157 151 62
153 148 64
162 155 75
157 151 67
158 152 70
156 149 67
161 154 75
150 145 57
161 153 74
158 151 71
155 149 65
155 148 64
156 150 70
156 151 69
156 149 70
146 140 60
153 147 61
151 146 66
148 142 65
148 142 62
146 139 61
143 137 60
149 145 57
146 140 58
138 132 54
143 137 48
143 137 54
147 141 62
143 138 53
134 129 47
137 130 59
138 132 54
133 129 49
133 129 48
137 134 51
141 142 44
151 153 49
151 154 44
150 154 47
150 161 30
148 160 32
155 167 28
157 169 19
159 175 25
169 186 30
165 184 16
166 186 0
171 193 11
168 188 0
174 195 0
171 192 0
169 190 0
165 185 0
172 193 0
173 196 0
172 195 0
173 196 0
171 194 0
169 192 0
174 197 0
173 197 0
168 193 0
170 195 0
170 193 0
172 195 0
172 196 0
172 195 0
171 194 0
172 195 0
168 192 0
169 194 0
173 196 0
170 193 0
169 192 0
173 196 0
170 193 0
172 196 0
172 196 0
168 191 0
168 192 0
171 195 0
170 194 0
170 193 0
165 189 0
169 193 0
171 194 0
172 195 0
172 195 0
173 196 0
171 194 0
171 193 0
170 194 0
169 192 0
168 192 0
170 193 0
173 196 0
171 195 0
171 194 0
170 194 0
172 195 0
169 192 0
167 190 0
170 194 0
171 193 0
172 195 0
170 194 0
170 193 0
166 189 0
166 189 0
170 192 0
173 197 0
173 196 0
168 191 0
170 194 0
170 193 0
171 194 0
171 194 0
168 191 0
169 193 0
167 191 0
168 191 0
171 195 0
170 193 0
172 195 0
171 194 0
167 191 0
169 192 0
168 191 0
168 191 0
171 193 0
168 190 0
166 189 0
169 192 0
169 193 0
169 191 0
169 192 0
167 191 0
169 192 0
164 187 44
133 158 100
84 115 161
64 100 174
64 100 178
63 100 178
63 99 173
62 99 174
63 99 176
63 100 177
62 99 173
63 100 177
63 99 175
62 99 175
63 99 177
63 100 177
63 99 177
62 99 177
63 99 173
62 99 179
62 99 174
63 100 179
62 99 175
62 99 175
63 99 174
63 99 176
62 99 179
62 98 176
62 99 178
63 100 180
62 98 175
62 99 174
62 99 177
62 99 174
62 99 175
62 99 177
62 98 174
61 98 173
63 100 178
61 98 175
62 99 176
63 99 174
62 99 172
61 98 171
61 98 173
61 97 173
63 99 174
62 99 173
61 98 173
61 98 171
62 99 177
62 99 177
61 98 172
62 99 176
62 99 176
63 100 177
61 98 169
62 99 175
62 99 174
62 99 178
62 98 170
62 99 173
62 99 174
63 99 175
62 99 172
61 98 175
62 99 171
62 99 175
62 99 172
62 99 175
63 99 177
62 98 169
63 100 176
62 99 173
62 99 176
62 98 169
62 99 175
62 99 171
62 99 174
62 99 175
63 99 176
63 99 177
62 99 175
62 99 171
62 99 176
61 98 170
62 99 175
62 99 174
63 99 174
62 99 174
62 99 171
62 99 174
62 99 173
62 99 176
62 99 170
62 99 171
62 99 172
62 98 168
62 98 173
62 99 172
62 99 173
62 99 173
62 99 171
61 97 164
62 99 173
62 99 171
62 99 171
62 98 171
62 99 171
62 99 170
62 99 174
63 99 172
62 98 170
62 98 168
62 99 174
62 98 165
62 98 171
62 98 168
62 98 169
62 98 167
62 99 172
62 99 172
62 99 173
62 99 171
62 99 171
61 98 164
62 98 164
63 99 167
61 98 167
63 99 171
62 98 170
62 98 166
63 99 169
62 98 163
63 100 177
61 97 163
62 99 168
62 98 169
61 97 158
62 98 164
62 98 164
62 99 170
62 98 167
62 98 167
62 98 169
62 98 170
62 98 164
62 97 165
62 98 165
62 99 169
61 97 160
62 98 165
62 98 170
61 97 163
62 98 163
62 98 166
63 99 172
61 97 168
62 98 164
61 97 163
61 97 155
62 98 169
62 97 161
61 97 160
62 98 161
61 97 167
61 97 163
62 97 165
62 97 151
61 96 155
61 97 161
61 97 160
61 95 155
60 95 149
61 95 153
61 96 156
60 93 154
58 90 138
59 79 103
58 73 82
61 68 48
66 71 29
70 71 33
58 62 28
59 64 28
69 70 34
79 81 39
76 80 47
85 87 41
93 94 51
85 87 37
83 84 43
93 94 51
102 100 47
98 99 49
87 90 52
114 114 45
109 109 50
104 105 50
117 117 58
93 96 53
111 112 58
112 113 55
129 126 69
114 112 58
123 121 65
120 118 51
120 119 60
131 129 65
128 125 60
123 122 58
124 122 58
133 131 66
132 129 65
130 128 61
140 138 69
133 131 60
140 137 62
145 141 69
141 137 67
145 142 59
136 133 68
149 144 73
145 140 64
148 144 66
144 141 68
140 137 61
156 151 73
149 145 69
162 156 78
156 151 71
156 151 75
157 152 75
160 154 72
160 154 71
155 151 71
159 152 75
157 152 69
157 151 72
158 152 78
154 149 70
163 155 74
159 154 72
162 156 76
163 156 75
164 157 75
164 157 78
162 155 67
160 155 71
155 150 66
158 153 67
157 151 72
159 153 70
162 155 72
163 156 78
163 157 70
166 160 75
161 155 70
154 148 66
159 153 73
158 153 64
154 148 72
156 149 68
151 146 64
156 150 67
161 155 76
156 150 68
156 149 68
156 150 73
158 151 77
159 152 67
155 149 63
154 148 64
165 157 84
153 148 62
152 146 67
156 149 75
151 145 58
152 147 63
154 148 69
154 148 68
145 139 63
150 144 70
145 138 59
146 141 61
150 144 64
146 140 54
141 135 58
145 140 57
138 132 54
149 143 58
132 126 56
138 133 51
138 132 54
147 140 60
134 131 54
143 141 60
136 137 44
138 142 44
142 145 44
153 164 28
153 164 30
149 159 34
155 169 30
159 175 25
162 179 22
164 183 19
167 185 11
167 186 11
171 192 0
167 188 0
172 194 0
172 193 0
166 187 0
172 195 0
170 191 0
172 195 0
170 194 0
171 195 0
168 192 0
170 193 0
172 194 0
174 197 0
172 195 0
174 197 0
173 195 0
174 197 0
169 192 0
172 195 0
173 196 0
174 196 0
168 192 0
173 196 0
172 195 0
173 196 0
172 195 0
172 194 0
173 196 0
173 196 0
169 192 0
172 196 0
168 192 0
171 195 0
172 195 0
173 196 0
173 196 0
168 192 0
172 196 0
170 194 0
172 195 0
171 195 0
171 195 0
173 196 0
175 198 0
169 193 0
171 195 0
168 192 0
168 192 0
168 191 0
173 196 0
171 194 0
171 194 0
173 196 0
170 194 0
165 189 0
170 194 0
170 194 0
173 196 0
168 190 0
168 191 0
170 193 0
171 195 0
171 194 0
171 194 0
173 196 0
168 191 0
167 190 0
170 194 0
168 192 0
169 192 0
166 189 0
170 194 0
168 191 0
165 189 0
164 188 0
167 190 0
167 190 0
169 192 0
169 192 0
172 196 0
167 190 0
165 189 0
164 188 0
166 189 0
169 192 0
169 192 0
169 192 0
169 192 0
169 192 0
164 186 0
149 172 72
127 152 122
80 112 168
64 100 174
64 100 172
63 99 176
63 100 175
63 100 174
64 100 177
63 99 177
63 100 177
62 99 172
62 98 170
63 99 175
63 100 178
62 99 175
63 100 175
62 99 174
62 99 175
62 98 174
62 98 173
62 99 175
63 100 177
62 99 178
62 98 173
62 99 177
63 100 178
62 99 174
62 99 176
62 99 176
62 99 177
62 99 174
62 99 176
62 99 175
62 99 175
62 99 178
62 99 176
62 99 173
62 98 172
62 99 175
62 99 176
62 99 171
62 99 176
62 99 174
62 99 174
62 99 173
63 99 175
62 99 174
62 98 166
62 99 176
62 99 177
62 99 176
62 99 174
62 99 178
63 99 173
62 99 174
62 98 172
62 99 176
62 99 174
62 99 176
62 99 174
62 99 172
62 99 171
61 98 171
62 99 174
62 99 174
62 99 175
62 99 174
62 99 174
62 98 169
62 99 171
62 99 175
62 99 171
62 98 175
62 99 173
63 100 178
62 99 172
62 99 173
62 98 170
61 98 171
62 99 171
62 99 172
62 99 172
62 99 175
63 99 175
62 99 172
62 99 172
62 99 174
62 99 172
62 98 169
62 98 171
61 98 170
63 99 171
63 100 173
62 99 175
62 99 173
62 99 176
63 100 177
62 99 169
63 99 173
61 98 164
62 98 168
62 98 172
63 99 172
62 98 164
62 99 171
62 99 173
62 99 170
62 98 170
61 98 167
62 99 174
62 99 170
61 97 171
62 99 171
63 99 173
62 98 166
62 99 171
62 98 166
61 98 164
62 98 168
63 99 171
61 97 162
63 99 173
62 98 171
62 98 166
62 98 165
62 99 173
62 99 170
63 99 172
62 99 170
61 98 166
62 99 172
62 98 165
62 99 170
62 98 163
62 98 163
62 98 169
63 99 170
62 98 167
62 98 165
62 98 169
62 98 160
61 97 164
63 99 170
62 98 166
63 99 166
62 99 167
62 98 156
62 98 166
62 98 166
61 97 163
62 98 165
62 98 160
62 98 167
62 98 169
62 98 167
62 98 165
61 97 160
61 96 156
61 97 158
62 98 164
61 97 166
63 99 170
61 97 162
62 97 159
61 97 160
60 95 154
61 97 156
62 98 163
61 97 157
60 94 151
61 96 154
61 96 155
61 95 153
60 94 156
61 95 154
59 93 149
57 90 133
63 87 129
58 74 87
65 71 45
75 78 26
71 74 32
60 64 23
68 70 29
77 78 23
71 75 37
76 79 37
75 78 37
78 82 36
83 86 37
90 91 42
95 96 43
97 97 46
91 93 40
88 91 40
99 101 50
93 95 46
108 108 59
108 107 51
107 108 58
112 111 54
108 108 47
121 119 51
112 111 52
120 119 57
130 128 65
118 117 53
129 125 59
120 119 58
121 120 62
134 132 64
130 128 55
140 136 69
126 125 56
138 135 64
134 132 63
136 133 61
138 135 64
146 141 69
145 140 71
139 136 60
153 148 77
135 133 64
142 139 67
154 148 71
153 147 77
149 145 63
153 148 71
156 150 70
156 151 68
159 153 77
149 144 69
158 153 73
155 149 69
162 156 77
161 155 76
158 152 70
157 152 64
151 147 64
157 152 66
157 151 74
160 154 73
164 157 73
165 158 80
161 155 70
152 147 65
156 150 68
162 155 72
160 153 77
157 151 75
164 158 73
154 149 62
162 156 77
163 157 71
156 150 69
154 149 65
160 153 74
161 154 74
158 153 74
156 149 73
158 151 66
160 154 69
158 150 73
154 148 64
161 154 74
150 145 60
161 155 75
157 151 66
158 152 65
153 147 65
155 148 69
151 145 63
154 148 64
154 148 71
145 140 57
149 144 64
156 151 61
146 140 64
154 148 62
143 138 57
145 140 57
144 140 60
150 144 67
149 143 61
149 144 62
141 135 52
155 149 63
149 143 61
133 127 53
136 131 49
134 129 51
133 128 48
130 127 47
135 131 45
138 137 48
141 140 48
151 152 48
140 142 44
146 150 41
145 153 34
154 166 34
157 168 32
155 169 22
159 174 19
162 181 0
156 173 16
167 185 19
165 185 0
171 192 0
169 189 0
168 189 0
168 188 0
170 190 0
170 190 0
168 189 0
173 196 0
173 196 0
172 196 0
167 192 0
172 196 0
174 197 0
170 194 0
171 195 0
170 193 0
170 194 0
170 194 0
172 195 0
172 195 0
171 194 0
172 195 0
172 195 0
168 192 0
170 193 0
171 194 0
171 194 0
169 193 0
170 194 0
170 193 0
171 194 0
170 195 0
169 193 0
174 197 0
170 194 0
168 192 0
173 196 0
173 196 0
171 194 0
173 196 0
173 197 0
170 194 0
171 195 0
171 195 0
170 193 0
172 196 0
167 190 0
171 195 0
170 193 0
171 194 0
173 196 0
169 192 25
173 196 0
169 192 0
169 193 0
171 194 0
171 194 0
167 191 0
170 193 0
166 189 0
168 192 0
171 194 0
168 191 0
170 193 0
172 195 0
169 193 0
169 193 0
169 193 0
168 192 0
167 191 0
170 194 0
165 188 0
170 194 0
167 191 0
168 191 0
164 186 0
171 194 0
167 190 0
168 192 0
169 193 0
170 193 0
170 194 0
168 192 0
169 193 0
169 193 0
164 187 0
172 196 0
162 185 0
171 193 0
167 190 0
168 191 18
151 175 76
123 149 129
71 106 170
64 100 176
63 99 171
63 100 177
63 99 174
62 99 174
63 100 175
63 99 174
63 99 173
62 99 176
62 99 176
62 99 176
62 98 174
63 99 174
61 98 175
63 100 178
62 99 176
62 98 173
62 99 177
61 98 174
62 99 175
62 99 169
62 98 175
62 99 175
61 98 176
62 99 173
63 99 174
62 99 179
62 99 174
62 99 174
62 99 176
62 99 176
63 100 179
62 99 177
62 99 174
62 99 173
62 99 178
62 99 174
62 98 173
62 99 174
62 99 176
62 99 173
63 99 173
62 99 175
61 98 169
62 99 175
61 98 171
62 98 169
62 99 179
62 99 179
61 98 172
62 99 176
62 99 176
62 99 173
63 99 176
62 99 178
62 99 174
62 99 175
62 99 175
62 98 173
63 99 179
61 98 175
62 99 177
63 99 173
62 99 169
63 99 174
62 99 175
62 99 176
62 99 173
61 98 174
62 98 172
62 98 169
63 99 173
62 99 177
62 99 173
62 99 176
62 99 173
62 99 174
63 99 175
61 98 169
62 99 175
62 99 173
62 99 176
62 98 168
62 99 175
62 99 170
62 99 174
62 99 172
62 99 167
63 99 177
62 98 170
62 98 169
62 99 177
62 98 171
62 98 170
62 99 172
64 100 174
62 99 175
62 98 172
62 98 172
63 99 171
62 99 174
62 98 169
62 98 171
63 99 170
62 99 169
62 99 173
63 100 175
63 99 170
63 99 174
62 99 172
62 99 169
62 98 168
62 99 168
62 99 170
62 98 169
62 99 177
61 98 167
62 99 173
61 97 162
62 98 164
62 98 163
62 99 168
62 98 161
62 99 170
62 99 172
63 99 172
62 99 168
63 100 174
61 97 162
63 99 172
62 98 164
63 99 168
62 98 168
61 98 164
63 99 174
62 98 157
62 98 164
62 98 165
61 97 161
62 98 164
62 98 163
62 98 165
62 98 163
62 98 168
61 97 155
62 98 166
62 98 166
62 98 162
62 98 165
62 97 157
60 95 152
62 98 165
63 100 170
63 99 165
62 98 159
61 97 163
62 99 168
61 97 162
62 98 165
61 96 154
61 97 162
61 97 156
62 98 162
61 97 154
60 94 154
61 96 155
61 97 158
62 96 158
62 97 154
61 96 158
61 95 153
60 95 158
61 96 149
59 92 145
59 92 149
59 85 122
58 75 86
62 72 61
64 68 36
66 69 28
75 77 30
67 70 31
81 82 39
72 75 35
79 82 36
72 75 41
75 79 35
88 89 41
88 90 43
95 97 45
99 99 44
93 94 49
91 90 36
91 92 48
104 105 43
114 112 53
110 108 58
106 106 44
113 111 47
111 111 48
113 112 50
120 118 53
119 119 62
127 125 54
129 126 53
125 123 59
120 119 61
130 127 59
135 132 60
128 126 61
132 129 67
145 141 69
135 132 61
134 131 62
137 135 67
140 136 71
143 139 67
145 140 64
143 139 70
140 136 63
147 142 70
147 143 65
151 147 72
143 140 65
144 139 68
151 146 72
145 141 61
151 146 65
154 148 66
150 145 69
163 155 76
152 147 71
159 153 78
149 145 64
153 148 69
150 145 74
160 153 74
158 152 71
156 151 72
162 154 76
161 154 73
158 152 72
158 152 70
155 150 67
161 155 71
160 154 75
158 151 72
161 155 76
161 155 74
157 150 70
162 156 69
152 147 63
159 153 70
159 152 66
163 156 75
161 154 78
155 149 67
160 153 68
164 156 72
154 148 67
160 153 70
155 149 60
159 152 68
152 146 69
150 145 58
148 142 67
160 153 65
156 150 71
150 144 65
149 143 63
147 143 57
147 141 63
152 145 63
155 149 64
152 145 57
150 144 60
150 144 56
148 143 63
144 138 57
148 143 54
144 137 63
141 135 59
141 135 58
137 131 54
144 138 56
136 129 57
138 132 51
130 125 48
149 142 62
140 136 45
138 134 49
131 128 47
140 142 39
146 147 49
148 151 42
147 154 39
150 157 39
146 153 34
153 166 30
153 166 28
161 176 16
166 180 28
163 181 11
166 183 19
168 190 0
168 188 0
169 190 0
170 191 0
170 190 0
171 192 0
170 191 0
168 189 0
171 192 0
168 192 0
170 194 0
170 194 0
171 195 0
171 195 0
173 196 0
171 194 0
170 194 0
173 196 0
172 195 0
170 194 0
172 195 0
169 193 0
173 196 0
171 193 0
170 193 0
172 195 0
171 194 0
171 194 0
174 197 0
171 195 0
172 195 0
171 194 0
171 195 0
171 194 25
171 194 0
171 195 0
170 193 0
167 190 0
172 195 36
170 194 44
167 191 25
170 193 25
170 194 0
172 195 44
176 199 57
171 194 25
172 195 25
170 194 25
174 197 0
167 190 25
169 191 25
172 194 36
169 192 25
175 199 36
171 194 25
169 192 0
170 193 0
168 191 0
169 192 25
172 195 0
168 191 0
171 195 25
169 193 0
169 194 0
167 190 0
170 193 0
167 191 0
167 191 0
170 194 0
168 190 0
170 194 0
168 191 0
167 189 0
172 196 0
167 190 0
170 194 0
168 192 0
162 184 0
168 191 0
172 195 0
169 192 0
169 193 0
168 191 0
166 190 0
169 192 0
166 189 0
169 191 0
171 194 0
169 192 0
167 190 0
168 191 0
169 191 0
168 191 25
152 176 76
120 146 134
65 101 173
64 100 175
63 99 175
63 100 176
64 100 177
63 100 177
63 99 176
62 98 171
62 99 175
62 99 176
63 100 178
62 99 174
62 99 175
62 99 174
62 99 177
62 99 177
62 98 173
62 99 173
61 98 175
62 99 177
62 99 174
62 99 176
62 99 178
63 100 178
62 99 175
62 99 176
62 98 175
61 98 171
61 98 171
62 99 178
62 99 178
62 99 172
62 98 175
62 99 173
62 99 173
61 98 172
63 99 176
62 99 175
63 99 175
62 99 174
62 99 177
62 99 176
62 99 176
63 99 172
62 98 170
62 99 176
62 98 171
63 99 179
62 99 173
62 99 175
63 99 176
63 100 178
62 99 174
62 98 173
62 98 175
62 99 176
62 99 172
62 99 175
62 99 171
62 99 169
62 98 171
62 98 171
62 99 177
62 99 176
62 99 173
62 99 171
61 98 173
61 98 172
63 99 174
62 99 172
62 99 173
62 98 175
62 99 174
61 98 169
62 99 173
63 99 171
62 99 175
62 99 175
62 99 171
62 99 174
62 98 161
62 99 176
62 99 172
63 99 174
63 99 174
62 99 169
62 98 173
62 99 169
62 99 171
62 99 173
62 99 173
62 98 171
62 99 175
63 99 172
62 98 169
62 99 178
63 99 171
62 99 171
63 100 178
63 99 172
62 98 166
63 99 173
62 99 173
61 98 167
63 99 177
62 99 173
61 98 167
62 98 165
62 98 167
62 99 172
62 98 168
62 99 176
62 99 171
61 98 167
63 99 172
62 98 171
63 100 175
61 98 163
63 99 168
62 98 168
63 99 169
62 98 165
62 98 169
62 99 169
63 99 173
62 98 162
62 99 171
61 98 168
63 99 170
62 99 172
62 98 169
63 99 172
63 100 172
62 99 165
61 98 165
62 98 163
63 99 168
62 98 164
63 99 167
62 98 165
62 99 170
62 98 166
63 99 171
62 98 159
62 98 169
62 98 166
62 99 169
62 98 165
62 99 165
62 98 167
62 98 167
63 99 165
62 98 166
61 98 166
62 98 166
62 98 170
61 97 160
62 98 162
62 97 161
62 99 168
61 97 159
61 96 159
60 96 155
61 97 152
60 96 159
62 97 162
60 95 155
62 97 164
61 96 154
60 95 153
62 96 153
61 96 158
59 93 143
60 94 148
61 95 155
60 93 147
59 82 109
64 79 88
59 67 59
63 66 26
71 71 26
62 67 26
64 67 35
75 78 24
80 82 32
80 81 32
76 78 41
75 78 38
74 76 30
90 91 34
83 86 39
79 82 40
92 93 46
82 85 42
94 96 45
94 95 47
90 92 40
111 110 56
116 113 49
102 101 53
99 101 47
118 116 52
115 116 58
128 126 56
123 121 60
124 122 58
125 124 61
138 133 57
129 127 63
130 128 62
127 125 54
130 127 59
136 133 61
138 134 60
137 134 61
141 137 64
146 142 59
141 136 61
140 136 64
144 140 67
139 135 65
142 138 67
145 141 60
155 149 76
145 140 65
156 151 76
149 143 64
156 151 72
151 146 64
148 144 65
155 149 67
155 149 72
149 145 56
155 149 76
158 152 71
150 145 67
152 148 63
155 150 72
158 152 71
154 150 68
156 151 70
154 150 70
154 148 66
160 154 71
151 145 67
154 148 67
155 149 68
159 153 75
152 147 61
162 155 72
155 148 66
151 146 57
155 150 58
162 154 75
156 151 65
158 152 69
153 146 68
164 157 77
162 155 72
153 148 67
156 150 68
156 150 62
161 154 68
149 143 60
151 144 67
161 154 73
155 149 61
159 152 69
157 150 75
151 145 59
146 140 56
145 141 59
148 144 56
153 148 62
150 144 68
154 148 66
140 136 47
149 142 59
144 138 60
151 145 61
151 145 57
148 143 59
143 137 58
143 138 54
141 136 49
138 132 47
143 136 63
131 126 49
134 129 42
125 121 45
123 119 45
128 126 47
142 136 57
147 149 47
139 141 36
142 147 36
143 148 42
147 158 32
157 170 28
160 172 41
149 163 25
160 174 22
161 177 19
162 179 16
162 180 0
167 185 11
170 191 0
172 193 0
168 191 0
170 191 0
168 186 0
166 187 0
170 190 0
171 192 0
172 195 0
173 197 0
169 193 0
171 194 0
171 194 0
169 193 0
172 195 0
172 195 0
171 195 0
172 195 0
172 195 0
166 189 0
172 195 0
170 193 0
173 197 0
174 197 0
172 195 0
170 193 0
171 194 0
171 194 0
170 194 0
170 194 0
168 192 0
174 197 36
172 196 25
172 194 36
170 192 0
174 197 44
172 195 0
174 197 0
173 197 44
172 195 44
173 197 36
170 194 0
175 197 44
173 197 51
171 194 44
169 192 25
174 196 36
171 195 0
172 194 44
170 194 25
172 195 25
169 192 25
172 195 44
166 188 36
173 195 25
168 191 44
170 194 44
172 195 44
171 194 44
172 195 25
171 194 36
169 192 25
171 195 25
168 191 25
171 194 0
170 194 25
167 191 25
170 194 0
169 192 0
172 195 25
168 191 0
167 191 0
166 190 0
174 197 0
167 188 0
171 194 0
167 192 0
172 195 0
165 189 0
167 190 0
169 192 0
166 189 0
166 190 0
168 192 0
169 192 0
170 194 0
167 190 0
166 190 0
168 192 0
170 194 0
165 189 0
165 189 31
144 168 97
105 133 151
63 100 175
63 99 173
63 99 173
63 99 171
63 100 176
62 98 171
63 100 180
63 100 176
64 100 176
63 100 175
63 99 174
62 99 175
63 99 175
62 99 173
62 98 175
62 99 175
63 99 174
62 98 173
62 99 176
61 98 172
63 100 181
62 99 175
62 99 173
62 99 175
62 98 174
62 99 176
62 99 175
62 98 173
62 99 178
62 98 175
63 100 180
62 99 174
61 98 173
62 99 175
62 99 175
62 99 177
63 99 177
62 99 174
62 99 174
62 98 170
62 99 176
61 98 173
62 99 172
62 98 171
62 99 175
62 98 172
62 99 173
62 99 177
62 99 178
61 98 172
62 99 176
62 99 172
62 98 172
63 99 175
62 98 169
62 98 176
62 99 173
61 98 172
62 99 174
62 99 173
62 99 175
62 99 178
62 98 173
62 99 176
62 99 176
62 99 173
61 98 168
62 99 174
62 99 173
62 98 167
62 99 173
62 98 171
62 99 171
62 99 171
62 99 175
61 98 168
62 99 175
61 98 172
62 98 170
62 99 171
62 99 174
61 98 165
61 98 168
61 98 168
63 99 172
62 99 170
62 99 174
62 99 175
62 98 167
62 98 167
62 98 168
63 99 171
63 99 174
62 99 168
63 100 173
62 98 169
62 98 168
62 98 167
62 99 174
62 98 173
62 98 169
63 99 168
63 99 174
61 98 167
62 99 174
62 98 168
62 99 169
62 99 168
63 99 170
62 99 166
62 99 175
62 98 168
62 98 163
63 99 173
62 99 167
62 99 172
62 99 172
61 98 166
62 99 173
62 98 172
62 98 168
61 98 166
62 98 166
62 99 169
62 98 170
62 98 167
61 97 162
63 99 169
62 99 173
62 98 165
62 99 166
62 98 167
62 98 170
61 98 162
62 99 166
63 100 173
62 99 172
63 99 173
62 97 157
62 98 168
62 99 168
62 98 167
61 98 165
62 98 165
62 98 164
61 97 160
62 98 164
62 98 165
63 99 170
61 97 161
62 98 164
63 99 167
61 97 160
62 98 165
61 97 156
61 97 159
61 97 153
62 98 167
62 98 160
62 98 161
62 98 163
62 97 160
61 97 161
61 97 163
61 96 154
61 97 155
60 96 149
61 97 152
60 95 154
61 96 155
62 96 161
61 96 146
60 94 147
59 93 148
61 96 153
60 94 147
60 90 142
51 71 95
63 72 68
70 74 35
74 74 22
67 69 25
63 65 28
73 76 35
78 80 34
63 65 28
81 82 39
86 88 36
71 75 37
97 94 34
89 89 42
85 87 37
87 89 40
88 89 36
101 102 43
114 113 52
114 112 45
101 101 45
114 113 51
113 111 45
117 115 40
111 110 47
123 121 55
121 119 56
130 127 60
122 120 56
122 121 54
122 120 47
129 126 60
124 122 59
125 124 60
124 123 42
133 129 64
135 131 57
133 129 63
135 131 50
140 136 63
143 140 61
145 141 66
143 139 66
149 144 68
146 143 62
148 144 58
143 140 62
148 143 64
155 149 75
146 142 65
151 146 69
150 145 71
154 149 76
151 146 68
162 155 78
152 148 66
159 153 75
151 146 73
153 147 68
161 154 78
159 154 68
155 150 64
157 151 64
156 151 66
153 149 60
158 153 68
156 150 66
153 147 62
162 155 73
144 139 61
154 149 64
156 151 65
157 151 68
153 147 69
161 155 67
162 154 70
158 152 68
158 151 69
150 145 59
157 151 66
159 154 63
161 154 73
161 154 70
150 144 64
159 153 71
154 149 59
157 151 70
149 143 59
153 147 67
149 143 60
151 145 62
153 146 61
153 147 61
150 144 65
151 144 63
150 145 61
150 144 63
155 148 66
156 150 64
149 143 65
147 142 58
145 140 51
148 142 60
143 138 57
144 138 58
146 140 57
141 136 49
138 133 54
141 135 54
137 132 48
141 136 53
134 130 42
138 134 47
142 139 53
144 143 49
131 130 41
147 149 45
138 141 37
145 148 47
144 152 37
157 166 32
151 160 32
152 163 34
162 175 28
161 177 16
165 182 16
168 185 19
162 181 0
170 189 0
172 194 0
169 189 0
168 188 0
167 187 0
167 186 0
166 184 0
168 187 0
171 191 0
171 195 0
173 197 0
175 198 0
172 196 0
172 196 0
172 195 0
170 195 0
173 196 0
171 195 0
170 194 0
172 196 0
172 196 25
171 194 0
169 192 0
170 194 25
170 193 0
172 195 0
171 195 36
171 194 0
169 192 0
172 195 36
170 193 25
173 196 36
174 197 36
173 197 25
173 196 44
173 197 51
171 193 36
173 196 36
170 192 36
171 194 44
171 194 44
173 195 36
173 196 51
175 198 44
170 193 44
168 191 25
173 196 57
172 195 36
174 197 44
175 198 57
175 197 57
171 194 25
173 195 44
174 196 51
172 194 44
169 192 44
171 194 44
173 196 44
169 192 44
170 193 25
174 197 25
170 193 36
171 193 0
169 193 36
171 194 44
173 196 25
172 195 36
171 194 25
165 188 0
171 195 25
170 193 25
171 194 36
169 191 0
166 189 0
168 191 0
171 194 0
168 191 0
168 191 0
170 193 0
165 188 0
165 188 0
168 192 0
170 193 0
167 190 0
169 192 0
169 191 0
166 188 0
161 184 0
164 188 0
164 187 0
165 189 0
169 192 0
162 185 51
150 174 82
92 122 156
64 100 172
63 99 175
63 100 177
63 100 177
63 100 177
63 99 173
63 99 177
62 99 173
63 99 174
62 99 172
63 99 174
64 101 180
63 100 177
63 100 177
62 99 174
62 99 174
63 100 177
63 99 175
62 98 172
62 99 176
62 99 177
61 98 173
62 99 176
62 99 176
62 98 170
62 98 169
62 99 173
62 99 175
62 99 174
61 98 172
62 99 175
62 99 177
62 99 174
61 98 171
62 99 173
62 99 176
62 98 171
62 99 177
62 99 174
62 99 178
62 98 173
62 98 171
62 99 171
62 98 170
62 98 171
61 98 176
62 99 169
62 98 172
61 98 169
61 98 168
62 99 176
63 99 175
62 98 173
62 98 170
62 99 176
62 99 171
62 99 176
62 99 174
62 98 170
61 98 173
62 99 172
62 99 174
61 98 172
62 99 173
63 99 176
62 99 172
62 98 175
62 99 174
62 99 175
62 98 171
63 99 172
61 98 169
61 98 170
62 99 175
62 98 170
62 98 172
62 99 172
62 98 169
62 99 172
63 99 167
61 98 172
62 98 168
62 98 167
62 98 167
61 98 169
63 99 172
62 98 165
62 99 172
62 98 167
62 99 171
62 99 171
62 98 169
62 99 170
62 99 173
63 100 172
62 99 168
61 97 166
62 99 170
63 99 172
62 99 169
62 98 169
62 99 170
62 98 163
62 99 170
62 98 168
62 98 166
62 98 167
62 98 167
62 98 166
62 99 171
62 99 166
61 97 163
61 98 167
63 99 171
62 99 169
62 98 166
61 98 161
62 99 167
62 98 166
62 98 165
62 99 169
62 98 167
62 99 172
62 99 168
62 98 166
62 99 172
62 98 165
61 98 161
63 99 170
62 98 164
62 99 170
62 99 171
62 99 166
61 98 163
61 97 161
62 98 161
62 98 163
62 98 169
63 99 170
62 98 166
62 98 163
62 98 168
61 98 162
62 98 160
63 99 171
63 99 168
62 98 164
62 98 163
61 97 159
62 98 162
61 97 165
62 98 166
62 98 163
62 98 162
62 98 165
62 98 161
62 97 164
61 97 162
61 97 160
61 97 157
62 98 156
61 97 153
61 96 160
62 98 158
61 97 159
62 98 163
61 97 161
61 96 155
61 96 153
63 98 163
60 95 147
60 95 153
61 95 155
60 95 149
59 93 147
60 94 149
60 88 123
62 80 101
60 72 69
64 69 47
63 66 23
75 76 22
61 63 28
66 70 27
83 85 32
80 80 32
81 82 29
84 87 33
82 84 30
89 90 40
81 82 32
94 95 39
102 101 38
96 97 34
109 108 46
110 109 43
108 108 53
103 104 47
113 112 45
98 99 42
123 122 63
127 124 54
120 119 50
118 117 56
119 117 50
130 127 65
116 114 56
128 126 61
127 124 61
133 131 58
134 130 64
125 124 48
139 135 61
135 131 61
141 136 62
141 135 58
143 140 60
136 134 57
142 138 61
136 132 62
145 140 62
146 141 68
135 132 61
138 135 60
141 138 61
146 142 66
143 140 60
142 138 53
151 146 68
154 149 74
149 144 64
149 145 66
151 146 70
149 144 62
148 144 65
153 147 68
148 144 65
154 149 65
155 149 71
157 152 65
163 156 77
159 154 66
160 153 73
161 155 66
157 151 66
153 147 61
155 150 62
158 152 73
157 150 69
156 151 65
155 150 62
155 149 65
157 151 59
159 152 70
155 150 60
149 144 58
155 149 67
153 148 62
162 155 72
160 152 71
157 151 65
156 149 69
157 150 71
144 138 51
151 146 58
153 148 62
156 150 60
145 139 57
149 143 60
157 152 73
149 143 63
147 142 60
150 144 65
152 146 59
148 142 60
150 145 59
147 142 56
150 144 57
146 140 52
138 133 47
143 137 59
138 133 53
141 134 59
133 129 47
127 121 44
145 139 56
144 138 49
130 126 45
126 121 42
136 132 51
144 141 54
136 135 44
141 143 41
145 148 48
140 146 32
146 153 34
145 153 32
147 159 19
152 164 22
154 167 22
160 175 11
164 180 30
164 184 11
166 185 0
170 191 0
171 191 0
172 192 0
172 195 0
169 191 0
168 186 0
167 187 0
170 192 0
171 191 0
170 192 0
172 195 0
171 194 0
172 195 0
172 196 0
171 194 0
167 191 0
169 193 0
170 193 0
170 193 0
171 194 0
172 195 0
172 195 0
173 196 36
171 194 25
172 196 0
172 196 0
172 196 36
174 197 36
171 195 25
170 192 0
173 196 67
173 196 51
171 194 25
168 192 44
170 193 25
175 197 51
171 195 36
174 196 51
171 193 44
170 192 36
173 195 51
170 193 51
173 196 36
171 195 25
171 194 51
174 197 57
172 195 25
175 198 51
172 195 57
171 193 51
174 196 62
172 195 0
171 194 25
172 195 44
171 194 44
170 193 36
172 196 25
169 192 36
171 194 51
170 193 51
171 194 25
170 193 44
170 193 36
171 194 25
173 195 51
171 194 0
174 197 44
170 192 36
170 194 0
171 195 44
171 194 0
174 197 44
168 191 25
168 192 25
173 195 25
170 193 0
167 190 0
167 190 25
167 191 0
166 189 25
168 192 0
167 191 0
171 194 0
168 191 0
166 189 0
168 191 0
166 189 0
163 185 0
164 187 0
167 190 0
168 191 0
165 187 0
169 192 0
160 183 54
144 168 103
83 115 163
64 100 174
63 100 175
64 100 173
63 99 175
63 100 174
63 100 176
63 100 179
62 99 176
62 99 175
62 99 175
62 99 174
63 99 176
62 99 172
62 99 173
62 98 169
62 99 176
63 99 175
62 99 173
62 98 172
62 99 175
62 99 175
62 99 176
62 98 172
61 98 174
62 98 169
62 99 173
61 98 174
63 100 177
62 99 174
63 99 175
61 97 171
62 99 175
62 98 173
62 99 174
62 99 172
62 99 176
61 98 175
63 99 171
62 98 171
62 99 175
62 99 180
62 99 172
61 98 173
62 99 174
62 99 178
62 99 178
61 98 170
62 98 170
63 100 179
62 99 171
63 99 177
61 98 165
62 98 176
62 99 175
62 99 170
62 98 167
62 99 173
62 98 170
62 99 171
62 99 174
62 99 173
62 99 173
61 98 170
63 100 178
63 99 177
62 99 173
62 99 170
62 99 173
62 99 176
62 98 171
62 99 173
62 99 174
62 99 172
62 99 171
62 99 173
62 98 170
63 99 173
62 98 169
62 99 174
63 99 176
62 98 168
62 99 173
62 98 170
61 98 170
62 99 174
63 99 172
63 100 178
62 98 167
61 98 167
62 99 170
61 98 170
62 99 171
61 98 169
61 98 168
62 99 173
62 99 171
62 98 174
62 98 168
62 99 170
62 99 169
61 98 167
62 98 173
62 99 171
62 98 166
62 99 171
62 98 168
61 98 163
62 98 166
62 98 168
62 98 171
62 99 169
62 99 166
62 99 172
63 99 171
61 98 167
63 99 173
62 99 169
62 98 162
62 98 166
63 99 170
62 98 164
62 99 169
61 98 164
63 99 168
62 98 167
63 99 172
61 98 167
61 98 165
62 98 166
63 99 168
63 99 167
62 98 164
61 97 167
62 98 167
62 99 168
62 98 163
63 98 168
62 98 163
62 98 164
62 98 165
62 98 167
62 98 162
62 98 166
62 99 164
61 96 158
62 99 168
62 98 161
62 98 163
62 98 166
62 98 161
63 99 165
62 98 160
62 98 165
62 98 158
62 98 163
60 96 154
62 98 167
62 97 158
61 96 151
62 98 160
61 97 155
61 97 158
62 97 159
61 96 160
60 95 153
61 97 155
60 95 154
62 97 156
62 97 156
61 95 151
61 96 156
62 97 159
60 94 149
59 93 143
59 93 144
59 92 145
57 85 126
67 85 107
65 73 62
73 76 38
63 64 27
68 71 26
57 61 12
84 85 25
79 79 26
85 87 28
84 86 32
66 71 39
88 90 36
86 89 35
95 96 35
94 94 38
90 92 38
99 100 38
97 98 42
104 104 38
91 93 37
107 106 53
109 109 45
110 110 54
120 118 50
120 118 55
119 117 57
119 117 52
120 118 54
120 118 55
124 122 49
131 129 58
118 117 50
133 130 59
130 127 56
124 121 44
126 124 53
138 135 57
135 132 58
133 131 59
127 125 57
143 139 66
140 137 61
144 139 61
150 145 66
148 143 64
139 136 55
142 137 66
148 143 64
146 141 60
153 147 65
148 143 64
148 142 61
152 147 64
150 145 63
154 148 70
147 143 62
147 142 62
146 143 60
154 149 65
156 149 66
153 148 65
149 143 64
151 146 57
154 149 63
156 149 67
156 150 66
150 145 61
155 149 65
154 148 66
159 153 69
158 151 54
157 151 65
152 147 61
155 148 69
159 152 66
154 148 65
148 144 64
152 146 66
156 150 62
153 147 63
155 149 64
146 141 61
154 148 57
148 143 61
153 147 57
159 153 67
158 151 74
149 144 53
149 144 59
151 144 60
155 149 68
146 141 59
155 149 61
145 140 53
149 143 60
152 146 59
149 142 62
143 138 52
149 143 59
140 135 53
136 130 54
148 142 63
151 145 59
143 138 53
144 138 59
142 136 52
136 128 54
148 142 59
138 132 51
134 130 42
136 132 48
134 130 45
127 125 45
137 137 32
134 135 37
134 135 36
146 150 37
141 148 30
149 154 39
150 163 25
158 169 28
148 157 34
159 174 0
159 172 22
168 186 11
161 181 11
167 189 0
167 185 0
171 193 0
166 186 0
170 191 0
170 190 0
171 191 0
165 185 0
169 190 0
167 188 0
166 186 0
169 192 0
170 194 0
172 195 0
167 190 0
172 196 36
169 192 0
173 196 0
170 193 25
171 194 36
172 196 25
173 196 44
172 195 57
173 197 0
173 196 36
168 191 36
172 195 44
168 191 25
172 195 36
169 193 36
172 195 36
170 194 36
169 194 0
174 196 51
175 198 57
173 196 44
174 197 62
172 195 51
173 196 62
173 196 62
172 195 36
175 197 62
176 199 57
176 198 62
173 195 62
173 197 44
172 194 51
170 193 44
173 196 57
172 195 25
172 195 51
173 195 57
171 193 57
175 197 57
174 197 51
167 190 51
171 194 51
174 197 44
170 194 36
175 198 67
171 194 44
171 194 36
168 191 57
175 198 51
172 195 44
173 196 62
172 195 62
167 191 36
170 193 25
170 194 0
169 193 36
173 196 36
171 195 25
166 190 36
172 195 44
170 193 0
173 196 51
172 194 51
170 193 44
169 193 25
169 192 36
171 195 25
166 189 0
169 193 0
169 192 0
172 196 0
166 190 0
172 194 0
166 190 0
168 191 0
168 191 0
167 190 0
169 192 0
165 189 0
161 185 51
130 155 118
86 117 158
63 99 171
63 100 175
63 100 172
63 99 171
63 99 171
63 99 171
63 99 175
63 100 177
63 100 174
62 99 175
62 99 175
63 99 174
63 99 172
62 98 172
63 99 170
62 98 173
63 99 175
63 99 176
62 98 173
62 99 176
62 99 175
63 99 175
62 98 170
61 98 171
62 99 176
61 98 173
63 99 176
62 99 173
62 98 175
62 99 176
62 99 175
62 99 174
62 99 171
62 98 172
62 99 174
61 98 169
62 99 174
62 99 173
62 99 173
61 98 173
62 99 171
62 98 171
61 97 171
61 98 169
62 98 170
62 99 173
62 99 176
63 99 178
61 98 175
62 99 172
62 98 173
62 99 174
62 99 175
62 99 178
62 99 175
62 98 172
62 99 174
61 97 169
63 99 172
62 99 170
62 99 176
62 99 173
62 98 163
62 99 172
62 99 173
62 99 173
62 98 168
62 98 172
62 98 170
62 98 169
61 98 171
62 99 172
61 98 168
63 99 176
63 99 177
63 100 178
62 99 172
61 98 173
62 99 172
62 99 170
62 98 170
63 99 177
62 99 169
63 99 172
62 98 169
62 99 177
62 99 172
61 98 165
62 99 173
61 97 164
62 98 166
62 98 168
62 98 168
62 98 168
62 98 168
62 99 170
62 99 170
62 98 168
63 99 169
61 98 167
62 99 169
63 99 167
63 99 175
62 99 168
63 99 174
62 99 168
62 99 171
61 98 165
62 98 170
62 98 166
63 99 167
62 98 168
62 98 165
62 98 167
61 97 166
62 98 165
62 99 172
63 99 175
62 98 162
62 98 168
62 99 167
62 98 169
62 98 168
62 98 169
62 99 165
62 98 169
63 99 166
62 98 164
62 98 165
62 99 167
62 98 164
62 98 168
61 97 161
62 98 168
63 99 165
61 97 162
62 99 168
61 97 162
62 99 167
61 96 158
61 98 161
62 98 165
63 99 166
62 98 163
62 98 162
63 99 165
61 97 152
62 98 166
62 98 162
63 99 167
62 99 169
62 98 165
62 98 161
61 97 166
61 97 160
62 98 164
63 98 161
61 97 155
61 97 158
62 98 162
62 97 154
61 97 155
62 97 155
62 98 163
62 97 160
62 99 168
61 96 159
62 97 158
60 96 153
61 96 149
61 96 157
60 95 150
60 95 150
61 96 148
60 94 153
58 92 147
59 89 129
63 85 113
63 75 75
62 67 43
68 70 20
69 70 20
70 72 25
86 87 29
75 78 33
82 85 29
78 80 30
78 79 32
91 92 38
78 81 28
89 91 43
85 88 36
97 98 43
88 90 30
89 91 31
105 105 40
107 107 49
102 101 43
107 106 42
117 115 47
102 102 41
111 108 47
110 109 46
118 116 48
125 123 55
122 121 51
129 126 56
129 127 55
130 127 59
129 126 58
134 131 58
137 133 67
134 130 59
131 128 59
136 132 58
129 126 56
134 131 57
135 131 63
143 139 63
135 132 54
138 134 56
142 137 64
144 140 62
146 140 59
155 149 71
143 138 66
153 147 69
146 141 53
148 143 65
147 142 64
148 143 61
153 147 64
151 146 63
149 145 63
153 149 57
149 144 64
159 153 61
154 149 67
153 148 64
150 145 57
153 148 63
159 153 67
161 154 73
154 148 64
151 145 62
149 144 55
154 148 65
156 150 65
151 146 57
157 151 67
154 147 62
161 154 65
151 144 64
151 145 63
150 144 61
151 146 57
159 153 74
163 157 68
153 147 68
155 150 60
156 150 65
153 147 61
155 149 61
155 148 63
150 144 54
150 144 58
154 148 61
152 145 72
155 149 65
156 149 60
143 138 53
152 146 62
149 144 54
148 142 54
139 134 52
156 150 70
144 138 56
147 142 53
146 141 51
140 133 48
142 137 53
142 137 48
135 129 48
135 129 51
143 137 57
145 139 52
138 133 49
145 141 51
141 137 45
117 116 32
141 141 51
137 139 41
145 148 36
145 151 34
140 147 30
141 151 28
152 161 36
154 168 28
157 168 28
157 172 16
161 178 11
167 183 16
164 182 11
170 191 0
169 189 0
170 189 0
170 189 0
169 189 0
168 188 0
168 188 0
170 188 0
168 188 0
171 189 0
169 188 0
172 195 0
173 195 0
173 196 0
168 193 25
173 195 51
173 195 0
167 190 25
170 194 25
173 196 36
171 194 36
173 196 36
173 196 44
172 196 36
171 194 0
176 199 44
169 192 36
168 192 25
169 193 25
174 198 57
173 196 51
175 197 57
171 194 51
173 196 44
173 196 62
175 198 36
176 199 67
173 195 62
166 189 57
174 197 72
176 198 57
172 195 57
173 195 51
172 196 44
172 195 57
174 197 51
170 194 57
175 198 51
169 192 44
174 196 67
173 195 51
171 193 44
174 197 44
172 195 51
168 191 51
173 197 51
169 192 44
173 196 76
173 195 57
171 194 44
173 195 57
172 195 44
173 196 57
168 190 36
173 196 57
173 196 44
170 193 44
173 196 67
171 194 57
171 194 67
170 192 25
169 193 44
171 193 51
168 191 44
162 184 44
171 193 51
167 190 51
170 193 51
172 195 36
168 191 51
166 188 36
166 188 36
172 195 44
168 191 0
171 194 0
165 188 0
168 191 36
166 190 0
167 191 0
158 181 0
166 189 0
168 191 0
164 186 0
168 190 0
155 179 72
130 156 120
81 113 163
63 99 175
63 100 175
64 100 173
64 100 176
63 100 176
63 99 179
62 99 173
62 99 172
63 100 177
62 98 169
62 99 170
62 99 174
62 99 175
62 99 174
62 99 177
62 99 175
61 98 171
62 99 176
62 98 172
62 98 174
62 99 175
62 99 172
62 98 171
62 99 176
61 98 174
62 99 175
62 98 172
63 100 180
61 98 172
62 98 175
63 99 175
62 99 176
62 99 176
62 99 178
61 98 169
62 99 175
62 98 173
62 99 173
62 99 175
62 99 173
62 99 172
62 99 174
62 99 174
62 99 171
62 99 176
62 99 172
62 98 175
62 99 175
62 99 175
62 99 173
62 99 172
62 99 177
62 99 179
62 99 177
62 99 169
62 98 171
62 99 171
63 99 174
62 98 170
62 99 170
62 98 169
62 99 176
61 98 171
62 99 171
62 99 171
63 99 175
62 99 176
62 98 174
62 99 173
62 99 172
62 98 173
62 99 169
61 98 168
62 99 170
62 98 169
62 99 172
62 98 171
62 99 172
63 99 172
63 99 170
62 99 169
62 98 170
62 98 170
61 98 168
62 98 168
62 99 171
62 99 173
62 99 171
61 98 169
63 99 174
61 98 168
62 99 170
62 99 170
61 98 166
62 99 172
63 100 176
63 99 172
62 98 169
61 98 170
61 97 163
61 97 163
62 99 174
61 98 169
62 99 170
62 99 173
62 99 173
62 99 170
62 98 168
62 98 168
63 99 173
62 98 167
62 99 165
62 98 166
62 99 172
61 98 167
61 97 163
62 98 162
62 98 170
62 98 164
62 98 162
61 98 166
62 98 164
62 98 163
63 99 175
63 99 173
63 99 169
62 99 168
63 99 168
62 98 163
62 99 169
63 99 168
61 98 163
61 97 161
61 98 165
62 98 165
62 98 161
62 98 164
63 99 168
61 98 164
62 99 166
62 98 165
62 98 163
63 99 168
62 98 165
62 97 159
63 99 169
62 98 163
62 98 159
61 97 158
62 98 162
62 98 163
62 98 164
62 98 163
62 99 168
62 98 167
62 97 161
62 98 164
62 98 164
61 96 149
62 98 160
61 97 157
61 97 161
61 96 151
62 97 161
62 98 160
61 96 155
61 96 158
61 97 155
61 96 154
61 96 156
61 96 155
60 94 145
61 96 147
60 94 147
58 92 139
60 94 145
57 88 129
63 85 115
60 75 77
74 78 54
71 74 22
63 65 21
76 77 27
77 79 27
77 77 28
77 81 22
79 81 29
87 88 25
77 79 28
94 95 33
79 81 25
94 95 28
96 95 37
100 101 39
100 101 36
94 95 35
108 106 42
98 97 42
100 101 30
110 108 43
108 107 41
119 118 49
119 117 50
112 111 44
117 117 41
114 114 44
130 128 48
123 121 51
118 117 49
136 132 54
132 129 56
131 127 54
133 129 59
131 128 53
130 127 55
136 132 56
130 126 58
132 128 62
130 127 53
127 124 51
139 134 57
147 141 62
142 139 53
138 134 57
144 141 58
147 142 58
138 134 56
149 144 53
144 139 65
150 146 64
152 147 66
152 147 61
145 141 55
151 145 61
149 143 64
151 145 58
153 148 70
154 148 62
153 148 62
154 149 63
157 150 58
154 148 62
151 146 61
160 153 69
156 150 58
151 145 65
149 143 51
153 148 62
152 147 59
150 146 60
147 141 47
153 147 59
156 149 69
153 148 62
154 147 66
156 149 63
161 154 66
154 148 63
158 151 68
151 145 58
151 145 54
152 146 59
146 141 56
152 147 58
148 142 61
151 144 62
146 141 49
153 147 70
140 135 51
150 145 60
152 146 61
138 132 48
141 136 52
149 143 62
150 144 59
144 138 45
146 140 51
144 137 58
148 142 58
144 137 54
138 134 39
139 133 54
130 125 45
144 138 51
142 136 54
139 135 47
133 129 52
133 129 41
135 132 42
134 134 42
139 137 45
143 144 39
138 144 34
142 148 39
145 153 32
144 152 25
150 161 28
157 170 28
159 175 16
157 169 16
159 177 16
165 182 16
166 184 11
170 189 0
162 180 0
167 185 0
167 185 0
165 183 0
168 188 0
171 191 0
166 186 0
165 185 0
166 185 0
166 186 0
170 193 25
172 195 36
173 195 0
170 193 36
171 194 25
170 195 36
176 199 62
170 194 25
173 196 36
174 196 51
172 194 51
172 196 25
174 197 51
173 196 51
169 193 36
173 196 25
173 196 57
171 194 51
171 194 44
173 196 51
172 196 62
173 195 57
172 196 36
177 200 72
177 199 62
176 198 76
172 195 57
171 194 44
175 197 88
172 194 57
173 198 44
176 197 72
171 195 67
169 192 51
173 196 51
172 195 62
174 196 67
173 195 72
176 199 92
173 196 76
175 197 76
175 197 72
174 197 44
175 198 76
175 198 67
171 193 62
176 198 80
170 193 36
172 195 51
174 197 62
173 196 67
170 193 57
173 196 44
169 192 44
173 195 57
174 197 80
170 193 67
172 194 51
174 196 57
173 195 57
172 195 62
170 192 62
170 193 25
172 194 57
171 193 36
167 189 57
170 193 51
174 196 44
164 188 25
169 191 25
167 190 0
165 187 51
169 192 25
169 192 0
167 191 25
170 194 25
170 194 25
160 182 25
165 189 0
167 191 0
168 191 0
168 191 0
159 183 31
148 172 74
123 150 122
70 104 169
63 100 173
63 100 173
63 99 171
63 99 171
63 99 169
63 99 174
62 99 170
62 99 172
63 99 174
62 99 173
62 99 174
62 99 173
62 99 171
62 99 177
63 99 175
62 99 176
62 99 170
62 98 171
61 98 167
62 98 173
62 99 173
61 98 173
62 99 173
62 99 174
62 98 173
62 98 173
63 100 176
61 98 173
62 98 173
62 99 167
62 99 174
62 99 174
62 99 173
62 99 175
61 98 172
62 99 172
62 99 173
62 99 176
62 98 171
62 99 173
62 99 174
62 99 173
61 97 166
62 98 169
62 98 175
63 99 172
62 99 170
62 99 170
61 98 167
62 99 172
62 99 172
62 98 169
62 98 171
62 98 169
62 99 176
62 98 167
63 100 174
62 99 170
62 98 171
62 98 171
62 99 169
62 98 173
62 99 172
62 98 172
62 99 171
63 99 176
62 99 172
61 98 167
62 98 171
62 98 169
62 99 177
62 98 167
62 99 172
62 99 170
62 99 174
63 99 172
62 98 171
63 100 177
62 99 173
62 99 174
63 99 172
61 98 167
61 98 166
62 98 172
62 99 170
62 99 170
62 99 174
63 99 169
62 99 170
62 99 173
62 99 170
62 99 174
61 98 170
63 99 174
62 98 169
62 99 170
62 98 168
61 97 164
62 99 169
62 99 171
62 98 165
63 99 172
62 98 169
62 99 167
62 99 166
62 98 170
62 98 169
62 99 168
62 98 168
63 99 170
62 99 164
62 99 167
62 98 168
62 99 170
61 97 156
62 97 165
62 98 170
62 99 174
62 98 170
63 99 170
63 99 171
62 98 164
62 99 170
62 99 169
62 98 167
62 99 170
62 98 170
62 98 163
61 98 166
62 98 163
63 99 167
62 98 164
62 98 161
61 97 160
62 98 168
62 98 160
62 98 163
63 99 168
62 99 167
62 98 163
62 98 163
61 97 160
62 98 164
62 99 166
62 98 159
62 98 165
62 98 162
62 98 163
61 97 158
61 97 158
62 97 160
63 98 167
62 98 161
62 98 159
62 98 164
61 97 159
62 98 162
62 98 159
61 97 157
62 98 167
62 98 163
62 98 163
61 97 156
61 97 155
62 97 161
61 97 162
62 98 162
59 93 144
61 96 155
61 96 158
60 94 141
62 97 159
60 94 145
59 92 140
61 95 145
59 92 137
60 93 147
59 79 94
57 74 90
64 68 51
69 71 18
76 76 21
79 80 24
86 86 23
77 80 29
72 73 27
75 77 22
91 90 31
80 81 28
84 85 29
91 92 26
95 94 33
91 92 40
88 89 32
101 101 38
96 96 40
85 86 35
106 106 47
100 100 31
105 104 45
103 103 50
112 112 38
124 122 45
105 104 41
108 108 34
125 122 52
115 114 52
121 120 52
119 118 50
123 121 36
131 127 53
129 126 45
127 125 51
129 125 49
130 128 53
131 129 49
133 131 49
132 128 51
133 130 57
146 142 61
136 132 61
145 141 59
138 134 56
142 137 57
139 136 55
145 141 60
147 142 59
151 145 61
135 132 50
149 144 61
147 143 56
149 144 68
156 149 70
142 139 51
155 149 57
145 140 52
153 148 60
155 148 68
153 147 60
153 146 62
158 151 67
159 152 71
153 147 63
145 140 61
154 149 66
153 147 62
151 145 64
158 153 62
154 149 58
152 146 67
156 150 63
153 147 64
155 149 59
152 146 60
148 143 58
151 145 60
159 152 70
152 146 58
150 146 52
152 146 62
148 144 56
156 150 58
148 143 59
144 139 54
147 142 53
154 149 61
147 142 56
149 143 54
147 141 62
145 138 57
151 145 63
148 142 56
142 137 56
143 138 57
148 143 59
146 141 51
146 141 51
142 136 49
137 132 45
143 137 51
138 132 47
143 137 54
130 126 42
133 128 56
135 130 44
133 128 47
129 125 41
136 133 48
131 130 41
136 133 47
133 134 30
147 150 44
149 152 34
154 160 42
152 161 28
149 161 28
150 163 19
155 168 25
157 172 22
160 176 19
165 181 0
163 182 0
165 184 0
171 190 0
166 185 0
170 191 0
168 188 0
171 191 0
168 187 0
170 189 0
169 188 0
170 189 0
169 187 0
170 187 0
170 194 25
169 192 25
171 195 36
171 194 25
173 196 25
174 197 51
176 199 44
175 197 62
170 194 25
170 193 57
173 196 36
172 196 36
174 197 67
176 198 67
173 196 62
176 199 67
173 196 57
173 196 51
176 197 80
172 196 57
173 196 67
174 197 62
175 197 62
172 194 72
174 197 67
170 192 84
173 195 51
175 198 44
176 198 76
173 195 67
175 198 36
176 198 80
173 195 67
175 198 80
176 198 72
171 195 44
179 200 92
175 196 99
175 197 84
174 197 67
176 199 84
178 200 76
174 197 80
177 200 80
173 196 72
178 200 95
173 196 67
177 199 84
172 194 51
174 197 44
172 194 51
175 197 72
167 190 51
174 197 72
171 194 57
172 194 62
172 195 25
175 198 76
172 195 67
173 195 67
172 196 36
167 190 25
173 195 76
174 197 67
174 197 57
169 192 44
173 195 51
167 191 36
171 195 62
174 196 67
169 193 36
171 195 36
171 194 44
167 191 25
162 184 0
165 188 25
172 195 44
168 192 36
169 193 25
167 191 25
168 192 36
162 186 18
163 186 31
162 186 54
123 149 126
74 108 169
63 100 174
66 101 172
63 100 173
65 100 171
62 98 173
63 100 173
62 99 175
62 99 169
62 98 172
61 97 169
63 100 177
61 98 171
63 99 173
62 99 174
62 99 171
63 99 176
61 98 169
62 98 174
62 99 173
61 98 168
63 99 177
62 99 176
61 98 170
62 98 172
62 99 168
62 99 177
62 99 172
62 99 172
62 99 175
62 99 173
62 99 176
62 99 174
62 99 176
62 99 177
61 98 171
61 97 168
62 99 178
62 98 172
62 99 174
62 98 168
63 99 173
62 99 173
62 99 173
62 98 173
62 99 172
61 98 169
62 98 176
62 99 172
61 98 172
62 99 172
63 99 172
62 99 177
62 99 170
62 99 170
62 99 175
62 98 174
62 99 173
62 99 175
63 99 169
63 99 172
61 98 167
62 99 173
62 99 170
61 98 165
62 99 178
61 98 169
62 99 168
62 99 172
63 99 167
61 98 171
63 100 174
62 99 171
62 99 169
62 99 172
62 98 172
62 99 175
62 99 168
63 99 168
62 99 172
62 99 172
63 99 172
62 99 171
62 99 171
62 99 171
62 98 164
62 99 173
62 99 170
62 98 170
62 98 169
62 98 165
61 98 173
63 99 169
62 98 168
63 99 171
62 98 164
62 98 174
61 98 165
63 99 171
61 97 161
62 99 175
62 99 172
61 97 165
62 99 170
62 99 171
62 98 164
62 98 169
62 98 166
62 98 168
62 98 167
62 98 164
61 98 164
63 100 171
62 99 172
62 98 167
62 98 165
62 99 172
62 98 164
62 98 167
62 98 160
62 98 169
62 98 163
63 99 169
61 97 159
62 98 167
62 98 166
62 98 163
63 100 171
62 98 162
63 99 166
62 98 165
62 98 165
63 99 171
62 98 166
62 98 161
63 99 166
62 98 161
63 99 166
62 98 163
62 98 165
63 99 167
62 98 159
62 97 158
62 98 163
62 98 167
62 98 164
62 98 166
63 99 172
63 99 167
62 98 165
62 98 162
63 99 164
63 99 173
61 98 165
62 98 164
61 97 159
62 98 160
62 98 160
61 97 159
62 97 160
62 98 165
61 97 161
62 97 160
61 97 153
62 98 161
62 97 161
63 98 165
60 96 152
61 97 157
60 94 144
60 96 155
60 95 148
61 96 151
61 95 145
60 95 143
61 96 154
59 93 141
62 94 141
67 88 117
63 75 84
74 80 52
70 72 21
79 79 14
82 82 19
79 81 23
73 73 18
78 80 28
72 74 17
78 80 33
86 87 27
79 82 33
101 100 28
87 87 35
93 94 33
86 87 28
100 100 36
98 97 36
101 101 37
92 93 39
113 110 42
105 104 35
103 102 39
118 116 50
118 116 44
114 112 51
124 122 50
123 121 48
121 118 52
124 120 47
135 131 54
120 118 42
117 116 58
127 124 52
138 133 57
134 131 56
119 118 50
138 133 56
141 137 63
142 138 56
131 127 50
130 127 50
136 132 53
138 134 58
134 131 51
138 134 54
147 143 67
151 146 69
142 138 58
147 143 59
148 143 60
145 140 55
149 143 62
148 143 56
143 138 51
139 135 54
156 151 57
153 147 57
147 141 61
145 141 53
149 144 61
147 142 57
150 144 60
146 141 58
153 148 57
151 146 61
151 146 65
157 151 64
149 145 56
151 146 62
140 135 51
143 139 50
154 148 60
159 152 65
159 153 65
151 146 56
154 147 65
153 147 53
150 145 58
153 146 63
155 148 66
143 138 51
140 135 49
148 142 57
145 139 60
148 143 48
144 137 52
141 136 51
144 138 54
150 144 61
146 140 59
151 145 60
142 136 49
140 135 53
144 138 47
140 134 48
136 131 52
139 134 47
146 141 45
143 137 53
139 133 47
138 132 49
140 135 41
134 129 39
128 124 44
132 126 42
145 139 54
135 130 41
126 124 36
137 134 45
132 131 37
140 142 42
142 145 37
143 146 36
150 157 41
151 161 25
144 156 22
158 169 30
149 160 28
160 175 11
156 171 11
163 180 16
165 184 0
166 185 0
165 184 0
166 185 0
168 187 0
168 187 0
172 190 0
165 183 0
167 187 0
170 189 0
169 191 0
172 194 0
169 187 0
169 188 0
176 198 62
171 194 36
173 196 51
173 196 51
172 195 0
173 196 51
172 195 67
176 198 57
172 195 51
173 196 51
175 198 67
175 198 62
174 197 51
175 197 57
174 197 57
176 198 57
175 198 62
176 199 51
176 199 67
176 199 72
174 196 76
174 197 72
181 203 84
175 198 67
177 200 76
178 200 88
179 201 84
179 201 95
179 201 99
174 196 67
177 199 72
178 199 80
183 204 120
176 198 80
179 201 92
180 202 102
176 198 88
174 197 80
176 199 92
176 197 102
177 198 84
178 200 88
177 199 72
173 195 92
172 194 80
177 199 95
178 200 88
172 195 67
174 197 72
174 196 95
178 200 80
174 196 72
176 197 92
176 198 72
174 196 80
175 197 88
176 199 80
174 196 84
171 194 67
170 193 67
168 191 36
177 199 67
172 194 57
170 193 51
171 194 51
170 192 72
174 197 62
166 190 36
172 194 67
167 190 44
172 195 72
169 192 51
172 194 44
169 191 57
164 186 44
169 191 44
166 189 44
171 194 57
168 191 25
171 194 25
164 187 25
168 192 40
164 186 36
151 175 72
127 153 124
74 107 169
65 101 176
68 103 175
69 104 173
63 99 176
62 98 168
63 100 172
63 99 173
63 99 175
62 98 173
63 99 174
62 98 170
63 99 175
63 100 180
63 100 176
63 99 175
62 99 173
62 99 171
62 99 175
62 99 172
61 98 175
62 98 173
62 99 175
62 99 173
61 98 169
62 98 166
62 99 174
62 99 177
62 98 173
62 98 169
62 98 174
62 98 169
62 99 171
62 99 176
63 99 175
62 99 172
62 99 175
61 98 170
63 99 174
61 98 173
63 99 174
62 99 172
61 98 167
62 99 173
61 98 166
62 99 174
62 99 172
62 98 171
62 98 171
62 99 172
62 99 172
62 98 169
62 99 173
62 99 173
62 99 170
62 99 174
63 99 178
62 98 170
62 99 178
63 99 172
62 99 173
63 99 172
62 99 168
62 98 169
62 99 174
62 98 165
62 98 170
61 98 167
62 99 173
62 99 172
61 98 169
62 99 172
62 99 171
61 98 167
62 99 171
62 99 173
62 99 172
62 98 171
62 99 171
62 99 175
63 99 171
63 99 169
62 98 167
62 99 166
63 99 172
62 99 168
62 99 172
62 98 170
62 98 167
61 98 162
62 99 171
62 99 167
62 98 165
62 99 171
62 98 168
63 99 172
62 98 168
62 98 168
61 98 165
62 98 168
62 99 170
62 98 168
62 99 171
62 98 170
62 98 170
62 99 170
62 98 168
62 98 167
63 99 169
62 98 164
62 99 168
62 98 161
62 98 162
62 98 165
62 98 169
61 97 159
61 97 158
61 97 160
62 99 167
63 99 170
62 98 166
62 98 167
61 97 166
62 99 165
63 99 172
61 97 162
62 99 167
62 98 161
61 97 163
62 99 169
62 98 163
62 98 164
62 98 165
62 97 157
62 98 162
62 98 167
62 98 166
62 98 157
62 98 165
62 98 167
62 98 161
62 98 166
62 99 168
62 98 165
62 98 164
62 97 154
62 97 157
62 98 158
63 99 161
62 98 163
62 98 161
61 97 156
62 98 163
62 98 165
62 98 161
61 97 159
62 98 160
61 98 158
60 96 150
61 98 165
61 97 149
61 97 153
62 97 157
60 95 153
61 96 151
60 96 156
62 98 165
60 96 149
62 97 160
61 96 150
60 96 151
61 95 148
60 95 149
61 96 150
60 94 150
61 95 149
58 92 141
59 92 136
56 85 122
73 84 82
77 81 48
71 71 17
74 75 23
65 66 25
84 85 24
90 89 20
88 89 24
76 79 20
84 84 25
90 90 26
94 95 33
83 84 30
83 83 20
80 80 24
96 96 33
102 100 37
95 96 28
105 105 41
93 95 29
113 110 43
110 109 40
111 110 42
109 108 41
107 106 46
127 125 51
115 114 39
119 118 48
123 120 43
130 126 50
115 112 50
127 124 53
125 123 53
128 124 47
125 121 45
131 129 56
131 127 57
132 128 57
123 120 49
135 131 56
137 133 55
143 138 57
131 127 56
140 137 48
145 139 57
135 132 43
140 136 52
141 137 53
145 140 53
139 136 42
139 135 53
156 151 59
146 141 48
145 141 57
148 143 64
151 145 58
146 141 51
156 151 64
147 142 53
148 143 56
143 138 49
153 147 60
141 136 56
149 143 63
146 142 51
154 148 64
151 145 58
150 145 49
144 140 49
150 145 57
145 140 52
149 143 58
156 150 61
144 138 59
152 145 63
156 150 61
148 142 48
157 150 63
147 140 56
153 147 58
148 143 56
144 137 54
149 142 57
148 141 53
155 149 59
151 145 60
146 140 58
146 142 53
142 137 47
152 145 54
146 139 54
147 142 53
147 141 52
134 129 42
154 147 58
142 137 44
143 138 47
139 134 52
140 135 48
147 140 57
136 132 47
134 128 52
142 135 51
133 128 42
135 130 47
140 134 56
135 130 41
130 124 52
136 133 44
136 136 39
131 130 36
136 138 36
141 143 45
140 146 25
144 152 30
149 159 19
148 158 25
152 164 25
154 166 16
157 173 16
159 175 11
160 177 11
167 184 0
169 189 0
168 187 0
166 184 0
166 184 0
165 184 0
167 187 0
169 189 0
166 186 0
164 184 0
170 189 0
170 188 0
168 189 0
171 190 0
173 196 36
176 198 44
173 194 67
172 195 57
171 193 57
172 196 57
172 195 51
172 194 44
176 198 51
174 197 62
178 201 72
175 198 57
175 198 57
175 198 62
174 198 36
174 196 76
177 199 84
170 194 44
175 197 62
176 197 92
176 199 72
177 199 88
177 198 92
181 202 111
173 196 84
175 198 84
178 200 92
178 200 88
176 197 92
179 200 99
176 197 92
173 196 76
179 200 105
179 200 111
177 199 80
179 202 102
177 199 92
179 201 92
180 201 92
178 199 108
175 197 108
179 200 108
178 201 102
178 200 102
179 201 99
182 203 102
178 200 99
173 195 67
180 202 99
179 201 105
180 202 99
176 198 92
176 197 95
177 200 99
177 198 84
176 199 92
179 200 108
173 195 76
172 194 80
173 195 84
174 197 67
174 196 67
173 196 44
174 197 67
174 196 76
168 191 57
172 194 67
173 196 67
172 195 44
172 194 62
171 193 44
174 197 62
175 196 51
170 193 25
170 193 51
166 188 36
170 192 57
170 193 51
166 188 62
170 192 57
164 188 36
165 188 54
163 186 51
153 176 84
129 155 125
78 110 162
67 102 165
67 103 172
70 104 172
68 102 170
65 101 171
63 99 174
62 98 171
63 99 174
63 99 175
63 99 175
63 99 174
62 98 173
63 99 174
62 99 171
62 98 170
62 99 174
62 99 169
62 98 173
62 99 174
62 99 173
62 98 175
61 98 170
62 98 170
62 98 171
62 99 173
61 98 169
63 99 176
62 98 173
61 98 175
62 99 174
62 99 172
62 99 176
63 99 174
62 99 177
62 99 174
61 97 169
61 97 168
62 99 174
62 98 168
62 99 174
61 98 173
63 99 173
62 98 174
62 99 171
62 99 175
61 98 168
62 99 175
61 98 169
61 97 166
62 99 175
62 99 175
62 98 168
62 98 169
62 98 169
62 98 169
62 98 170
62 99 174
62 99 174
62 99 171
61 98 168
62 98 170
62 99 172
63 99 170
62 99 173
63 99 172
62 99 175
62 98 169
62 99 173
62 99 170
62 99 170
61 97 166
62 98 170
62 99 171
61 98 166
61 98 166
62 99 174
62 99 172
62 99 170
63 100 177
61 97 164
62 99 175
62 98 168
62 99 172
62 99 173
62 98 171
62 99 170
62 98 171
62 99 171
61 97 162
62 98 167
61 98 169
62 98 167
62 98 167
62 99 174
62 98 170
62 99 168
62 99 167
62 98 164
61 97 163
61 97 161
63 99 168
62 98 164
62 98 166
62 99 171
63 99 169
62 99 170
62 98 166
63 99 171
62 99 164
63 99 168
63 99 174
63 99 170
61 97 161
61 97 161
62 98 163
62 98 165
62 98 167
62 99 172
62 98 168
62 98 169
62 99 166
62 98 165
63 99 171
61 98 161
62 98 162
63 99 164
61 98 164
63 99 167
62 98 165
62 98 163
61 97 158
62 98 165
62 98 162
62 98 167
62 98 163
62 98 169
61 98 163
62 99 163
62 98 159
62 98 167
63 99 164
62 98 162
62 98 163
63 98 162
63 99 162
62 99 166
62 98 162
63 99 167
62 98 165
62 98 159
62 99 162
62 98 163
62 98 165
62 97 160
62 97 158
61 97 158
61 96 156
62 98 155
62 97 158
61 95 146
61 96 154
62 98 161
61 96 150
62 97 154
61 97 153
61 97 152
60 95 145
61 96 159
60 96 154
61 96 145
60 94 144
60 95 146
60 94 139
60 94 148
61 95 149
59 92 132
58 91 134
64 88 120
72 84 82
67 74 52
84 83 24
81 82 13
81 82 19
76 76 20
82 82 21
71 71 19
77 78 30
87 87 21
87 88 27
85 88 31
82 83 27
93 93 29
89 89 25
82 84 29
96 96 34
106 105 40
101 100 33
103 102 36
101 100 36
105 105 41
104 104 43
108 107 41
109 107 49
103 103 44
116 114 47
112 111 38
114 113 40
126 122 56
120 118 48
125 122 48
122 120 41
135 132 54
129 127 50
128 125 52
128 126 55
132 129 55
125 123 41
135 132 54
136 132 59
140 135 58
142 136 56
140 136 48
143 138 55
138 135 51
140 136 60
148 143 62
141 137 53
144 139 59
149 143 61
140 135 57
147 140 63
145 140 58
149 143 60
140 136 47
140 135 55
140 135 54
150 145 57
146 140 55
143 138 53
145 141 48
150 145 60
148 142 57
152 147 52
149 144 61
149 142 56
151 145 57
146 141 56
156 151 67
155 149 59
143 139 44
152 145 59
154 148 58
157 151 60
153 148 58
151 144 62
150 144 57
154 148 56
153 148 58
157 150 59
149 143 60
147 142 57
147 141 60
148 142 58
153 146 62
149 143 59
145 141 51
138 132 49
146 141 54
143 139 51
140 135 45
138 133 48
152 145 61
143 136 53
146 141 56
144 138 47
141 136 53
139 132 56
139 134 45
139 134 42
147 141 54
139 134 51
134 129 39
135 129 41
128 126 36
135 129 39
137 133 48
134 129 42
141 141 41
138 142 25
144 149 36
149 155 41
153 161 32
143 153 30
149 160 19
154 166 16
157 171 22
153 164 30
157 170 19
160 176 11
163 182 19
167 184 0
163 181 0
167 187 0
170 188 0
165 185 0
169 188 0
172 190 0
168 190 0
168 188 0
166 186 0
165 183 0
164 183 0
168 189 0
168 188 0
172 196 36
173 196 36
176 199 67
171 195 57
171 194 36
173 196 44
174 197 44
171 194 44
171 195 57
174 197 62
172 195 67
175 197 67
176 199 76
176 198 57
176 198 62
178 200 102
183 204 108
179 201 88
179 202 92
180 201 105
176 199 62
179 202 92
177 199 92
177 199 95
176 198 92
176 199 88
177 200 99
180 202 99
178 200 99
181 203 120
175 198 92
180 202 102
179 201 111
178 199 108
179 200 105
181 202 111
176 198 99
182 203 117
182 203 122
182 203 111
178 199 108
187 207 133
180 202 108
180 201 108
182 203 125
181 202 108
174 196 92
183 204 114
173 196 88
178 200 95
176 198 95
173 196 88
178 200 88
180 201 105
178 201 95
175 196 105
180 201 114
178 200 95
175 197 92
177 199 95
173 196 80
174 196 84
174 196 80
174 197 80
174 196 80
174 196 72
174 196 72
174 197 80
174 196 62
169 191 72
171 193 62
168 190 36
175 198 57
168 190 36
170 193 57
172 195 36
171 194 62
173 196 57
168 191 25
165 188 51
165 188 31
164 187 62
164 187 60
148 171 90
120 147 125
80 112 167
71 105 167
70 104 166
71 105 169
66 102 171
65 101 173
65 101 172
63 99 173
62 99 170
65 101 164
62 98 172
63 100 176
62 98 172
63 99 178
62 99 175
62 98 174
62 98 174
62 99 172
62 98 173
62 98 172
61 97 170
62 98 170
62 98 172
61 98 174
61 98 172
62 99 174
61 98 173
62 98 169
62 99 174
62 98 173
61 98 167
62 99 173
63 100 176
61 98 167
62 98 170
61 98 174
62 98 172
62 98 173
62 99 176
62 99 174
62 99 177
61 98 167
62 99 173
62 98 174
62 99 174
62 98 170
61 98 170
62 98 170
62 99 170
62 99 175
62 98 171
61 97 165
62 99 170
61 98 169
62 99 174
62 99 172
62 99 170
62 99 176
62 98 170
61 98 170
62 99 172
63 99 172
62 99 172
62 99 170
61 98 164
62 99 171
62 98 171
61 97 164
61 98 171
62 99 173
62 98 169
61 97 165
61 98 167
62 99 171
63 99 174
61 98 165
61 97 162
61 97 156
62 98 167
62 98 169
62 99 174
62 98 169
62 99 177
63 99 172
62 98 168
61 98 167
61 98 164
62 98 169
62 99 172
61 98 163
62 98 168
61 97 161
63 99 170
62 98 168
62 98 168
62 99 169
61 98 164
62 99 170
62 98 168
63 99 171
62 98 166
62 98 169
62 98 164
62 99 167
61 97 157
63 99 175
62 99 171
62 98 166
61 98 168
62 98 170
62 98 164
62 98 165
62 98 167
61 98 164
62 98 169
63 99 164
62 99 172
62 98 163
61 97 161
62 99 173
62 98 165
62 98 165
62 99 165
62 98 167
61 97 158
62 98 164
62 98 159
61 97 161
61 97 156
62 97 160
63 100 171
62 98 162
62 99 166
62 98 162
62 98 165
61 98 159
63 99 168
62 99 165
61 98 163
63 99 169
62 98 163
62 98 163
62 98 157
63 99 161
63 99 166
61 97 157
62 97 159
61 97 156
62 99 163
62 98 160
62 98 163
62 98 159
63 98 158
62 98 159
60 96 156
62 98 164
61 97 153
62 98 158
63 99 167
61 97 155
62 97 155
62 97 158
62 97 154
61 97 155
62 97 158
61 96 147
62 98 156
61 96 154
61 96 152
61 96 147
61 96 152
60 95 150
60 95 146
61 96 149
60 96 152
59 93 142
60 94 149
60 93 149
59 85 112
68 84 94
78 81 44
79 78 18
72 74 19
91 90 22
89 89 24
84 84 20
85 86 25
90 91 20
88 88 22
89 89 30
93 92 34
89 90 26
101 101 33
79 81 25
91 91 28
92 92 28
108 107 48
97 97 35
100 99 35
96 96 41
96 97 32
104 105 43
107 107 29
103 102 37
113 111 42
110 110 46
111 109 40
113 111 43
113 110 38
131 127 51
121 119 42
133 130 45
123 121 43
133 129 52
131 128 42
137 133 53
122 120 49
133 131 51
141 136 58
137 133 50
131 127 50
133 130 51
137 133 54
136 132 51
137 134 58
135 132 48
140 136 53
141 137 55
140 136 48
138 134 55
141 137 52
145 141 53
140 136 53
144 139 57
146 142 53
146 140 56
146 141 53
151 145 61
145 140 55
148 142 56
156 149 62
144 139 53
147 142 60
149 144 52
152 147 62
150 144 54
150 144 53
155 149 54
144 138 49
151 145 59
153 148 59
146 140 55
142 136 51
146 141 48
149 144 57
150 143 53
152 147 56
141 135 42
145 140 49
149 144 57
136 131 54
145 140 54
142 137 48
144 139 48
142 137 48
146 140 49
138 133 53
138 133 47
136 131 41
140 135 45
141 136 54
144 139 42
136 132 47
138 133 48
142 136 52
142 135 51
143 138 48
137 130 44
139 132 51
123 118 41
137 131 48
135 130 41
136 131 41
132 127 44
133 129 42
138 135 45
140 137 47
135 135 41
137 139 37
141 145 36
138 142 28
149 156 39
155 163 34
149 160 19
154 164 32
156 169 22
154 169 11
160 177 16
159 173 16
166 183 11
164 179 11
168 187 11
169 187 0
167 187 0
165 183 0
165 182 0
171 192 0
167 186 0
168 188 0
168 185 0
167 182 0
166 186 0
168 186 0
167 188 0
169 189 0
173 196 44
171 194 44
173 196 36
169 194 44
172 196 57
175 198 62
174 197 57
171 194 57
177 199 76
172 194 67
176 199 72
170 193 57
183 204 105
178 199 84
176 198 88
182 203 108
183 204 102
181 203 102
183 204 111
180 201 108
175 198 76
184 205 108
182 204 114
180 201 114
180 203 114
184 205 114
183 204 122
179 201 99
181 203 99
180 202 99
181 203 105
177 199 88
181 203 114
178 199 95
185 206 130
178 200 105
180 202 105
183 203 122
179 201 108
185 205 130
181 201 130
182 203 122
183 203 120
184 204 122
185 206 125
185 205 122
181 203 108
181 203 108
181 201 125
182 203 122
181 202 108
180 202 111
183 203 122
180 202 105
174 195 120
183 204 114
179 201 105
179 201 117
179 201 95
176 199 92
178 201 105
176 198 88
176 197 99
178 200 92
174 196 88
173 195 67
179 201 92
172 194 88
175 197 84
175 197 67
171 192 84
171 193 67
168 190 51
172 194 67
171 193 51
174 197 57
174 197 62
166 189 51
166 189 44
166 188 47
161 183 78
159 181 72
158 181 62
141 165 97
128 153 139
79 111 169
79 111 170
70 104 167
73 107 171
73 107 171
70 105 168
64 100 172
62 99 172
66 101 171
67 102 167
63 99 171
68 103 169
63 99 175
63 99 172
62 99 174
62 98 167
63 99 172
62 99 176
62 98 173
62 99 173
62 99 175
62 99 172
62 99 173
62 99 172
62 98 171
62 99 171
62 99 171
62 98 171
62 99 172
62 98 166
62 99 172
61 98 173
61 98 174
61 97 166
61 97 169
62 99 174
62 99 178
62 99 173
62 98 171
62 99 174
62 98 172
61 97 167
62 99 173
62 99 173
62 99 174
62 99 172
62 99 177
62 98 171
62 98 173
62 98 172
62 99 173
61 98 173
62 98 167
62 99 174
61 98 171
62 99 173
63 99 173
62 99 171
62 99 169
61 98 171
62 99 174
62 98 169
62 99 172
62 99 175
62 98 167
62 98 169
62 98 164
62 98 169
62 99 168
63 99 174
62 98 166
63 99 170
62 99 169
62 98 168
62 99 174
61 98 170
62 99 174
62 98 168
62 98 169
62 98 169
61 97 167
62 98 164
63 99 171
61 98 163
61 98 171
62 99 173
61 98 166
62 99 170
62 98 170
62 98 167
62 99 167
61 97 161
62 98 171
62 99 170
62 98 165
62 98 156
62 98 167
62 98 166
62 98 169
61 97 160
62 99 171
62 99 166
61 97 157
62 99 169
62 99 167
62 99 169
62 98 168
61 97 162
62 98 163
63 99 173
62 98 164
62 98 168
62 98 164
62 98 165
62 98 165
62 98 165
62 98 166
62 98 164
63 99 166
62 98 166
62 98 163
62 98 163
62 98 167
62 99 168
62 98 163
62 98 167
61 97 160
62 99 165
62 99 165
62 98 165
62 98 165
63 99 166
62 98 160
63 99 168
61 98 165
62 98 162
61 97 154
61 98 165
62 98 162
62 98 164
61 97 160
62 99 166
61 98 162
62 98 163
63 99 170
61 97 158
62 98 161
61 97 159
61 97 158
61 97 156
62 98 167
62 98 164
62 98 158
62 98 158
62 98 162
62 98 159
62 98 155
61 97 154
62 97 160
62 97 156
62 97 152
61 97 161
62 98 154
61 96 159
62 98 161
61 96 154
61 96 156
61 97 154
61 97 159
61 96 148
61 96 151
60 94 137
59 93 145
60 95 145
58 91 130
60 94 144
58 91 133
59 92 145
68 89 111
74 87 91
76 81 59
73 76 26
81 80 14
88 87 22
87 87 23
86 84 20
96 95 17
81 81 16
89 89 31
79 79 28
92 91 28
93 94 23
90 90 27
107 105 24
87 88 31
102 101 26
95 96 36
101 100 35
104 103 37
99 100 31
103 103 30
102 102 41
111 109 41
103 103 41
96 98 36
112 111 37
105 104 40
117 116 42
120 118 40
130 127 43
115 114 39
123 121 47
129 126 47
120 118 43
129 125 47
124 121 44
131 127 48
132 128 50
134 130 45
131 128 44
142 138 55
133 130 41
128 125 46
137 133 47
135 132 51
135 131 56
139 135 59
137 133 53
146 141 61
136 132 49
145 141 56
151 146 48
144 140 50
153 147 62
140 135 54
148 143 54
151 144 60
144 139 57
146 141 51
144 139 50
149 143 59
152 146 58
149 144 53
140 137 54
153 148 59
148 143 60
149 144 47
143 138 48
143 138 53
151 145 58
136 131 52
149 144 51
147 142 52
154 147 52
147 142 54
143 138 52
139 133 51
144 140 43
144 139 54
145 141 42
146 140 51
139 135 48
149 144 52
149 143 57
144 138 44
146 140 52
146 140 53
141 136 45
138 133 52
140 135 51
137 132 48
136 130 44
144 138 47
138 133 48
134 128 41
138 133 42
142 136 51
139 133 45
145 139 47
128 123 41
134 128 37
132 126 45
137 134 37
124 122 30
133 131 45
134 134 37
135 134 45
130 134 19
140 141 44
141 147 30
154 161 32
144 151 28
148 157 25
146 157 25
153 163 22
156 167 30
160 177 19
160 174 0
166 182 0
165 182 11
165 184 0
166 183 0
169 189 0
167 186 0
165 184 0
165 183 0
170 190 0
165 182 0
167 185 0
169 187 0
171 189 0
164 184 0
168 187 0
166 186 0
170 189 0
176 199 57
176 198 62
172 196 57
174 196 76
175 198 57
175 197 51
173 195 57
175 197 67
177 199 88
175 197 99
175 197 76
178 200 88
177 199 99
178 200 99
181 202 108
180 201 102
180 202 102
181 202 114
182 204 114
179 201 108
182 203 108
183 204 120
181 202 108
183 204 120
185 206 120
180 202 111
186 208 137
184 205 120
183 204 117
186 206 140
183 203 117
184 204 117
183 204 122
182 203 127
180 202 105
182 203 135
189 209 157
183 204 125
186 207 140
188 208 140
180 200 127
186 207 133
186 207 130
186 207 140
180 201 117
181 203 99
186 207 135
182 203 125
185 205 135
182 203 117
184 205 130
178 199 114
185 205 140
185 205 130
186 206 144
182 203 117
182 203 125
180 201 117
183 204 117
183 203 125
181 202 117
177 199 99
178 199 95
178 199 99
178 199 88
176 197 108
181 202 117
174 196 102
175 197 92
170 193 80
175 197 76
173 196 72
177 199 80
174 196 76
174 196 84
171 193 72
166 189 67
172 195 67
170 193 51
162 184 76
159 182 94
155 178 80
154 178 84
141 165 113
116 142 133
81 113 169
83 115 165
78 110 164
73 106 170
71 105 172
69 104 171
71 106 170
67 102 174
64 100 172
67 101 167
65 101 174
65 101 173
62 99 173
62 99 169
62 99 170
63 99 171
63 99 174
62 99 171
62 99 170
62 99 176
62 99 172
62 99 174
62 99 176
62 99 172
62 99 173
61 98 173
61 97 165
62 99 173
62 98 170
62 99 177
61 98 171
62 98 174
62 98 172
62 98 174
62 99 173
61 98 164
62 98 170
62 99 178
62 98 172
62 99 171
63 99 175
62 98 168
62 99 177
61 98 172
61 98 172
63 99 176
62 98 166
62 99 176
62 98 166
62 99 170
62 98 164
62 98 168
62 98 172
62 98 171
62 99 173
62 98 174
61 98 167
62 98 164
62 98 171
63 99 176
62 98 171
62 98 165
62 98 167
62 98 169
62 98 172
62 99 173
63 99 173
61 97 169
61 97 164
62 99 174
62 98 167
62 99 170
62 98 169
62 98 167
62 98 166
62 98 170
61 98 164
61 97 167
62 99 171
62 98 162
61 98 168
62 99 168
62 99 175
63 100 174
63 99 168
62 98 170
62 99 171
61 97 160
62 99 168
62 99 172
62 99 169
62 99 167
62 98 170
62 99 169
61 98 167
62 99 170
62 98 167
63 99 171
62 98 164
62 98 168
62 99 168
62 99 173
61 98 161
63 99 170
62 98 165
61 97 158
62 98 162
61 97 157
63 99 173
62 98 166
62 99 169
63 99 169
62 99 166
62 98 169
62 99 171
61 97 165
62 98 168
61 97 158
62 98 166
62 99 166
62 99 170
62 98 167
62 98 162
62 98 163
62 98 165
62 99 164
63 99 163
62 98 162
62 98 161
62 98 162
62 98 159
63 99 168
63 99 170
63 99 163
62 98 169
61 97 162
61 97 157
62 98 158
62 98 163
61 97 162
62 98 158
63 99 162
61 98 162
61 97 161
62 98 162
61 97 156
62 97 156
62 98 155
63 99 163
61 97 159
63 99 163
61 97 163
62 98 160
62 98 165
62 98 163
62 98 161
62 97 159
61 97 159
62 98 160
63 99 167
62 98 158
61 96 154
62 97 158
60 95 152
61 96 146
61 97 155
61 96 152
61 96 151
61 96 150
62 97 155
61 96 153
61 95 147
59 93 143
60 94 144
60 95 148
59 93 148
61 96 147
59 90 135
64 88 119
69 84 96
64 71 58
77 76 24
90 87 11
77 78 19
79 79 19
89 88 14
84 83 13
78 80 17
85 84 14
82 81 15
97 97 26
86 86 23
88 89 26
89 90 30
95 93 27
90 90 27
103 102 27
108 106 28
100 100 33
114 111 33
108 105 39
107 106 38
103 102 41
107 106 38
114 112 38
109 109 45
115 113 40
115 114 37
114 111 43
113 111 38
116 113 42
124 121 41
122 119 41
130 127 39
130 127 37
118 116 37
124 122 53
130 126 55
134 132 47
132 130 46
132 129 47
142 138 50
133 132 46
129 126 46
138 134 47
136 132 53
137 133 44
143 138 53
134 131 43
145 141 50
148 142 60
147 142 60
137 132 57
135 130 49
141 138 54
144 139 54
144 139 59
142 138 47
147 143 50
147 142 57
134 130 40
144 140 47
148 142 54
139 134 54
151 146 56
148 142 58
144 139 51
143 137 52
146 140 53
140 134 54
144 139 54
142 136 53
151 145 56
151 145 54
146 140 48
144 139 48
147 142 49
145 140 57
150 143 54
139 135 47
151 146 51
148 142 53
142 136 51
143 136 47
144 139 52
153 148 59
144 138 54
141 137 48
143 137 45
142 135 48
141 137 47
149 142 48
140 134 45
143 137 48
142 137 45
135 130 52
145 139 49
136 131 32
135 130 39
136 131 49
135 129 41
140 135 41
128 122 44
139 135 47
138 135 36
139 140 36
142 142 36
139 140 30
135 138 32
142 146 34
154 164 19
139 147 16
145 154 19
152 164 19
150 163 19
155 168 11
161 177 19
160 175 11
161 179 0
165 183 0
166 182 0
164 183 0
165 183 0
169 186 0
168 186 0
164 181 0
165 183 0
168 187 0
168 188 0
169 188 0
165 185 0
164 183 0
171 191 0
165 183 0
166 186 0
172 195 51
175 198 51
176 199 62
177 199 57
179 201 88
179 200 102
175 197 92
178 200 84
177 199 88
180 201 95
181 202 108
183 204 117
183 204 95
178 200 105
181 203 102
179 201 102
182 204 102
185 206 117
181 203 108
179 200 111
184 206 125
186 206 130
182 203 122
188 208 137
188 209 142
184 205 127
188 208 133
186 206 125
185 206 133
184 205 127
183 205 120
189 209 151
177 198 125
190 210 155
184 205 130
185 207 137
189 209 144
188 209 142
189 210 149
186 206 122
184 205 149
182 203 120
189 208 144
187 207 137
191 211 155
187 207 140
188 208 151
189 209 147
186 207 135
186 206 142
189 210 153
180 201 130
185 206 120
184 205 127
181 202 127
188 208 147
186 207 137
184 206 120
176 197 114
176 197 108
180 201 95
183 204 125
181 201 117
176 198 102
178 200 108
183 203 125
176 198 99
175 196 80
177 200 111
178 200 92
178 199 99
175 196 92
177 198 95
170 193 72
174 197 76
176 198 84
165 188 36
168 190 62
170 192 78
158 181 88
159 182 88
155 179 94
142 165 118
139 163 117
117 143 140
85 115 161
83 114 169
80 112 172
75 108 168
69 104 176
70 104 165
64 99 172
71 105 166
67 103 174
71 105 169
66 102 171
63 99 175
66 102 168
61 98 174
62 99 170
61 98 171
63 100 174
62 99 174
63 99 171
62 98 171
62 99 175
63 99 172
62 98 173
61 98 171
61 97 163
62 99 171
61 98 170
62 98 173
62 99 173
61 98 167
62 98 171
62 99 174
62 98 169
62 99 176
62 98 168
62 98 167
62 99 176
62 99 172
62 98 167
61 97 165
62 98 168
62 99 174
62 98 169
62 98 167
62 99 171
61 98 171
63 99 173
62 98 169
61 98 169
61 97 164
62 98 172
62 98 170
62 99 173
61 97 164
62 98 170
61 98 167
62 99 172
62 99 170
62 99 171
62 99 175
62 99 168
62 98 169
62 99 172
62 99 172
63 99 172
62 99 169
62 99 171
62 98 168
62 98 171
62 98 167
62 98 174
62 99 174
62 98 164
62 99 170
62 98 166
62 98 168
62 98 165
62 99 168
61 97 163
61 98 168
61 98 165
61 97 162
62 98 165
63 99 170
61 98 165
62 98 167
61 97 162
62 98 167
62 98 167
63 99 171
62 98 168
62 98 167
61 97 166
62 98 165
63 100 175
62 98 166
62 98 167
62 99 169
62 99 169
62 98 161
62 98 169
63 99 165
62 98 161
62 98 168
62 99 171
62 98 168
62 98 168
61 97 154
62 99 167
63 99 174
62 98 169
61 98 163
62 98 164
61 98 165
61 98 163
62 98 163
62 99 164
61 97 160
62 98 165
62 99 169
63 99 165
61 98 161
62 98 157
62 99 171
62 99 167
62 98 157
62 98 161
62 98 159
62 98 166
62 98 165
61 98 164
62 98 164
61 98 161
62 98 160
60 97 159
62 98 166
62 98 161
62 99 170
62 98 161
61 97 161
62 97 157
61 97 158
63 99 162
62 99 164
62 98 160
61 97 160
62 97 155
62 97 153
62 98 160
62 98 163
61 97 159
61 97 164
63 98 159
62 97 164
62 98 162
62 98 162
61 97 158
62 99 167
62 98 161
62 98 158
61 97 156
61 96 151
62 97 156
62 98 157
61 97 159
61 97 157
61 96 148
62 98 160
60 96 151
60 95 145
60 96 154
61 96 145
60 95 147
59 93 138
60 94 146
58 92 139
61 95 150
59 93 143
69 94 118
65 81 97
79 82 57
83 84 18
83 82 12
81 82 15
83 82 16
91 90 19
88 86 15
83 83 18
93 93 24
86 87 23
90 89 27
86 88 26
101 98 23
101 99 24
98 98 34
93 93 27
104 102 27
109 106 39
104 103 28
111 109 33
115 112 31
106 105 27
103 102 17
109 108 43
113 110 41
111 110 35
116 115 40
110 107 46
122 120 39
120 119 44
119 116 39
114 111 35
126 123 49
134 129 55
126 123 53
126 122 45
127 123 45
132 128 47
133 130 42
128 125 50
135 131 56
134 131 44
136 131 55
141 137 55
140 135 50
140 134 53
142 137 58
137 132 56
141 136 52
142 137 51
141 136 53
136 131 49
142 139 53
143 139 56
148 142 58
143 138 47
143 137 54
142 137 42
131 126 44
139 135 47
147 141 56
136 132 47
138 133 38
143 138 58
139 135 46
150 145 48
147 142 48
143 138 48
150 144 59
152 145 58
150 144 52
147 142 53
147 143 52
150 144 53
149 143 56
143 137 53
141 137 47
146 140 51
147 140 52
148 141 58
139 134 51
148 142 53
147 142 49
140 135 42
141 135 48
144 138 57
138 131 48
140 136 37
132 128 44
142 137 51
141 135 49
140 135 49
139 134 49
139 134 45
139 133 48
136 130 44
131 125 28
138 132 54
135 129 45
125 119 39
133 128 47
130 125 36
125 124 39
136 132 39
132 130 36
138 135 34
139 139 36
135 138 28
145 150 30
149 156 36
145 154 28
154 163 28
152 162 22
153 166 22
158 173 22
157 171 19
161 175 0
161 179 0
166 185 0
161 179 0
164 181 0
164 183 0
166 182 0
164 185 0
170 189 0
168 186 0
171 190 0
164 181 0
165 183 0
165 184 0
167 187 0
169 188 0
169 189 0
168 187 0
168 188 0
176 199 57
177 200 76
177 199 80
176 199 92
177 198 88
183 204 102
180 201 88
181 203 108
179 200 95
180 202 108
181 202 102
182 202 117
180 202 114
181 203 111
191 211 155
182 203 120
178 200 114
183 204 111
189 209 140
188 209 144
187 207 149
186 207 140
188 208 147
189 209 157
187 207 137
186 207 140
184 205 137
183 204 133
186 206 137
189 209 142
185 205 135
190 210 151
187 207 153
189 210 144
192 211 153
192 211 165
190 210 159
185 205 135
185 206 133
188 208 149
191 211 147
193 212 171
187 207 137
191 210 167
184 204 133
191 211 159
190 210 153
188 209 149
186 206 149
190 210 153
187 208 155
188 208 151
185 204 144
185 205 120
192 211 153
184 204 137
183 204 130
186 207 135
183 204 130
176 197 99
186 206 127
184 205 120
181 201 127
182 203 130
184 204 117
184 204 125
180 201 120
177 199 114
179 200 122
179 200 117
181 201 122
179 200 111
175 197 80
175 196 80
175 197 99
178 201 76
171 194 62
174 196 94
172 194 88
163 185 108
153 176 107
148 172 105
143 167 102
136 160 127
121 147 147
97 125 164
90 119 169
78 109 173
80 112 174
78 109 171
81 112 171
73 107 168
71 104 164
65 101 173
70 104 167
71 105 166
64 101 173
64 100 168
62 98 169
62 98 167
63 99 176
61 98 169
62 98 174
63 99 173
61 98 162
62 99 173
61 98 173
61 97 171
60 97 169
62 99 173
61 98 169
62 98 167
62 98 168
62 99 173
61 97 172
60 97 171
61 98 169
62 99 173
61 98 169
61 98 170
61 98 171
62 99 173
61 98 170
62 99 171
62 98 175
61 98 171
61 98 165
61 97 171
62 98 170
62 99 172
61 98 173
62 98 173
62 99 172
61 98 170
61 97 165
61 98 171
62 98 167
61 98 167
61 98 168
62 99 169
62 98 170
61 98 170
61 98 170
62 99 172
61 98 171
62 99 177
62 99 174
63 99 172
63 100 173
62 98 168
61 97 169
62 99 172
62 99 169
63 99 176
62 99 172
62 99 169
62 98 170
61 97 169
62 99 170
62 99 167
62 99 173
62 99 171
62 98 166
61 98 166
62 98 167
62 98 165
62 98 164
62 98 165
63 99 171
62 99 166
63 99 174
62 99 168
63 99 170
62 98 163
62 98 169
62 99 169
62 98 167
61 98 166
62 98 167
61 98 165
63 99 171
62 99 166
62 98 161
62 98 166
63 99 166
63 99 169
62 98 166
62 98 164
62 99 169
61 97 158
63 99 169
63 99 167
62 98 167
61 98 163
63 99 165
62 99 166
61 97 161
62 98 164
61 97 157
62 98 160
63 99 169
62 99 169
62 98 160
62 99 165
62 98 161
62 98 165
61 98 163
62 99 166
62 98 166
62 98 165
62 98 160
62 99 172
63 99 169
61 97 157
62 97 159
61 97 156
62 99 166
62 98 162
61 98 165
62 98 157
61 97 156
63 99 170
62 98 152
62 98 165
62 98 161
63 99 161
62 98 159
61 98 160
61 97 163
61 97 159
62 98 162
61 97 159
62 98 159
61 97 158
62 98 158
63 99 165
61 96 148
62 98 158
62 98 163
63 99 158
61 97 157
62 98 161
60 95 148
61 97 155
61 97 158
61 97 154
61 97 157
62 98 157
60 95 147
62 98 166
60 95 143
62 97 150
62 97 155
61 96 158
60 95 145
60 95 148
61 96 152
61 95 154
61 96 151
59 92 142
60 94 145
60 93 144
59 94 147
68 91 124
75 87 89
61 67 53
81 80 20
75 74 18
79 78 9
85 85 20
69 69 20
84 83 18
77 78 13
88 88 22
87 87 18
85 85 28
90 89 23
91 92 32
97 96 16
76 75 23
96 96 20
100 99 30
107 106 30
104 102 30
105 104 33
101 100 37
104 102 26
95 96 31
104 103 26
113 111 32
115 112 35
112 110 37
104 102 41
122 119 32
107 105 34
124 121 37
110 108 36
116 114 40
129 126 45
125 122 49
124 121 47
122 119 45
133 130 42
127 125 40
134 131 47
130 126 45
134 129 50
139 135 53
138 133 39
133 131 44
137 132 49
146 141 49
140 135 48
140 136 45
134 129 44
142 136 53
139 135 44
143 137 53
149 144 56
149 143 60
142 136 52
145 140 48
144 138 57
148 142 44
140 135 53
147 141 55
139 133 42
147 141 53
146 140 52
148 143 58
143 138 51
147 142 49
145 139 48
140 135 46
147 141 53
141 137 41
149 143 56
146 141 52
143 137 51
145 140 48
147 141 49
141 134 52
147 141 47
139 133 51
148 142 49
143 136 53
147 142 49
141 135 48
139 134 48
136 131 42
129 125 37
142 138 45
138 132 52
143 137 47
135 129 49
136 132 44
137 133 34
132 127 36
139 133 48
137 132 42
132 128 39
135 130 41
137 131 41
125 121 36
134 128 49
133 128 41
126 123 37
134 132 45
135 136 28
133 132 39
135 139 28
137 139 34
138 140 37
146 153 32
147 156 16
157 168 22
153 165 16
153 164 25
162 175 19
164 179 16
157 171 11
158 172 0
167 184 16
164 182 0
165 182 0
166 184 0
167 185 0
169 189 0
169 187 0
167 185 0
165 185 0
163 180 0
167 184 0
169 190 0
169 188 0
169 189 0
168 187 0
164 184 0
169 189 0
166 184 0
174 197 72
177 200 84
179 201 102
180 202 102
178 200 99
181 202 108
180 201 108
179 201 99
181 203 105
183 203 125
178 200 114
184 205 120
178 200 99
182 204 114
184 206 125
185 207 137
183 203 125
191 210 155
189 209 140
188 207 144
189 209 151
192 211 167
185 205 142
187 207 140
185 206 142
191 210 161
187 207 144
190 210 159
188 208 147
187 207 140
191 211 165
189 209 161
192 212 153
187 207 147
194 214 169
194 213 165
190 210 153
192 212 171
193 212 165
192 212 157
189 209 161
191 211 153
191 211 157
190 210 157
195 214 177
192 211 157
184 204 149
194 214 167
189 209 155
192 212 167
187 207 147
186 205 153
192 212 157
192 211 157
191 211 161
190 209 157
191 210 155
183 204 142
184 205 151
186 207 135
187 207 144
190 209 149
187 207 147
182 203 122
183 204 117
180 201 114
186 206 140
185 206 137
177 199 108
180 200 117
183 203 127
174 195 84
178 199 114
175 196 92
178 199 102
182 202 105
174 195 99
173 194 94
170 192 103
162 185 120
148 172 117
145 169 114
150 173 118
136 160 131
111 137 145
96 125 160
83 114 169
79 111 172
79 111 176
78 110 169
67 102 171
75 108 172
81 113 172
67 102 170
66 101 168
65 101 170
69 103 167
66 102 177
66 101 167
62 99 170
63 99 174
63 98 166
62 99 174
62 99 173
61 98 171
62 99 175
61 97 171
61 98 170
61 97 175
61 98 169
62 98 172
61 97 166
61 98 168
61 98 170
61 98 172
62 98 171
62 98 171
61 98 171
62 98 173
61 98 171
62 99 175
61 98 166
63 99 174
62 99 175
62 98 174
62 98 172
61 98 172
62 98 164
62 98 172
62 98 173
61 98 172
62 99 173
62 98 165
62 99 173
61 98 164
62 99 172
61 98 165
62 98 169
63 100 176
61 98 168
63 99 169
62 98 166
62 98 169
62 98 168
61 97 167
62 98 170
62 98 166
62 98 172
62 99 169
62 98 169
62 99 167
61 97 163
62 99 169
62 99 170
63 99 169
61 98 166
61 98 161
62 98 165
62 98 168
62 99 171
62 99 173
62 98 165
62 99 169
62 98 168
62 98 165
61 98 165
62 98 168
62 99 174
62 99 167
63 99 164
62 98 167
63 99 171
62 99 172
61 98 167
61 97 165
62 98 163
62 98 165
61 97 161
63 99 166
62 98 166
62 99 171
62 98 166
63 99 171
61 97 161
62 99 165
62 99 171
62 99 166
62 98 167
62 99 168
62 98 169
62 98 168
62 98 161
62 98 168
61 97 159
61 97 160
63 99 169
62 98 159
62 98 167
62 99 168
61 97 162
62 98 163
62 99 169
61 97 157
62 99 167
62 98 158
62 98 165
62 99 165
62 98 161
62 99 172
62 99 171
62 98 163
63 99 168
61 97 158
61 96 147
62 98 167
62 98 163
62 98 163
62 98 164
62 98 163
62 98 164
61 98 166
61 97 154
62 98 158
62 99 168
63 99 164
62 98 157
61 97 159
63 99 167
61 97 159
62 98 161
62 98 160
62 98 154
63 99 167
63 98 162
62 98 158
61 97 152
61 97 155
61 97 151
62 97 156
62 98 161
61 97 155
61 96 155
62 97 161
62 98 162
62 98 157
61 96 156
63 99 164
61 97 158
61 97 152
61 97 152
60 96 149
61 96 153
61 96 147
61 95 152
62 97 157
60 94 152
60 95 155
60 94 148
59 94 139
61 95 145
59 92 135
59 93 142
58 89 120
62 86 109
79 89 80
87 90 57
69 71 29
83 82 17
91 89 15
83 84 15
85 84 18
82 81 21
88 87 22
93 92 26
70 74 26
76 76 22
87 87 16
90 89 24
96 93 24
90 90 25
100 100 28
73 75 25
100 99 37
100 100 31
99 98 29
85 85 31
100 99 37
105 105 39
110 108 39
114 111 39
98 97 22
97 97 25
105 103 25
103 103 32
119 116 38
114 112 30
115 112 36
121 119 41
125 122 35
124 120 41
117 115 39
129 126 34
133 129 43
121 118 43
116 114 41
129 126 34
128 126 41
133 128 46
127 125 45
136 132 44
138 133 45
130 126 41
137 134 43
131 127 45
142 137 53
137 134 39
152 145 56
144 139 42
148 142 56
148 142 51
145 141 47
137 132 42
142 135 53
145 141 47
146 141 57
137 133 47
146 140 51
142 138 51
150 145 54
136 131 37
141 136 49
139 133 44
136 131 42
137 133 44
154 147 59
144 140 45
144 140 47
148 142 53
153 148 52
143 138 45
140 134 48
147 141 44
142 138 47
143 138 51
141 137 42
140 133 48
138 133 48
139 133 52
142 136 45
134 129 42
144 138 48
140 135 45
143 138 41
135 130 39
135 129 48
123 119 32
137 131 42
131 126 41
126 122 37
143 137 45
145 139 54
130 125 34
130 125 39
132 127 47
127 123 34
123 118 36
139 138 42
129 130 37
136 136 36
136 139 34
141 146 22
141 142 34
146 150 28
148 155 28
147 154 22
149 161 19
148 157 19
149 160 16
155 168 19
163 175 19
159 173 11
163 180 11
159 175 0
161 179 0
169 188 0
167 186 0
166 183 0
161 177 0
167 184 0
163 180 0
167 185 0
168 188 0
168 186 0
168 187 0
172 192 0
169 188 0
166 184 0
166 184 0
166 185 0
165 184 0
172 195 57
180 201 95
182 204 105
183 204 105
176 198 72
182 204 111
182 204 111
186 206 135
182 203 117
184 205 122
181 203 122
180 201 102
190 209 147
186 206 125
190 210 151
185 205 140
191 211 147
187 207 142
186 206 135
188 208 149
191 211 153
192 212 159
194 213 169
193 212 163
189 209 144
191 211 151
188 208 144
195 214 173
192 212 159
189 209 153
194 213 171
191 211 163
186 206 151
191 210 159
190 210 157
196 216 182
191 211 161
188 208 149
193 212 171
193 213 175
191 211 159
195 214 177
190 210 165
199 218 193
194 214 171
193 212 163
192 211 165
193 212 161
193 212 173
194 214 173
195 214 173
194 213 173
196 215 177
198 216 188
195 214 165
187 208 151
194 213 169
191 211 159
187 207 157
192 211 159
191 210 155
183 204 133
192 212 163
187 207 142
192 211 165
187 207 149
186 205 140
185 206 122
186 205 140
185 205 127
183 204 120
180 201 111
182 203 130
175 196 102
180 200 120
182 204 108
177 198 107
175 197 120
172 194 117
164 186 125
151 173 130
140 164 114
152 175 124
127 152 130
124 149 131
100 128 159
93 122 165
83 114 168
81 113 166
91 121 169
73 106 169
70 104 171
72 106 166
67 102 176
75 108 173
72 106 166
64 100 172
65 101 173
65 101 174
61 97 168
66 101 168
62 99 172
62 98 174
60 97 169
61 97 171
62 98 173
62 98 172
61 98 171
61 98 170
61 98 173
62 99 174
62 98 173
62 98 169
61 97 170
62 98 171
63 99 176
61 97 173
61 98 171
61 98 169
62 98 171
60 97 163
62 98 171
61 97 168
61 98 169
62 99 174
62 98 171
61 98 164
62 98 168
61 98 171
60 97 162
61 98 172
62 98 170
62 98 165
62 98 169
62 98 171
62 99 171
62 99 170
62 98 169
62 98 169
62 98 168
63 99 173
62 99 174
62 98 170
62 98 169
62 98 173
62 98 167
62 98 169
62 99 169
62 98 170
62 99 171
61 98 163
62 99 170
61 97 165
62 98 170
62 99 170
61 97 159
62 99 171
63 99 176
62 99 174
62 98 165
63 99 169
62 98 169
62 99 170
62 98 168
62 99 167
62 98 166
62 98 165
61 98 160
62 99 166
62 99 169
61 98 168
62 98 167
62 98 163
62 99 168
61 98 164
63 99 170
62 98 170
62 98 169
61 98 164
62 98 162
62 98 166
62 98 166
61 98 163
62 99 167
62 98 172
61 98 165
61 98 161
62 98 159
61 97 164
62 99 167
62 98 159
62 98 157
63 99 166
62 98 166
61 97 161
61 97 159
61 97 159
62 98 165
62 98 163
62 99 169
61 97 159
62 98 161
63 99 166
62 98 167
63 99 164
62 98 160
63 99 165
62 98 162
62 98 161
63 99 169
62 98 160
62 98 157
62 98 158
62 98 164
62 98 159
62 99 171
61 96 152
62 98 162
62 99 166
62 99 164
61 97 160
61 97 166
62 98 162
62 98 167
62 98 161
62 98 161
62 98 159
61 97 154
63 98 160
62 97 153
62 99 164
61 97 155
62 98 164
62 97 156
62 97 152
61 97 156
62 98 157
62 98 157
61 97 150
61 97 150
62 97 154
62 98 165
62 98 164
62 97 155
61 97 156
63 99 161
61 96 149
63 98 163
62 97 156
62 97 159
61 96 147
62 97 156
61 95 147
60 95 149
62 97 157
61 97 159
62 97 157
61 96 151
60 95 149
60 95 154
59 92 133
60 94 141
61 94 137
65 89 121
71 84 92
71 75 41
73 74 26
93 89 14
85 84 11
79 79 9
84 84 14
85 85 20
76 76 21
100 98 27
84 84 17
92 91 20
100 98 24
92 92 26
97 97 25
99 98 26
93 92 24
92 90 23
97 97 32
96 95 29
100 99 29
106 105 28
106 105 29
104 102 33
112 109 32
101 99 38
109 106 37
113 110 38
115 114 40
112 111 35
125 122 36
126 123 42
124 121 40
121 117 34
121 118 37
112 110 35
128 125 45
133 130 34
113 111 31
122 120 32
136 132 50
128 125 48
132 128 42
125 121 48
136 132 44
131 128 44
137 133 47
139 135 47
121 118 36
140 138 47
136 131 45
134 130 44
148 143 57
138 132 42
141 135 56
147 141 57
139 135 46
143 137 46
146 141 39
149 143 52
140 137 45
144 139 53
128 124 34
147 142 45
149 143 56
136 131 41
145 139 45
148 143 51
144 138 56
141 136 47
139 133 42
137 132 37
144 139 45
143 137 44
144 140 47
139 134 36
142 135 52
142 137 48
140 135 37
142 136 48
142 136 48
134 129 48
147 141 57
147 141 53
132 128 45
139 133 41
140 135 45
139 134 45
139 134 47
136 132 45
132 127 37
133 129 34
136 130 45
141 136 44
142 136 51
135 130 36
130 124 37
124 118 41
131 126 42
141 139 37
138 134 37
120 118 25
124 121 25
133 134 28
138 139 34
133 135 32
142 146 25
138 143 19
141 148 25
145 152 32
147 155 22
158 169 19
146 155 19
144 154 0
157 171 19
163 177 11
162 179 0
162 179 0
162 178 0
163 182 0
164 182 0
169 187 0
168 186 0
165 185 0
168 187 0
167 182 0
168 186 0
166 185 0
168 187 0
165 184 0
163 180 0
166 184 0
166 186 0
167 187 0
167 188 0
168 186 0
184 205 122
180 202 92
177 199 102
178 200 95
180 201 111
180 202 95
182 203 122
184 205 127
186 207 144
185 206 125
184 205 130
183 204 120
187 207 147
182 203 130
189 210 144
191 211 157
190 211 149
192 211 171
182 203 135
194 213 163
196 215 171
192 212 163
193 213 161
190 209 161
194 213 167
197 216 182
192 212 159
190 210 159
190 210 155
195 215 179
196 215 181
195 214 177
193 212 175
193 213 167
192 212 169
193 212 177
190 210 167
195 215 182
197 216 179
194 214 177
195 214 179
194 213 181
198 217 182
195 214 171
199 218 191
195 215 175
196 215 175
196 214 182
199 218 194
194 213 179
198 217 189
194 213 169
193 212 171
193 212 165
191 211 169
195 214 186
195 214 181
196 215 175
189 209 157
192 211 171
188 208 149
195 213 181
192 211 165
189 210 155
188 208 153
189 209 153
188 207 153
180 202 120
187 207 135
188 207 142
185 205 130
183 203 130
184 205 140
180 201 117
176 197 114
178 200 105
175 197 102
171 192 114
163 184 129
164 185 139
143 166 125
143 167 139
133 157 130
134 158 124
136 160 142
95 123 161
93 121 166
84 115 166
80 112 168
84 115 164
84 115 170
85 115 165
81 113 169
75 107 171
69 104 170
72 105 171
68 103 169
66 101 167
68 103 168
66 101 171
64 100 171
68 103 170
64 100 170
64 100 172
67 103 169
61 97 168
61 98 169
61 97 166
61 98 171
61 98 168
61 98 170
61 98 171
62 98 171
62 99 175
60 96 166
62 99 176
62 98 171
61 97 169
61 97 164
62 98 173
62 98 161
61 97 168
62 99 175
61 97 167
61 98 171
62 98 175
62 98 168
62 99 172
61 98 166
61 97 168
61 97 165
62 98 172
62 98 167
62 98 168
61 97 163
62 99 175
61 97 165
62 98 168
62 98 173
62 98 167
62 98 167
62 98 164
62 98 167
62 98 167
62 98 164
62 98 165
62 98 166
62 99 170
62 99 168
61 97 168
62 98 168
62 98 169
61 97 163
62 98 170
62 98 166
62 98 168
62 98 164
62 99 168
62 98 168
62 98 167
62 98 168
62 98 165
62 99 171
61 97 160
63 99 170
62 98 164
62 98 164
62 99 173
62 99 173
62 98 164
62 99 165
62 98 165
62 98 172
61 97 161
62 98 165
62 98 163
62 98 165
62 98 166
62 98 161
62 99 167
61 98 162
61 98 163
62 98 164
61 97 160
62 98 163
62 99 168
61 98 158
62 99 165
63 99 168
62 98 162
61 98 167
62 98 166
62 98 164
62 98 164
61 97 157
61 98 165
61 97 159
61 97 153
61 97 159
61 96 157
61 97 163
61 97 161
62 99 163
62 98 160
61 97 161
63 99 169
63 99 169
62 98 161
63 100 173
62 98 159
63 99 163
62 98 162
61 98 162
63 99 166
62 98 159
62 98 162
62 98 168
62 98 165
62 98 161
62 98 159
63 99 166
62 98 160
61 97 159
62 98 161
62 98 166
61 97 155
62 97 154
62 98 161
61 97 157
62 97 155
62 98 156
62 98 161
61 97 154
62 97 159
61 97 163
62 97 160
62 98 161
61 97 156
62 97 158
61 97 158
62 98 153
61 96 152
61 96 153
60 96 153
62 98 157
61 97 152
62 97 159
61 96 150
61 97 154
62 97 153
61 96 155
61 96 152
60 94 144
61 96 155
62 97 152
60 94 148
61 96 154
60 95 144
58 91 133
61 95 153
62 97 157
61 96 150
57 90 131
63 87 109
72 82 75
72 78 57
87 83 11
78 77 17
81 79 14
86 83 8
85 84 18
80 80 16
81 82 22
87 85 21
83 82 28
81 81 17
89 89 17
86 86 22
100 99 24
96 95 21
101 100 30
92 93 22
97 96 18
103 101 26
103 102 32
103 101 19
113 111 39
105 102 30
115 112 36
102 100 24
98 98 22
118 116 40
109 106 30
117 114 32
121 118 42
106 105 35
117 113 37
115 113 30
121 118 32
113 110 38
123 121 40
126 123 32
132 128 37
133 129 43
121 119 37
132 128 37
129 125 47
130 126 33
131 127 42
130 125 43
130 125 35
139 133 43
133 129 43
136 132 48
133 129 38
139 134 44
137 132 37
142 137 51
131 127 45
143 138 48
135 131 42
141 137 45
143 139 39
133 128 42
137 132 49
139 134 45
138 135 42
134 130 42
144 138 49
139 135 37
140 134 48
134 130 39
141 136 32
141 137 49
139 133 44
140 135 45
150 145 47
139 134 45
144 140 44
138 132 42
137 131 45
138 132 47
132 127 37
146 140 49
141 135 48
139 133 51
129 122 41
140 135 44
133 127 44
140 134 47
137 132 44
134 129 45
138 131 47
123 119 32
129 125 28
135 131 37
132 128 34
139 133 42
136 131 42
134 128 34
129 124 32
134 131 32
136 132 44
134 131 34
130 130 25
133 130 32
141 140 37
134 137 32
147 150 39
137 141 19
144 147 25
149 158 19
145 154 16
147 157 22
147 155 19
154 166 28
156 169 0
157 169 16
153 168 0
164 181 0
166 178 11
164 182 0
163 182 0
167 184 0
164 180 0
160 177 0
165 183 0
167 185 0
161 179 0
165 184 0
167 186 0
170 185 0
162 179 0
165 185 0
169 189 0
166 184 0
167 187 0
164 182 0
167 184 0
169 189 0
184 205 111
184 205 108
181 202 122
183 205 122
184 205 133
183 204 122
188 208 151
185 207 133
187 208 149
186 206 140
181 203 122
191 210 159
190 211 153
187 207 140
191 211 165
192 211 163
193 212 167
194 214 173
192 212 163
197 216 182
195 214 171
194 213 165
196 215 177
196 215 177
195 215 179
196 216 182
196 214 181
198 217 184
196 215 173
197 217 188
193 213 167
199 218 189
195 214 188
202 221 203
196 215 182
196 215 181
199 218 196
196 215 182
197 216 182
197 216 182
195 215 181
200 218 196
197 217 188
196 215 179
194 213 177
198 217 188
197 216 182
197 215 184
196 215 188
197 216 188
199 218 193
199 218 188
200 219 198
200 218 191
192 212 165
200 219 201
199 217 186
196 215 186
189 208 157
194 213 173
189 209 157
195 213 177
189 208 163
191 211 163
191 211 151
187 207 142
189 209 151
189 210 151
190 210 151
185 206 144
186 207 142
188 207 165
181 202 120
184 203 137
184 204 135
183 205 127
182 203 131
172 192 131
160 182 134
154 176 130
146 168 158
138 160 154
126 149 137
131 154 135
114 139 150
108 134 160
96 124 177
101 128 167
93 122 174
87 117 166
84 115 171
67 102 172
78 110 170
68 102 160
70 104 167
66 101 168
68 103 167
70 105 175
67 102 164
64 100 175
63 99 170
61 97 166
64 100 171
71 105 169
62 99 176
62 99 172
61 98 169
62 98 169
61 98 172
62 99 177
61 97 169
61 97 170
60 96 170
61 98 169
61 98 171
60 97 171
61 98 169
61 98 171
61 97 168
61 97 164
61 97 166
61 98 167
61 98 167
61 97 167
61 98 170
62 98 169
62 98 172
62 98 170
61 98 164
62 99 168
62 99 171
61 98 168
62 99 171
62 99 172
62 99 170
61 97 166
61 98 167
62 99 170
62 98 167
62 98 167
62 98 166
62 98 168
61 97 158
62 98 172
63 99 176
62 98 170
62 98 167
63 99 172
61 97 163
62 99 168
62 98 169
62 99 170
61 98 167
62 98 168
61 98 166
63 99 171
61 98 167
61 98 167
62 98 165
62 98 168
62 98 163
62 98 167
62 98 163
62 98 167
62 98 161
62 98 162
61 98 162
63 99 170
62 98 160
62 98 167
62 99 168
62 98 168
62 98 162
62 98 171
62 98 163
62 99 171
62 98 163
62 98 166
61 98 166
61 98 166
61 97 158
62 98 164
62 98 166
62 98 164
62 98 165
61 97 158
61 97 160
62 99 171
62 98 164
62 98 162
62 99 168
62 98 163
62 98 165
61 98 161
62 98 161
62 98 165
62 98 161
62 98 169
62 98 164
62 98 162
61 97 161
62 98 161
61 98 164
63 98 162
62 98 163
62 98 160
62 98 161
62 98 163
61 97 156
61 97 159
62 98 165
62 98 164
61 97 155
62 98 166
62 98 162
62 98 166
62 98 160
62 98 164
62 98 163
62 98 161
62 98 162
62 98 165
61 97 160
62 98 160
62 98 159
62 97 160
61 98 161
63 99 172
62 98 159
62 98 156
61 97 159
61 97 158
62 98 163
62 97 154
61 97 155
61 97 151
62 98 162
61 97 155
61 96 157
62 98 164
61 96 153
61 97 155
61 96 151
60 96 148
62 97 150
61 97 155
62 97 153
61 97 158
63 98 157
61 97 157
61 96 155
62 98 163
60 94 142
60 95 149
60 95 140
60 95 148
61 96 149
61 96 146
60 95 151
61 95 149
59 93 142
57 90 131
58 90 134
62 88 123
72 82 77
67 73 59
81 81 29
88 86 14
99 97 5
90 87 11
86 83 12
84 83 16
90 89 23
95 93 18
87 88 21
79 80 12
94 93 24
88 87 18
88 88 21
101 100 22
94 93 18
100 99 16
85 85 19
109 106 25
94 94 24
99 100 21
113 111 24
99 97 16
113 112 28
104 102 27
108 107 37
110 108 16
111 110 28
114 111 37
110 110 25
119 117 26
114 111 30
113 111 34
115 111 37
115 111 28
124 120 44
124 122 39
125 121 37
125 120 36
130 125 42
122 119 32
126 123 28
124 120 42
131 126 49
120 118 34
130 127 44
122 120 35
132 129 44
130 127 39
128 124 36
141 136 47
136 131 39
131 127 36
142 137 44
140 134 42
141 137 37
132 127 42
140 137 38
145 138 45
140 136 38
134 130 47
141 137 44
143 136 45
143 138 45
140 135 45
137 131 39
136 132 41
139 134 47
142 136 44
137 132 41
131 125 41
135 130 41
145 140 48
137 133 49
136 130 48
137 131 41
140 135 41
135 128 41
138 134 41
132 127 41
139 133 44
130 125 39
138 134 44
137 132 45
136 131 41
139 133 39
138 132 47
131 126 37
144 139 48
135 129 44
115 110 37
133 128 45
133 128 37
137 132 41
137 132 37
133 128 39
124 120 36
128 124 28
134 131 36
124 126 11
128 131 30
135 137 34
136 139 22
142 146 32
142 148 30
149 158 25
141 148 19
147 156 25
158 169 16
153 164 22
156 169 11
159 174 11
153 166 11
165 182 0
166 182 11
167 183 0
166 181 0
163 180 0
159 175 0
166 186 0
164 180 0
165 184 0
165 182 0
166 186 0
168 186 0
168 187 0
166 183 0
165 184 0
165 184 0
172 190 0
171 191 0
166 187 0
163 181 0
170 189 0
170 191 0
187 207 133
188 208 135
185 205 122
185 206 135
181 203 120
186 208 137
184 205 127
188 208 140
192 212 161
185 205 153
192 212 159
191 211 151
182 203 130
194 213 165
190 210 159
192 212 167
193 213 163
193 212 171
193 213 171
195 214 171
193 213 171
200 218 193
197 217 182
201 219 198
196 216 188
199 218 193
199 218 193
196 215 184
200 219 196
198 218 194
194 213 191
196 216 184
194 213 179
197 216 188
197 216 182
200 219 204
198 217 196
197 217 193
205 223 214
198 217 196
198 217 191
202 221 207
203 221 207
197 216 191
200 218 203
198 217 191
196 215 184
199 217 188
202 220 199
199 218 198
199 218 191
201 219 198
199 218 196
199 218 199
196 215 184
200 219 198
197 216 188
197 216 182
194 213 179
191 211 171
198 217 188
195 214 184
194 212 173
196 215 179
193 211 169
189 208 167
188 207 147
193 212 157
191 211 161
189 208 153
192 211 153
187 206 151
191 211 157
184 204 137
185 204 140
188 208 140
172 192 130
171 191 142
157 178 148
148 171 155
155 176 149
132 155 149
139 162 142
136 160 149
128 152 145
113 139 162
86 116 169
87 116 169
78 110 170
71 105 170
90 119 166
98 125 171
73 106 170
68 102 165
76 108 168
65 100 167
67 102 173
69 104 169
65 101 169
69 103 169
68 102 168
69 103 165
62 98 169
63 99 167
60 97 170
63 99 169
63 100 172
60 96 161
61 98 170
60 96 167
61 97 169
61 98 172
61 98 171
61 98 173
61 97 169
61 98 174
62 98 173
60 97 166
61 97 168
61 97 167
60 97 171
62 98 169
62 98 169
62 98 170
61 98 172
61 98 169
62 98 168
60 96 163
61 97 170
62 99 171
62 98 172
61 97 165
61 98 169
62 98 168
62 99 176
61 98 169
61 97 161
62 98 167
61 98 169
62 99 171
63 99 173
62 98 167
62 98 167
62 98 164
61 98 170
61 98 166
61 98 164
62 99 171
62 98 169
61 98 166
62 98 162
62 98 166
63 100 174
62 98 169
62 98 167
63 99 167
62 99 172
62 98 166
62 99 168
62 99 166
62 99 173
62 98 170
62 98 169
62 98 168
62 98 163
60 96 157
61 97 158
62 98 166
62 98 166
61 97 162
61 98 165
62 99 166
60 96 157
62 98 165
62 99 167
62 99 170
61 98 164
61 97 158
62 99 165
62 98 169
62 99 171
62 98 168
62 98 166
61 97 160
62 98 159
62 98 162
62 99 170
62 98 161
62 98 157
62 98 159
62 98 166
62 99 168
62 98 166
62 98 161
61 97 159
62 99 168
61 97 161
62 98 164
63 99 167
61 97 159
62 98 160
62 98 163
62 98 164
62 98 160
62 98 164
62 97 154
63 99 166
62 98 158
62 98 164
62 99 168
62 99 166
63 99 166
62 98 157
62 98 160
62 98 165
60 97 156
61 97 156
63 99 166
62 98 161
62 98 159
62 98 164
62 97 161
62 98 161
61 98 159
61 97 158
61 97 157
61 97 150
62 98 163
62 98 158
62 98 163
62 99 167
61 97 158
61 97 152
61 97 155
62 98 160
60 96 152
61 97 154
61 96 149
61 97 156
61 97 154
61 96 147
61 97 156
62 97 149
61 97 148
62 98 160
61 97 151
62 97 154
62 98 158
61 97 160
61 96 153
62 98 156
59 94 143
61 96 147
61 96 152
62 98 162
60 94 146
60 94 143
60 95 138
60 94 140
59 93 139
60 93 144
60 94 140
60 93 135
64 87 114
74 85 78
83 86 57
93 90 23
84 83 24
81 78 9
78 77 14
75 75 14
81 81 11
78 75 12
85 85 11
91 89 14
88 87 18
89 88 8
94 91 24
90 90 16
88 88 16
96 94 24
94 91 25
105 103 22
98 95 19
84 83 20
104 102 22
92 90 30
113 110 28
99 98 29
114 112 24
107 107 31
119 116 32
113 110 30
101 99 30
119 117 36
104 103 29
119 116 27
112 110 32
117 115 25
117 114 31
126 121 36
133 128 47
127 124 36
125 122 31
118 117 33
132 127 47
116 115 31
126 124 29
131 127 30
126 123 42
125 121 40
134 130 38
137 132 50
128 125 29
134 130 39
123 118 38
130 125 33
141 136 44
131 126 43
138 133 42
134 129 44
137 133 45
137 132 36
139 132 47
143 138 41
134 130 35
143 138 45
143 138 42
139 135 39
131 126 34
133 129 37
138 134 32
137 131 34
138 133 37
133 128 39
127 123 34
136 130 42
141 135 39
138 131 44
136 131 42
144 139 41
129 125 32
142 137 44
143 137 41
145 139 45
139 133 37
134 128 36
134 130 37
140 134 42
144 138 42
146 141 53
130 124 36
127 122 39
136 131 39
120 117 28
135 128 48
139 133 37
132 127 41
127 120 39
128 122 37
139 134 37
139 136 30
136 134 37
135 134 34
133 135 19
130 132 32
134 136 25
140 145 37
144 147 28
145 151 30
153 161 22
145 154 19
147 156 16
149 157 22
156 167 19
158 172 16
155 170 11
162 176 11
160 176 11
164 181 0
165 181 0
159 174 0
165 179 0
162 180 0
166 183 0
163 182 0
166 185 0
163 183 0
164 181 0
162 179 0
168 187 0
167 186 0
169 188 0
164 181 0
164 183 0
162 180 0
170 187 0
168 186 0
169 188 0
167 187 0
184 206 133
183 204 125
185 206 137
187 207 144
187 208 142
191 211 153
191 210 153
189 209 153
187 208 142
185 206 142
188 208 159
190 210 149
197 217 182
190 210 159
192 212 159
196 216 186
194 214 173
194 213 171
192 211 175
193 213 179
194 214 173
198 217 184
197 216 186
196 215 184
200 218 194
202 221 209
195 215 184
199 217 191
202 221 211
199 219 199
200 218 196
201 219 206
202 221 211
196 215 184
197 217 198
202 220 203
199 218 196
201 219 199
200 219 199
200 219 196
205 223 215
202 220 204
198 217 199
202 220 211
201 220 203
202 221 207
204 222 215
199 218 201
200 220 206
199 218 193
202 221 203
198 218 194
204 222 206
202 221 206
197 217 189
200 218 194
198 217 191
201 220 198
203 222 207
195 214 181
194 214 171
191 211 163
196 216 184
196 215 188
192 212 175
191 211 171
192 212 179
193 213 173
191 210 159
197 215 177
194 213 171
192 212 159
192 212 159
189 209 157
187 207 161
187 207 152
180 200 152
170 191 161
164 185 163
154 175 170
137 161 161
135 159 160
129 152 163
128 152 157
126 150 168
107 134 165
89 118 168
96 124 167
88 118 174
79 112 165
79 111 173
86 116 165
86 117 170
75 107 168
75 108 175
71 105 167
69 104 168
69 104 169
71 105 167
62 98 171
66 101 168
63 100 174
64 100 172
73 107 168
64 99 164
63 99 168
61 98 169
64 99 170
61 97 169
61 98 174
61 97 166
61 98 169
60 97 169
61 98 171
62 98 174
60 97 172
62 99 174
62 99 174
61 98 172
62 98 173
61 97 166
61 98 168
61 98 172
62 98 172
61 97 165
61 97 168
62 99 169
62 99 173
61 97 167
61 97 168
62 98 169
61 97 165
62 99 171
61 98 167
62 98 170
62 99 170
62 99 167
62 98 165
62 98 166
63 99 170
62 98 164
61 98 166
61 97 164
62 98 165
62 99 171
62 99 169
62 99 171
62 99 169
62 98 168
62 98 164
62 98 171
62 98 166
61 98 165
63 99 167
62 98 169
62 98 168
61 98 163
62 98 167
61 97 166
62 99 171
63 99 173
62 98 169
61 97 164
62 99 169
62 99 174
62 98 157
62 99 169
62 99 169
62 98 166
61 97 155
62 98 168
62 98 167
62 98 164
62 98 162
61 97 160
62 98 158
61 98 165
63 99 167
62 98 161
62 98 161
62 99 167
62 98 161
62 98 168
63 99 171
62 98 161
62 98 165
62 98 162
62 98 160
61 97 161
62 98 162
61 97 158
63 99 165
60 96 154
61 97 158
63 99 171
62 98 164
62 98 160
61 97 155
62 98 166
62 98 158
62 98 164
62 98 160
62 98 167
62 98 162
62 98 166
62 98 164
62 98 161
62 98 160
62 98 164
61 97 160
62 99 163
62 98 157
63 99 168
62 98 163
62 98 161
61 97 156
61 97 155
62 98 158
62 97 160
63 99 164
61 96 150
62 98 159
63 99 163
62 98 160
62 97 156
62 98 156
63 99 160
61 98 161
62 98 164
62 97 160
62 98 161
61 97 153
62 98 158
62 97 153
62 98 160
61 97 153
61 97 156
61 97 153
62 97 156
61 97 150
62 97 153
61 96 151
61 97 158
61 97 153
61 97 158
62 97 157
62 97 160
61 97 152
62 97 155
62 97 151
61 97 156
61 95 145
62 97 145
61 96 149
61 96 148
60 94 139
61 96 145
61 95 150
60 94 155
61 96 147
60 94 143
60 93 137
58 92 125
74 93 113
75 82 73
80 81 48
77 77 14
83 81 0
89 88 3
82 78 11
102 99 9
83 82 16
84 83 12
77 76 14
82 81 21
83 83 18
81 81 8
106 103 8
87 85 22
86 84 14
94 92 11
103 101 22
102 99 18
111 109 25
97 96 27
111 109 24
105 103 21
99 97 20
102 99 16
97 97 20
110 108 25
105 103 28
100 99 32
111 106 29
117 114 31
111 109 26
116 114 27
113 111 29
111 108 28
117 114 28
118 115 28
108 105 29
106 105 21
120 118 38
126 121 36
126 123 29
126 122 33
138 134 42
134 129 41
119 116 32
128 125 35
123 119 40
135 131 33
132 126 46
137 132 36
131 126 37
135 130 45
136 131 41
140 134 42
128 123 32
137 132 40
137 132 37
125 122 35
141 136 41
132 129 37
136 130 37
142 136 42
142 137 42
139 134 42
142 137 37
143 137 42
127 122 36
133 128 32
142 137 42
144 139 42
140 135 37
143 139 39
137 133 36
139 135 44
140 135 39
137 133 37
137 131 41
134 129 34
144 138 34
132 128 45
134 130 32
135 129 32
141 136 45
126 123 30
128 123 19
133 129 36
132 126 42
140 135 39
132 128 25
127 123 32
122 117 44
126 121 30
129 125 28
127 123 19
128 126 22
127 124 30
136 132 39
133 134 32
125 125 30
137 137 30
134 135 32
138 142 19
134 138 25
137 141 22
145 151 22
145 153 28
141 152 16
151 161 11
160 170 22
161 176 11
162 175 16
161 172 0
164 179 0
161 175 0
162 179 0
162 176 0
164 180 0
164 180 0
164 182 0
166 182 0
167 185 0
161 174 0
168 187 0
165 182 0
162 180 0
164 183 0
166 185 0
165 184 0
163 180 0
168 183 0
173 193 0
166 184 0
170 191 0
164 182 0
167 186 0
190 210 153
185 206 127
183 204 130
189 210 159
185 205 144
194 213 173
192 212 167
194 214 171
194 213 173
192 212 167
191 211 161
192 212 159
194 213 169
190 211 161
194 213 167
199 218 189
191 211 171
196 215 182
197 217 188
199 217 196
198 217 184
202 221 206
199 218 198
201 220 201
203 221 204
201 220 211
200 219 203
197 216 189
200 219 199
199 218 198
200 219 196
200 219 198
199 218 198
200 219 199
201 219 211
197 217 196
204 222 214
203 222 212
202 221 203
204 222 217
203 222 209
201 220 204
201 220 204
201 220 201
201 220 207
202 221 214
202 221 212
203 221 207
203 221 204
201 220 207
204 222 212
201 220 209
200 219 201
202 221 207
201 219 207
201 219 203
201 220 206
199 217 194
201 220 203
200 219 199
201 219 201
198 217 193
197 217 189
201 220 203
201 219 191
198 217 188
196 215 181
200 218 193
194 213 186
191 211 182
197 215 179
193 212 173
193 213 167
196 215 181
191 210 159
189 209 160
189 207 186
163 184 171
157 177 173
152 173 179
142 165 171
130 153 175
136 159 157
130 154 170
126 150 167
107 134 170
90 119 176
87 117 180
88 117 171
87 117 169
79 111 167
80 112 169
77 110 172
69 103 170
67 101 170
82 113 175
62 99 171
67 103 167
70 105 173
65 100 161
64 100 174
64 99 167
65 100 170
67 102 166
65 100 169
60 96 164
63 98 164
62 99 173
61 97 171
61 98 172
61 97 163
61 97 167
62 98 166
62 98 174
61 98 171
60 97 171
61 97 161
62 98 168
61 97 167
62 98 168
62 99 167
61 97 163
61 97 173
61 98 169
61 98 172
60 96 165
61 98 171
62 98 168
61 97 161
62 99 172
60 96 159
61 97 164
62 99 171
62 98 168
63 99 173
62 98 165
61 98 168
62 98 168
62 98 168
61 98 166
62 98 167
61 98 168
62 98 167
62 98 166
62 98 165
62 98 170
62 98 168
62 98 164
62 98 170
62 99 170
62 98 164
61 97 160
62 98 164
62 99 168
62 98 166
62 98 168
62 98 167
61 97 164
61 97 161
62 98 166
62 99 169
62 98 170
62 98 167
63 99 171
63 99 169
62 98 162
62 98 167
62 99 166
62 99 171
62 98 162
62 98 165
62 98 164
62 98 169
62 98 167
62 98 158
61 97 160
62 99 170
62 98 165
62 98 164
62 98 167
62 98 167
61 97 155
62 98 164
62 98 162
62 98 161
62 98 161
61 98 164
62 98 167
61 97 159
62 99 168
62 98 163
62 99 166
62 98 165
63 99 164
62 98 167
62 98 166
62 99 171
62 99 167
62 98 162
61 97 162
61 97 164
63 99 168
62 98 156
63 100 172
62 98 160
63 99 163
63 99 167
62 99 164
62 97 160
62 98 162
61 98 161
62 98 157
62 98 156
62 98 162
63 98 158
62 98 162
62 98 158
61 97 155
62 98 165
61 96 154
61 96 157
62 98 164
62 97 156
61 97 154
62 98 160
61 97 160
62 98 162
61 97 158
60 96 148
61 97 150
62 98 161
61 97 150
62 97 150
62 98 156
62 97 155
62 98 158
62 98 161
61 96 154
61 96 152
62 97 156
63 98 160
61 96 148
62 98 160
61 96 151
63 99 163
61 97 151
61 97 155
61 97 153
61 97 150
61 97 159
61 96 147
61 96 152
60 94 144
60 95 143
61 96 143
60 95 147
61 96 145
61 95 142
59 93 139
61 95 143
60 94 142
59 93 141
57 88 123
70 90 111
79 88 80
84 86 32
78 78 3
89 87 12
87 86 16
89 88 8
87 85 8
84 82 11
89 87 14
90 89 11
93 91 19
88 86 14
91 90 8
97 94 17
97 94 21
94 95 18
98 95 24
99 98 14
97 96 14
101 99 16
108 105 14
93 92 16
95 95 27
103 100 18
109 107 31
110 109 28
114 112 21
118 115 32
113 110 26
118 116 21
120 117 29
108 105 28
117 114 31
117 115 29
106 105 23
114 111 29
113 111 18
121 119 32
124 120 30
126 122 34
133 129 31
123 119 30
114 112 32
126 123 32
123 120 36
129 126 30
126 122 43
132 128 34
128 123 40
126 121 25
139 133 37
134 129 42
130 126 33
132 128 32
135 129 48
129 125 33
126 123 36
133 130 33
130 126 34
135 131 45
133 127 36
137 131 44
134 129 42
133 128 41
138 133 34
132 126 45
128 125 30
132 128 34
135 131 36
135 130 44
135 131 25
144 137 48
131 125 42
136 132 33
129 124 36
134 129 37
142 137 44
129 124 42
135 129 36
132 128 36
137 132 34
133 128 39
132 126 32
134 129 32
135 129 39
136 131 45
132 127 36
124 119 28
132 127 36
123 118 25
130 125 37
135 130 37
126 122 28
122 118 34
133 131 30
131 126 25
138 135 34
132 131 32
134 136 28
139 144 30
137 139 25
139 146 0
141 147 28
142 151 16
144 150 19
150 158 19
150 162 16
148 158 16
154 165 11
148 159 11
157 169 25
158 173 0
157 171 0
160 176 0
163 179 0
164 178 0
164 182 0
160 177 0
166 184 0
163 178 0
161 177 0
163 181 0
162 178 0
167 183 0
167 185 0
166 185 0
164 182 0
165 182 0
167 186 0
163 180 0
161 180 0
162 179 0
166 184 0
169 188 0
169 189 0
168 188 0
190 210 149
189 209 157
192 212 161
189 208 159
191 211 171
191 211 159
197 216 186
194 214 169
195 215 182
197 216 181
195 214 181
196 215 181
200 219 194
199 218 188
201 220 204
196 216 184
195 215 175
198 217 189
197 216 186
201 220 204
198 218 194
202 220 207
199 218 198
201 220 203
198 218 193
199 218 198
198 217 201
203 221 207
207 225 228
200 219 199
203 221 215
203 221 207
201 220 207
205 223 218
204 222 215
203 222 212
203 222 215
201 220 199
202 221 212
200 219 203
201 220 207
203 222 212
206 225 224
205 223 217
206 224 223
209 227 231
201 220 206
205 223 223
203 221 211
204 222 212
201 220 207
204 222 211
202 220 207
205 223 215
201 221 209
201 219 207
202 221 212
205 223 218
206 224 220
205 223 217
203 221 211
202 220 203
199 218 193
201 220 199
200 218 204
198 217 194
200 218 193
199 217 189
196 215 188
199 217 193
198 217 182
195 214 175
196 215 181
196 214 179
191 211 167
189 209 170
188 207 175
168 188 188
175 194 188
151 172 185
157 177 186
138 160 181
142 165 175
128 151 170
123 147 163
113 139 175
99 127 173
94 123 175
83 114 171
90 119 174
82 113 174
79 111 166
87 117 167
70 104 165
76 108 168
72 105 172
71 105 167
76 108 164
71 104 162
66 100 166
63 99 168
68 102 171
71 104 162
62 99 171
66 101 169
61 98 168
61 97 163
61 97 167
61 98 169
61 98 170
62 98 172
62 98 172
63 99 170
60 96 164
61 97 166
61 98 170
61 97 170
61 97 169
60 97 165
62 98 166
62 98 171
61 97 165
60 96 163
61 97 161
62 98 171
61 97 162
61 97 163
62 98 169
62 98 165
61 98 169
61 98 168
61 98 168
63 99 169
62 98 172
62 99 170
63 99 170
61 97 162
62 98 170
62 98 171
61 97 167
61 98 165
62 99 175
62 98 168
62 98 170
62 99 171
61 98 169
62 98 165
62 98 168
62 99 169
62 98 166
62 98 167
62 99 171
62 98 167
62 98 166
61 97 158
62 98 166
62 99 166
62 99 171
62 98 169
63 99 166
62 98 165
62 98 164
63 99 173
62 99 171
63 100 172
62 99 169
62 98 169
62 99 172
62 98 171
61 98 163
62 98 170
62 98 168
61 98 159
62 98 167
61 97 155
63 99 174
62 98 163
62 98 159
61 98 163
61 97 154
62 98 163
62 98 164
62 98 159
62 98 166
61 98 163
63 99 161
61 97 160
62 98 164
62 98 160
62 98 159
61 97 160
62 98 162
62 98 164
61 97 158
62 98 160
62 98 166
63 99 169
62 98 163
62 98 161
61 97 162
62 98 162
62 98 163
61 97 155
62 98 163
62 98 155
61 98 162
63 99 164
62 98 161
62 97 156
62 98 164
61 97 159
62 98 159
62 98 160
62 98 163
62 98 162
60 96 150
63 99 162
63 99 165
62 98 157
62 98 163
62 98 158
62 98 159
62 98 162
61 96 154
62 98 159
60 95 151
60 96 151
61 97 160
61 97 156
61 97 155
62 98 159
62 98 162
62 97 155
62 97 155
61 96 142
62 98 158
62 97 153
62 98 153
61 97 152
61 96 150
61 97 157
60 94 142
62 97 156
61 97 153
61 96 154
61 95 146
62 97 155
60 95 147
61 95 142
60 95 138
60 95 148
61 96 143
61 96 145
61 96 151
59 93 142
60 95 148
60 95 139
60 95 142
60 94 140
59 93 140
60 94 140
59 93 140
63 93 129
62 80 93
77 87 73
81 80 11
100 102 8
85 85 0
93 92 11
94 91 18
94 94 3
90 86 14
91 86 0
80 80 8
85 84 14
85 80 3
87 84 14
96 94 12
91 89 14
95 93 14
90 87 0
85 84 18
105 101 22
102 99 14
91 90 22
98 95 23
99 98 21
101 100 16
98 97 15
107 106 18
113 109 26
98 97 18
104 101 18
107 104 23
100 99 28
109 108 27
114 111 26
116 114 26
115 113 25
116 113 21
112 110 27
120 117 30
119 116 22
123 120 33
116 114 28
124 121 22
131 127 38
121 116 31
127 123 34
122 118 28
127 123 32
126 122 30
129 125 30
133 127 33
137 132 37
137 131 39
137 133 40
128 125 34
123 118 30
133 128 32
128 123 37
139 133 40
139 134 42
132 127 38
133 129 32
130 125 41
126 121 39
139 134 32
140 135 45
130 126 34
140 135 34
137 131 39
134 131 37
130 125 21
128 123 37
135 130 36
132 127 37
131 127 32
142 138 45
136 131 39
137 132 37
135 129 42
132 128 37
129 124 39
132 128 32
129 123 36
124 121 28
135 130 30
124 120 28
130 126 22
132 128 36
129 125 30
135 130 37
136 130 44
123 117 19
129 126 34
136 133 39
123 120 28
130 127 32
135 133 42
139 139 30
125 127 16
135 136 28
137 140 28
139 145 22
138 139 30
144 148 25
152 159 19
147 155 25
142 151 19
153 162 19
157 168 11
151 165 11
153 164 11
154 165 11
156 168 11
165 181 0
163 180 0
163 179 0
164 180 0
165 183 0
159 179 0
164 182 0
163 181 0
163 181 0
165 180 0
163 180 0
161 175 0
168 184 0
160 177 0
167 184 0
164 180 0
164 183 0
168 189 0
166 183 0
167 185 0
171 189 0
165 183 0
166 186 0
167 186 0
190 210 155
191 211 157
192 211 155
191 210 163
196 215 173
195 215 181
194 214 175
194 213 177
196 215 182
199 218 191
194 214 182
201 219 206
203 221 206
195 215 179
197 216 193
202 220 209
199 218 194
200 219 203
200 219 206
202 221 207
202 221 211
202 221 207
200 219 204
200 219 207
207 225 223
201 220 207
203 222 218
198 218 196
204 223 215
207 225 223
204 223 217
205 223 215
201 221 207
206 224 220
205 224 223
200 219 209
205 224 221
201 221 209
204 222 217
204 222 214
204 223 220
206 224 224
208 226 227
207 225 221
205 224 220
205 224 221
205 224 218
202 221 214
206 224 221
206 224 221
203 221 212
206 224 220
205 224 220
202 221 211
203 222 211
205 223 217
207 225 224
205 224 220
199 218 207
205 223 214
202 221 211
206 224 217
205 223 215
202 221 204
202 221 207
198 217 198
201 219 211
201 220 198
201 220 201
199 218 189
195 214 179
199 218 188
201 219 193
200 219 193
195 215 181
197 215 200
186 205 193
167 187 183
158 178 194
159 179 197
148 169 189
150 172 190
118 142 189
139 161 189
127 151 185
119 144 182
91 121 170
99 127 181
102 130 177
87 118 175
90 120 171
93 122 170
82 114 171
86 116 170
78 110 168
78 110 170
73 106 165
74 108 168
71 105 170
65 100 161
70 103 166
73 105 162
65 100 164
64 99 169
66 101 163
61 98 167
61 98 167
60 96 165
61 97 165
64 99 170
61 98 165
62 98 169
62 99 172
61 97 170
61 97 169
61 98 169
61 97 168
61 97 164
62 99 170
61 97 163
62 98 169
61 98 170
62 98 172
61 98 171
61 98 168
61 98 171
60 96 161
62 98 169
62 98 165
61 98 169
62 98 169
62 98 171
62 99 168
61 98 168
61 97 158
62 98 166
61 97 162
61 97 163
61 98 167
62 99 170
62 98 166
61 97 164
62 99 173
62 98 164
62 98 166
63 99 173
61 98 169
62 99 167
61 97 160
62 98 169
63 99 170
61 98 164
61 97 160
62 98 169
62 99 170
62 98 163
63 99 170
62 98 167
62 98 163
62 98 169
62 99 166
62 98 163
62 99 167
62 98 165
62 99 170
62 98 168
62 98 166
62 98 169
62 99 172
63 99 169
62 98 163
61 98 167
62 98 168
62 98 162
62 99 170
62 98 163
62 98 165
62 99 170
62 99 165
62 99 163
61 98 163
63 99 170
62 98 161
62 98 165
62 98 163
61 97 158
63 99 162
61 98 165
62 98 164
62 98 159
61 98 159
61 98 164
61 98 160
61 97 157
62 98 161
62 98 164
62 98 163
62 98 162
62 98 162
62 98 159
62 98 163
61 97 160
60 95 147
63 99 168
62 98 162
62 98 161
62 98 159
62 97 158
61 97 162
60 96 153
62 98 162
62 98 161
61 97 158
63 99 162
62 98 159
62 98 158
62 98 163
62 98 160
61 97 154
62 98 161
61 98 162
62 98 157
62 97 158
62 98 157
62 98 157
62 98 160
61 97 154
62 98 156
62 97 154
62 98 156
61 97 154
61 96 152
62 98 161
61 96 151
62 98 159
62 98 153
62 97 154
62 99 163
61 97 152
61 96 151
62 98 159
62 98 157
61 96 150
62 97 153
63 98 158
62 97 153
61 97 154
62 97 152
62 97 159
60 95 147
59 93 136
61 96 148
61 96 151
61 97 152
60 95 143
61 95 144
60 94 145
60 94 134
61 95 151
61 95 140
59 92 140
59 92 133
58 88 128
71 87 93
78 85 71
89 90 42
98 97 0
94 93 3
89 88 8
84 82 8
85 83 9
77 77 16
83 80 8
104 99 16
97 95 11
88 88 3
86 85 8
88 86 11
87 86 14
90 87 9
100 97 14
100 98 16
90 89 16
104 101 16
104 100 5
91 91 9
105 102 19
95 92 12
111 108 14
97 96 19
103 102 16
111 109 21
105 103 18
110 107 25
118 115 20
116 113 21
112 110 28
114 111 29
112 108 14
104 102 26
119 116 19
118 116 30
122 119 24
121 118 28
120 117 24
113 109 26
118 114 26
124 122 27
116 114 27
127 123 34
116 112 30
127 121 39
135 130 37
125 123 24
124 119 26
139 135 30
130 128 26
125 121 37
119 116 24
130 126 30
128 123 34
128 124 37
121 118 28
137 132 41
134 129 42
133 127 37
130 126 25
131 126 32
128 124 33
139 134 44
133 129 30
137 132 30
136 129 41
128 123 36
132 127 32
132 128 30
135 130 30
135 130 36
136 131 32
129 124 32
122 117 22
137 131 36
128 123 28
123 119 28
132 127 41
114 109 25
127 123 36
127 122 36
130 125 36
123 118 28
131 125 36
120 115 28
130 124 41
128 124 37
130 126 22
120 117 19
126 123 25
123 120 28
121 118 22
136 137 28
137 138 34
136 137 25
128 128 25
143 149 22
145 151 19
143 148 30
143 153 25
148 156 16
139 145 19
148 157 16
155 165 22
150 163 0
154 165 11
160 175 0
161 174 0
160 174 11
159 172 0
160 174 0
160 173 0
163 178 0
166 183 0
158 175 0
166 182 0
164 181 0
164 180 0
164 181 0
163 181 0
167 186 0
162 177 0
160 177 0
162 179 0
165 181 0
164 183 0
167 186 0
166 186 0
167 184 0
167 185 0
166 183 0
161 181 0
169 187 0
195 214 173
199 217 188
196 216 184
193 213 171
200 219 196
197 216 181
197 216 184
198 217 189
201 220 204
200 219 194
197 216 191
198 218 189
202 221 204
198 217 194
203 221 214
202 220 201
201 219 201
202 220 203
205 222 215
203 222 211
201 220 211
203 222 209
204 223 218
205 223 218
207 224 226
204 223 218
207 225 227
204 222 221
203 221 215
204 222 217
204 222 215
208 226 230
208 225 220
206 224 223
202 221 212
206 224 227
203 222 212
204 222 220
206 224 226
204 223 220
205 224 226
206 224 223
205 224 223
205 223 218
202 221 206
203 222 209
204 222 221
204 223 220
207 225 223
206 224 228
206 224 218
202 221 214
201 220 206
203 221 214
205 223 221
205 224 220
204 222 214
204 222 217
209 227 231
207 225 220
206 224 217
203 221 218
208 225 226
205 223 211
202 220 209
204 222 209
205 223 220
202 221 211
199 218 198
199 218 198
202 221 207
201 219 196
200 219 198
193 212 177
187 206 169
188 207 190
180 199 199
165 186 198
161 181 202
153 173 201
147 168 194
152 172 204
136 159 187
137 159 192
128 151 188
123 147 188
98 125 174
98 126 178
92 121 175
82 114 173
84 115 170
89 119 161
86 116 178
84 115 169
71 104 166
78 110 170
75 108 175
75 108 168
70 105 168
77 108 168
60 97 167
69 104 167
65 100 167
65 100 168
67 102 170
60 96 166
66 101 171
61 98 166
61 98 168
61 97 171
61 97 166
61 97 156
60 96 159
64 100 168
61 97 166
61 98 170
62 98 173
61 97 166
61 98 170
61 97 170
62 98 173
61 98 167
61 97 168
61 97 164
61 98 169
61 98 164
61 98 168
61 97 170
61 98 171
61 97 168
61 98 171
61 97 170
61 97 166
61 98 167
61 98 169
61 98 170
61 98 163
62 98 169
61 97 164
62 98 169
62 99 171
62 98 165
62 98 170
62 99 171
61 97 161
62 98 167
61 98 166
62 99 169
62 99 169
62 98 165
61 97 165
62 98 164
62 98 164
62 99 169
62 99 169
62 98 168
62 98 164
62 98 165
62 98 162
61 97 161
61 97 161
62 99 171
62 98 157
62 99 169
62 98 165
62 98 164
61 98 160
62 98 166
62 98 164
61 97 153
62 98 162
61 97 161
61 98 160
62 98 163
61 98 167
62 98 162
61 97 162
61 97 163
62 98 159
62 99 166
61 98 161
63 99 172
62 98 165
62 98 161
62 98 158
62 98 160
62 98 159
62 98 162
62 98 165
63 99 167
62 98 165
62 98 164
61 97 160
61 98 163
63 99 163
62 98 168
62 98 168
62 98 163
62 98 164
62 98 158
61 97 161
61 97 161
62 98 161
61 98 159
61 97 154
62 97 156
61 96 152
62 98 161
61 97 152
61 97 158
61 97 157
62 98 164
62 98 162
60 95 149
62 99 166
62 98 160
62 98 157
62 98 162
61 97 154
62 97 156
62 98 160
62 98 158
62 98 153
61 97 155
61 97 156
61 97 153
63 98 161
62 97 157
61 97 156
61 97 156
61 96 152
61 96 155
61 96 152
61 97 155
61 96 151
62 97 150
62 97 152
62 97 155
62 98 155
62 98 158
61 96 157
62 98 161
61 96 150
61 96 147
62 98 158
63 99 162
62 97 150
63 99 164
61 96 150
61 96 147
62 98 157
61 96 145
61 96 146
60 95 146
61 95 146
60 94 143
60 94 145
61 96 139
60 94 138
59 93 134
58 91 130
59 92 130
60 91 127
74 88 89
91 99 76
98 97 29
104 103 16
93 90 5
87 83 8
100 97 16
82 80 11
81 79 11
76 75 0
84 83 14
83 81 8
80 79 8
94 90 16
95 91 11
99 97 18
96 92 16
95 92 0
89 87 11
97 95 18
101 99 14
102 99 11
89 87 12
94 93 14
94 92 12
100 97 24
105 103 18
105 102 12
107 103 26
112 108 24
103 101 29
119 116 22
103 100 22
106 103 24
107 104 16
120 117 11
124 120 33
118 116 21
124 120 22
116 114 22
122 117 28
121 117 28
129 126 25
122 118 31
120 117 30
116 112 30
126 123 25
135 129 44
127 124 35
127 124 37
122 119 37
130 126 31
136 129 39
122 118 36
125 121 29
125 120 30
126 122 40
127 121 30
142 136 37
136 130 28
135 129 37
129 126 35
119 116 25
121 117 22
127 124 29
137 133 25
133 128 30
133 128 39
132 127 32
135 130 36
124 119 34
126 121 34
140 134 47
135 131 28
133 127 41
137 131 42
138 134 41
134 130 36
122 118 22
133 128 39
129 125 25
126 121 34
122 119 32
124 119 30
121 116 28
120 116 30
121 116 32
123 117 28
126 121 32
123 118 32
131 128 32
121 120 28
132 128 37
123 120 36
130 130 36
130 127 25
139 141 25
143 144 25
140 144 25
134 138 16
143 148 22
137 141 22
150 156 22
150 157 19
150 158 22
146 154 11
157 167 22
146 157 11
142 154 0
154 167 0
157 171 0
162 177 0
162 177 0
161 175 0
160 174 0
161 176 0
168 186 0
160 178 0
168 186 0
167 185 0
164 179 0
165 181 0
163 180 0
164 181 0
168 186 0
169 185 0
168 185 0
164 180 0
163 181 0
167 182 0
166 185 0
167 187 0
166 184 0
167 184 0
171 189 0
169 187 0
165 182 0
190 210 161
195 214 181
202 220 203
196 215 184
197 217 184
201 220 201
196 215 191
202 221 204
201 219 203
201 220 206
201 220 204
204 222 212
201 220 203
202 220 206
203 221 207
202 220 207
206 225 227
205 223 214
203 221 218
202 221 209
201 220 206
206 224 220
203 222 217
203 222 218
203 222 218
208 225 223
205 223 221
206 224 223
202 221 211
206 224 224
208 226 231
205 224 223
206 224 221
205 224 220
201 220 209
205 224 226
205 223 217
207 225 226
203 222 212
202 221 218
206 224 226
209 226 230
208 226 233
208 226 230
210 227 233
206 224 221
208 226 228
205 223 224
208 226 231
206 224 218
208 226 230
205 223 221
206 224 227
208 225 224
205 224 221
207 225 227
205 223 224
208 226 230
208 225 224
205 223 217
206 224 220
202 221 214
204 222 212
204 222 212
204 222 215
201 220 204
203 222 211
204 222 212
204 222 215
205 223 217
204 222 212
203 221 209
203 221 212
197 216 190
192 211 194
191 210 213
180 199 209
163 183 189
159 179 203
156 176 201
146 167 200
153 173 213
136 158 199
130 153 195
132 154 194
117 141 170
95 124 179
103 130 181
94 122 179
91 121 169
95 123 174
92 121 177
95 124 172
79 111 171
94 123 173
73 106 174
82 113 166
87 117 172
76 109 170
70 104 170
70 104 172
79 111 164
73 106 164
66 101 160
67 102 167
61 97 166
64 100 171
66 101 158
65 100 163
64 100 170
64 100 172
62 98 160
61 97 168
60 96 163
60 97 165
61 98 169
61 97 170
61 97 165
60 97 160
61 98 167
61 98 171
61 98 171
60 96 164
62 98 170
60 96 164
60 97 169
62 98 171
62 98 168
61 97 165
62 98 168
61 98 167
62 98 168
61 97 162
61 98 171
62 98 169
61 97 162
62 99 171
61 98 166
61 97 167
62 98 162
60 96 165
62 98 161
61 98 167
61 97 164
61 98 165
61 97 162
61 97 162
62 98 167
62 98 161
61 97 164
62 99 166
61 97 163
62 99 171
61 97 160
62 98 166
62 98 165
62 98 168
63 99 174
62 98 161
62 98 165
62 98 158
62 99 166
62 98 161
62 98 167
62 97 156
61 98 160
61 97 158
61 97 158
62 99 168
62 97 152
62 98 168
61 97 163
62 98 162
62 98 164
61 97 163
62 98 165
61 97 157
61 97 156
62 98 163
62 98 162
61 98 159
62 98 160
61 97 160
61 97 158
63 99 165
61 97 157
61 97 167
61 97 162
62 98 164
62 98 166
61 97 158
61 97 156
62 98 161
62 98 165
62 98 160
63 99 169
62 98 163
61 97 159
62 98 164
62 98 162
61 97 155
62 98 159
63 99 165
62 98 158
62 98 161
62 99 163
63 99 165
61 97 152
61 97 158
61 97 157
61 97 150
61 96 150
61 97 154
62 98 159
62 98 159
63 99 163
61 97 160
61 97 158
62 98 156
62 98 157
62 98 156
62 98 162
63 99 163
61 97 155
61 97 161
62 98 163
62 98 162
63 98 160
61 97 152
62 97 156
60 96 154
61 96 151
63 99 160
61 97 153
60 95 143
62 97 152
62 97 153
62 98 163
61 97 151
62 98 156
61 97 152
61 97 153
61 97 152
61 96 148
61 96 149
62 97 155
60 96 142
61 96 147
61 96 141
61 97 156
60 95 141
61 96 147
60 94 139
61 96 147
59 94 143
61 96 148
60 94 142
59 94 137
60 94 146
61 95 142
59 93 133
59 92 131
65 91 121
83 98 85
95 101 72
102 102 11
109 111 16
93 92 11
89 90 0
90 91 16
95 91 14
93 89 0
78 78 3
87 85 11
85 82 14
85 83 3
85 82 2
81 78 12
85 84 11
85 83 16
85 81 8
69 68 8
89 85 8
90 89 12
96 95 8
103 101 12
87 86 14
96 94 14
102 97 14
111 108 16
104 101 8
91 90 14
103 102 22
106 103 25
121 117 28
101 98 16
101 100 16
109 105 18
111 108 16
124 120 30
116 111 28
116 112 21
122 118 40
130 126 29
114 111 18
120 116 21
113 110 26
128 124 28
120 116 25
120 117 25
127 122 31
119 117 16
126 122 33
125 121 33
129 125 30
132 128 34
133 129 39
124 119 25
129 124 38
123 118 28
134 130 36
135 128 42
123 117 28
130 126 34
123 118 30
126 123 19
128 123 32
130 126 30
126 122 32
130 125 32
137 131 32
124 118 32
123 119 22
132 125 42
130 126 32
127 121 34
126 121 32
128 122 36
133 127 22
128 123 30
123 118 28
123 119 25
122 117 30
126 122 25
130 125 25
128 122 34
120 115 36
130 125 34
123 119 25
130 125 30
122 118 25
127 124 28
127 124 28
123 121 30
113 113 16
135 134 25
136 135 30
132 132 19
125 126 22
137 139 25
129 131 19
131 133 19
140 145 16
137 139 28
141 148 19
145 152 11
143 152 22
153 161 16
149 158 0
155 167 11
157 168 11
164 177 11
160 171 0
163 178 11
168 184 0
161 178 0
162 177 0
164 179 0
166 182 0
160 175 0
165 181 0
161 175 0
159 175 0
165 179 0
162 179 0
165 186 0
166 184 0
168 187 0
165 183 0
170 187 0
165 182 0
165 184 0
169 188 0
160 177 0
165 182 0
168 186 0
169 187 0
168 185 0
165 183 0
166 185 0
193 213 169
198 217 186
197 216 191
196 215 177
200 219 201
199 219 196
198 217 193
199 218 194
202 221 206
204 223 217
199 218 194
205 223 217
207 225 224
204 223 217
202 221 209
205 223 220
203 221 218
205 224 224
205 224 220
206 224 220
207 225 227
206 224 220
204 223 220
208 226 230
208 226 227
206 224 223
209 227 237
204 223 218
208 226 231
208 226 231
208 225 226
205 223 224
209 227 236
211 228 234
205 223 218
208 226 230
208 226 228
210 227 238
211 228 237
207 224 227
208 226 231
207 225 228
208 226 233
207 225 234
208 226 236
210 227 234
205 224 221
207 225 231
211 228 233
208 226 227
209 227 233
207 225 226
207 225 224
210 227 231
206 224 226
204 222 220
210 227 234
211 228 237
211 228 236
209 226 230
210 227 231
206 224 220
206 224 220
203 222 214
205 222 218
206 223 221
207 225 228
202 220 204
203 222 212
205 222 214
202 221 212
202 220 206
207 224 218
202 219 215
195 214 205
189 208 214
180 199 220
180 198 218
157 178 209
155 175 205
144 166 200
156 176 208
136 158 196
140 162 199
122 146 188
128 151 193
116 141 189
116 141 181
109 135 175
109 135 181
91 120 177
84 114 180
77 109 168
82 113 175
88 117 172
78 110 173
77 109 164
72 105 163
80 112 168
67 101 168
65 101 175
75 108 167
67 102 169
67 101 155
72 106 166
63 98 165
67 102 164
64 99 170
61 97 169
63 99 164
61 97 164
63 98 163
61 97 162
61 98 167
64 99 166
61 98 171
62 98 166
62 98 169
61 98 171
59 95 159
61 97 168
61 97 164
61 97 168
62 98 169
61 97 168
61 97 163
61 97 167
60 97 166
60 97 168
61 97 167
62 98 172
61 98 174
61 98 169
61 98 167
61 98 167
61 97 162
61 97 157
62 99 174
62 98 162
61 98 166
62 99 169
62 98 171
61 98 164
61 98 169
62 98 165
61 98 164
62 99 169
62 98 167
62 98 165
63 99 166
62 98 162
62 98 165
61 98 163
62 98 160
61 98 161
62 99 169
61 97 162
62 98 159
61 97 158
61 97 163
62 98 163
62 98 167
62 98 166
62 98 165
61 98 163
62 98 169
61 97 159
61 97 165
63 99 170
62 98 163
62 98 165
62 98 167
62 99 171
61 97 159
62 98 163
63 100 173
61 98 161
62 98 163
63 99 166
61 97 158
63 99 165
62 98 161
62 98 162
61 97 159
62 98 165
62 97 159
62 98 161
62 98 161
61 97 158
62 98 162
61 96 152
62 98 165
61 97 164
61 97 158
62 98 165
62 98 157
62 98 159
62 98 163
62 98 156
62 98 160
61 96 153
62 97 159
63 99 166
62 97 155
62 98 156
61 97 152
62 98 161
61 97 154
62 97 153
62 98 162
62 98 159
61 98 161
61 96 154
61 97 150
61 97 158
62 98 160
62 98 158
62 98 160
62 98 156
62 97 155
62 97 154
61 97 154
61 97 155
62 98 161
62 98 157
61 97 152
61 97 151
62 98 162
62 98 160
61 97 153
62 97 154
61 97 156
61 96 144
61 96 142
61 97 154
61 96 145
61 97 148
61 96 150
62 97 160
62 98 158
61 96 149
61 96 145
62 97 151
61 96 151
60 96 144
61 96 149
62 97 158
61 96 148
60 94 149
61 96 151
60 95 140
62 97 150
61 96 152
62 97 155
61 96 146
60 94 141
61 95 145
63 98 152
61 95 145
60 93 134
59 94 139
60 94 144
73 97 118
85 96 78
87 91 58
102 100 0
102 103 8
101 101 0
88 84 11
95 93 12
95 92 0
81 80 8
88 86 3
97 94 14
95 94 0
94 93 16
91 90 8
89 87 0
103 100 8
95 92 14
85 81 8
92 89 0
88 86 5
86 83 0
95 92 8
92 91 8
102 97 14
108 105 19
100 97 19
111 106 23
102 101 19
101 99 22
106 103 20
109 108 0
108 105 18
123 119 20
120 115 16
106 104 16
109 105 14
121 116 26
119 114 26
119 116 35
118 115 25
110 107 16
111 108 24
126 122 24
115 113 21
114 110 16
114 111 21
117 114 32
122 119 16
117 115 26
124 120 18
121 116 34
125 120 34
118 114 16
127 123 32
125 121 28
124 120 25
121 117 24
127 122 30
126 120 36
126 121 30
126 123 28
130 126 37
126 122 25
142 137 32
131 126 37
114 109 22
125 120 28
127 122 22
140 134 39
130 125 32
129 122 25
132 126 34
128 123 34
129 124 34
128 123 32
128 123 30
129 125 36
124 118 30
121 116 19
127 122 22
117 112 28
125 119 41
122 118 32
117 113 28
128 123 36
128 123 25
123 118 28
126 121 30
131 126 22
131 127 30
122 122 25
132 132 25
140 139 36
137 138 28
136 139 25
127 129 19
132 137 16
126 129 19
135 138 11
140 143 22
145 153 19
141 147 22
149 158 22
147 155 16
151 162 0
158 168 19
159 174 11
156 169 0
159 172 0
157 170 0
165 180 0
162 175 0
162 177 0
165 180 0
163 179 0
163 179 0
161 178 0
166 181 0
167 184 0
162 180 0
165 183 0
165 181 0
161 178 0
165 181 0
166 183 0
163 180 0
166 185 0
163 179 0
164 182 0
169 189 0
172 189 0
163 180 0
169 187 0
165 183 0
164 181 0
166 186 0
166 185 0
197 216 193
195 215 184
199 218 199
195 214 184
201 220 201
202 220 207
199 219 196
205 224 220
204 222 214
201 220 204
202 221 209
199 218 204
202 221 209
202 221 207
206 224 220
204 222 211
206 224 224
207 225 227
205 223 221
207 225 226
207 225 226
206 224 226
207 225 228
204 223 220
209 226 228
207 225 228
207 225 228
207 225 228
208 225 228
210 227 236
208 225 231
209 226 226
212 229 238
211 228 231
207 224 226
211 228 237
206 224 226
209 226 230
207 225 228
208 225 231
209 227 237
210 227 234
209 227 234
211 228 237
212 229 242
208 226 233
209 227 231
211 228 234
208 225 233
208 225 230
208 226 230
211 228 236
209 227 230
206 224 223
210 227 231
213 229 241
207 224 223
208 225 221
205 223 224
210 227 233
205 223 220
208 226 230
206 224 227
208 225 226
203 222 212
208 225 226
206 224 218
207 225 224
208 226 228
206 224 218
205 223 220
206 224 220
203 221 207
201 219 213
195 213 219
189 208 214
178 197 215
175 194 219
164 183 223
168 188 223
160 180 212
158 178 211
145 166 206
127 151 199
125 149 195
121 145 193
126 149 193
135 158 199
102 129 183
97 125 176
103 130 180
77 109 176
94 123 177
74 107 165
90 119 180
75 108 170
71 105 167
80 112 168
68 102 167
72 106 170
77 109 174
68 102 171
67 101 162
66 102 170
62 98 171
68 102 170
64 99 159
64 100 172
62 98 163
61 97 166
63 98 165
61 98 169
64 99 161
60 95 159
62 98 173
62 97 167
60 97 166
61 98 166
60 97 161
60 96 164
61 98 169
60 96 163
61 98 167
61 98 165
61 98 169
62 98 167
62 98 168
61 98 171
61 97 165
60 96 164
61 97 168
61 98 172
61 97 156
62 99 172
62 98 166
62 98 167
61 97 161
62 98 165
62 98 170
60 97 161
62 98 166
61 97 162
62 98 167
62 98 163
62 98 168
62 98 167
62 99 173
62 98 166
61 98 164
62 98 166
62 98 164
62 98 166
62 98 167
61 98 167
62 98 163
61 97 163
62 98 166
62 99 169
61 97 164
61 98 165
61 97 157
61 98 163
62 99 169
62 97 156
62 98 163
61 97 159
61 98 164
62 98 161
61 97 159
61 97 160
62 99 171
61 98 165
62 98 163
61 97 159
61 97 158
62 98 163
62 98 168
62 98 161
61 97 160
61 98 164
62 98 163
61 97 161
63 99 168
61 97 159
62 98 161
62 98 162
62 98 162
62 98 155
62 98 163
61 98 161
62 99 163
63 99 172
63 99 161
62 98 160
61 98 158
62 98 165
63 100 170
62 98 161
63 99 167
61 98 162
62 98 162
62 98 159
61 96 152
63 99 164
61 96 153
62 98 163
62 97 156
62 98 156
61 97 158
62 98 161
62 97 157
62 98 161
61 97 153
62 97 155
62 98 159
61 97 162
62 97 156
61 97 148
60 95 148
63 99 163
61 97 155
62 98 159
62 98 161
62 98 163
61 97 154
62 98 157
60 96 141
61 97 151
61 97 148
61 97 156
61 96 149
61 97 156
61 97 150
62 97 150
60 96 145
62 97 151
62 97 152
61 96 149
61 97 149
61 96 153
61 97 151
61 96 148
62 97 155
61 97 151
61 97 152
62 97 155
60 96 152
62 98 161
62 96 152
60 95 141
61 96 147
61 96 145
60 96 144
60 95 139
60 95 135
59 93 142
60 94 135
60 94 140
59 93 148
58 92 123
59 92 128
60 93 136
69 93 119
82 94 88
87 90 53
100 101 29
108 109 11
84 84 16
91 92 14
98 97 3
88 87 0
101 99 3
97 94 0
92 91 11
92 88 11
93 90 8
96 94 0
92 89 18
94 92 11
94 93 0
93 90 8
89 86 11
97 94 16
88 84 8
93 90 14
102 99 14
93 91 12
97 95 16
102 100 18
94 93 18
113 109 21
99 96 20
105 103 8
111 107 20
112 108 14
101 96 11
116 112 14
103 100 11
103 99 24
116 113 21
119 116 22
107 104 18
120 116 25
120 114 22
120 117 14
119 116 21
128 124 35
114 112 22
117 114 33
123 118 24
109 107 11
114 111 19
129 124 26
123 118 25
121 117 28
118 114 28
120 117 19
126 122 24
123 120 23
129 126 30
128 123 32
125 120 25
120 116 30
118 113 32
130 125 32
117 113 28
133 128 22
127 123 30
128 124 28
128 123 32
134 130 28
124 118 25
129 125 25
125 120 11
125 121 22
123 118 32
130 125 34
119 115 30
118 114 32
131 124 34
116 112 22
131 126 36
127 122 28
121 116 36
115 111 11
132 125 28
116 111 22
132 126 36
123 118 25
121 118 25
134 133 28
127 125 25
119 116 11
129 129 19
133 132 16
139 139 19
130 132 16
131 130 22
139 145 22
141 148 11
136 142 19
141 144 28
136 139 19
143 150 11
147 155 16
147 155 19
144 152 16
151 160 22
149 161 0
156 169 11
163 177 0
156 169 0
162 178 0
163 180 0
160 172 0
157 171 0
160 173 0
160 174 0
164 179 0
161 176 0
161 175 0
159 173 0
165 182 0
162 179 0
161 176 0
166 182 0
165 182 0
166 183 0
166 183 0
165 183 0
168 185 0
164 182 0
164 179 0
164 181 0
160 176 0
168 187 0
167 186 0
166 183 0
166 181 0
166 185 0
199 218 194
197 217 191
199 218 193
196 216 193
202 221 209
198 217 198
201 219 203
202 221 211
205 223 215
203 221 209
204 222 217
206 224 224
207 225 224
202 221 206
209 226 227
201 219 211
206 224 221
207 225 224
203 222 217
207 225 227
208 226 236
208 226 231
212 229 240
208 226 227
209 227 236
209 226 231
212 229 241
209 227 230
208 226 230
211 229 241
209 227 233
211 229 238
209 226 238
208 226 233
209 227 231
210 227 238
209 227 230
209 226 230
211 229 238
209 226 234
208 226 227
212 229 238
211 229 240
209 226 233
208 226 228
208 225 230
206 224 223
210 227 237
207 225 230
209 226 230
209 227 234
208 226 231
209 226 228
207 225 223
208 225 231
211 228 236
209 226 233
210 227 231
208 226 227
209 226 228
207 224 223
211 228 237
208 225 228
209 226 228
209 226 228
204 222 215
209 226 228
206 224 223
206 224 218
207 225 221
202 221 212
206 224 223
206 224 222
206 224 227
194 212 224
189 207 220
188 206 223
183 200 225
164 183 220
167 186 218
153 174 217
150 171 214
147 168 213
145 166 212
133 156 206
122 146 199
107 133 188
114 139 190
118 143 190
100 127 181
98 126 185
90 119 175
86 116 175
83 113 173
83 113 171
74 108 174
75 108 165
76 109 167
78 110 175
78 110 171
75 107 165
70 104 169
65 100 167
76 108 161
67 102 170
69 103 167
65 101 167
64 100 161
67 102 162
65 100 154
61 97 167
61 97 165
63 99 168
60 96 157
66 101 166
61 97 168
68 102 164
63 98 160
60 97 169
61 98 169
61 98 165
61 97 170
61 97 163
61 98 165
60 97 167
60 96 159
60 96 158
61 97 162
61 97 162
60 97 164
61 98 167
61 97 160
61 97 168
61 97 161
61 98 168
61 97 162
62 98 168
61 97 165
62 98 171
61 98 168
61 97 160
61 98 163
62 99 168
62 98 163
62 98 167
62 99 167
62 98 164
61 98 166
62 98 160
61 98 167
62 99 166
62 98 163
62 98 167
62 98 162
62 99 168
62 99 170
61 98 168
61 98 161
61 98 164
61 97 160
63 99 167
61 97 157
61 97 159
62 98 162
61 97 153
63 99 166
62 99 167
62 99 169
62 99 165
62 98 166
62 99 168
62 99 167
61 97 154
63 99 172
62 98 163
62 99 167
63 98 161
62 98 163
62 98 163
61 98 165
61 97 165
63 99 163
62 97 160
61 96 154
62 99 165
61 96 151
61 97 155
61 97 158
62 98 163
62 98 159
63 99 164
62 98 166
62 98 160
63 99 168
61 97 155
61 97 155
61 97 157
62 98 161
62 97 153
61 97 160
61 97 154
61 97 154
61 98 161
61 97 160
61 97 155
61 97 151
62 98 158
60 96 153
62 98 164
61 97 158
61 97 154
62 98 157
62 98 162
61 97 159
62 98 162
62 98 164
61 97 156
62 98 157
62 98 154
62 98 159
61 96 145
62 98 156
60 96 152
61 96 153
62 97 154
61 97 151
62 97 155
62 98 156
63 99 164
62 98 156
62 98 159
62 98 157
62 98 150
62 98 159
62 98 153
61 97 158
61 96 152
62 98 159
61 96 148
61 96 152
61 96 148
61 96 157
62 97 149
61 96 149
61 97 155
61 96 148
62 97 150
62 97 154
61 96 148
59 93 141
61 96 150
60 95 142
61 96 148
60 94 143
60 95 139
59 93 136
61 95 145
60 94 145
60 94 142
58 91 135
58 91 124
64 95 131
76 94 106
88 97 77
81 86 45
98 100 18
102 103 16
98 99 11
105 106 0
95 95 8
94 93 0
85 85 21
97 94 0
96 95 12
94 92 0
96 96 0
97 94 11
95 92 18
83 80 11
102 100 14
88 85 8
96 94 11
99 95 8
85 83 12
88 88 14
102 98 16
97 94 16
101 98 16
97 92 18
95 92 16
97 94 24
107 103 16
103 99 11
112 109 11
119 115 14
112 108 8
106 103 24
112 107 14
100 97 11
108 104 21
113 109 16
111 107 18
111 107 21
111 109 16
110 106 26
120 115 22
114 110 0
120 115 28
114 111 22
120 116 11
122 118 19
127 121 31
114 110 11
119 114 21
127 123 22
125 121 25
125 121 28
124 120 31
120 115 25
123 119 11
131 125 36
128 125 19
124 120 22
123 118 28
124 120 30
120 115 25
129 123 28
125 121 25
124 120 32
127 122 28
128 121 36
122 118 25
125 120 25
129 125 30
128 124 22
120 116 25
136 131 32
132 126 36
128 124 36
126 121 36
123 117 16
115 110 25
123 118 28
121 116 28
127 122 32
129 125 19
125 119 25
124 121 28
118 115 16
123 120 25
124 121 25
120 118 22
143 140 32
137 137 16
131 134 0
131 135 19
125 130 16
149 153 36
140 144 30
136 141 16
143 147 28
147 154 0
145 151 0
143 150 11
148 158 16
150 157 16
156 164 22
152 162 11
157 169 11
156 169 0
163 178 0
163 176 0
159 176 0
159 174 0
160 172 0
161 177 0
161 175 0
160 176 0
162 178 0
166 181 0
159 174 0
160 176 0
162 176 0
163 177 0
165 181 0
165 181 0
168 187 0
168 185 0
165 181 0
160 174 0
163 178 0
166 185 0
167 186 0
166 185 0
164 183 0
164 183 0
166 183 0
164 180 0
168 186 0
163 181 0
198 217 189
205 223 215
201 220 199
200 219 199
203 221 215
200 219 198
204 223 220
207 224 221
203 222 211
203 221 207
206 224 224
210 227 233
206 224 226
207 225 224
210 227 233
206 225 224
209 226 231
209 226 233
208 226 226
205 222 220
211 228 237
208 226 227
207 225 230
209 226 227
211 228 237
204 223 217
210 227 237
211 228 240
205 223 220
208 226 230
207 225 221
207 225 228
208 225 231
206 224 226
209 226 230
210 228 233
206 224 227
210 227 234
208 226 227
206 223 220
207 224 224
206 224 223
207 224 228
207 224 224
210 227 231
206 223 220
208 226 233
206 224 221
208 226 233
209 227 228
204 223 224
209 226 228
207 225 226
210 227 234
208 226 226
205 222 223
206 224 224
207 225 227
207 224 230
209 227 231
208 226 227
212 229 241
208 226 228
210 227 234
210 227 231
208 225 224
208 226 231
210 227 230
211 228 230
212 228 238
209 227 231
209 226 227
208 225 225
198 216 221
191 210 217
188 206 226
184 202 229
167 186 219
165 185 220
166 186 223
154 175 214
151 172 213
143 164 208
139 161 202
127 150 200
115 140 194
141 163 210
116 141 195
114 139 186
109 135 191
101 128 186
100 128 186
96 124 183
90 119 174
89 119 178
74 108 176
79 111 172
76 108 173
79 111 174
78 110 172
63 99 167
80 112 166
70 103 159
61 98 168
73 106 167
73 107 170
65 101 174
64 99 161
61 97 164
62 98 165
62 98 168
62 98 169
61 97 166
60 96 160
62 98 166
64 99 162
61 96 165
62 98 174
61 98 166
62 98 166
61 98 169
61 98 167
61 96 159
60 96 162
61 97 164
61 98 170
60 96 166
61 98 167
60 96 162
60 96 163
59 95 160
61 97 160
60 97 162
61 97 165
61 97 155
61 98 166
61 97 163
62 98 167
62 98 165
61 98 161
61 98 167
61 98 163
61 97 163
62 98 166
61 98 162
62 98 168
62 98 169
62 98 163
62 98 167
61 98 162
61 98 161
62 98 161
61 97 160
62 99 172
62 98 164
61 97 163
62 98 164
62 99 166
62 98 157
62 98 158
62 98 158
62 98 161
62 98 170
61 97 159
62 98 165
63 99 166
62 99 166
62 98 158
61 97 158
62 98 161
62 98 160
63 99 164
62 98 166
62 98 161
62 98 162
62 97 153
62 98 161
62 98 163
62 98 163
63 99 167
62 97 154
61 96 156
62 98 168
61 97 158
62 98 164
62 98 160
62 98 163
62 98 165
62 98 157
61 97 157
62 98 161
62 98 160
62 98 163
62 98 161
62 98 161
62 98 159
62 98 156
62 98 164
61 97 156
62 99 166
61 96 158
61 97 160
62 99 166
62 97 155
61 96 151
62 98 157
62 98 163
61 97 155
62 98 157
61 97 155
62 98 162
62 97 156
61 97 157
60 96 152
62 97 155
61 97 164
63 98 156
61 96 147
61 96 152
62 97 154
61 97 161
61 97 155
62 99 167
61 97 160
63 99 162
61 97 145
61 97 152
61 96 149
62 97 153
61 97 152
61 97 160
61 97 152
61 96 154
62 97 148
63 99 163
62 98 156
61 97 156
61 97 149
60 95 147
62 97 150
61 97 153
61 97 151
60 95 144
60 95 137
61 97 155
61 96 150
61 96 150
61 96 143
61 96 144
61 96 149
61 97 148
59 94 132
61 95 139
61 96 142
60 94 146
61 96 150
59 93 129
60 94 141
60 94 140
58 92 140
58 92 136
62 93 127
76 92 97
87 95 68
97 102 42
105 106 21
99 102 0
93 94 16
96 94 11
107 108 0
101 101 0
98 95 16
100 100 0
85 80 0
104 103 0
86 84 0
89 86 0
88 85 11
92 90 11
95 93 0
94 90 0
102 97 3
92 88 14
99 96 8
91 88 16
83 80 8
93 88 0
97 92 8
87 84 11
94 91 11
94 90 14
110 107 3
105 103 14
100 96 8
103 99 0
102 101 11
103 100 2
111 107 11
109 105 14
108 105 8
109 106 18
110 105 11
106 103 21
110 107 11
106 102 22
122 119 11
114 111 16
115 110 11
116 111 16
124 119 25
112 109 16
122 117 16
118 114 22
123 120 28
120 116 19
120 115 22
126 120 25
123 118 21
127 123 16
120 116 22
125 118 36
125 120 25
128 124 25
108 105 11
123 117 25
122 117 26
128 124 30
126 121 28
117 112 25
115 110 11
121 116 30
125 121 25
131 125 30
127 123 22
127 123 25
125 121 25
125 120 19
120 117 25
120 115 28
119 114 28
121 117 22
119 114 16
124 118 25
130 124 32
122 119 25
131 127 28
129 126 19
132 127 34
124 121 16
131 129 34
122 123 22
132 132 25
128 125 22
131 133 16
133 135 16
130 137 22
131 134 22
137 143 19
138 142 22
141 142 19
135 143 0
139 143 19
146 153 11
155 165 0
145 152 16
146 156 11
156 166 0
150 164 0
159 171 11
158 168 0
157 172 0
160 171 0
157 169 0
156 168 0
157 172 0
165 182 0
162 177 0
163 178 0
158 171 0
165 179 0
162 178 0
165 181 0
160 177 0
165 183 0
166 183 0
169 186 0
165 182 0
165 182 0
166 183 0
166 184 0
167 185 0
168 185 0
165 185 0
164 182 0
167 183 0
168 188 0
167 185 0
164 183 0
167 186 0
164 182 0
198 217 189
199 218 196
201 220 206
202 221 211
203 222 214
205 223 218
202 221 209
204 222 217
203 222 214
208 226 231
206 224 220
207 224 221
208 226 230
203 221 215
206 224 221
209 226 231
207 226 233
209 226 230
211 228 238
210 227 234
210 227 231
206 224 228
207 225 223
209 227 236
209 226 228
206 225 228
210 227 233
212 229 238
205 223 221
206 224 226
212 229 241
202 221 212
206 224 218
210 227 230
207 225 223
208 226 226
208 226 227
203 221 223
205 223 221
208 225 230
205 223 215
203 222 214
205 223 223
206 224 224
205 222 211
204 222 218
210 227 228
202 221 209
203 222 217
205 222 221
203 221 211
208 226 224
206 224 220
205 223 215
206 224 227
204 222 215
208 225 231
206 224 223
207 225 226
206 224 227
205 223 221
205 223 223
210 227 228
206 224 224
207 225 223
203 220 207
211 228 231
206 224 221
206 224 223
207 225 226
205 223 214
210 227 227
204 222 225
201 219 226
192 210 228
184 203 223
184 202 225
170 190 210
173 192 224
167 186 220
154 174 213
158 178 216
142 164 207
128 151 199
130 153 203
125 149 200
133 156 205
122 146 198
102 129 187
120 144 197
106 132 185
101 129 190
99 126 185
97 125 187
86 116 175
81 111 171
85 115 167
71 105 175
77 109 172
74 107 167
71 105 165
72 106 165
65 100 174
71 105 175
71 104 165
68 102 161
64 99 168
67 101 168
71 104 164
63 99 163
63 98 162
67 102 168
63 99 170
68 103 164
62 98 170
63 99 165
63 99 157
61 97 168
61 98 166
61 97 170
61 97 161
61 97 164
61 97 168
61 97 166
61 97 163
60 97 163
62 98 162
59 96 160
61 96 158
60 97 167
61 97 163
60 96 163
61 98 166
61 97 162
60 96 164
61 97 165
61 97 163
61 98 165
61 98 168
61 98 163
61 97 163
61 98 166
62 98 168
61 96 158
62 98 163
61 97 156
61 98 165
61 96 153
61 97 165
62 98 165
63 99 170
62 98 168
62 98 163
61 97 159
62 98 159
61 97 156
61 97 158
61 98 159
61 97 161
61 97 163
62 97 156
62 98 159
62 98 161
62 98 166
62 98 162
62 99 167
62 99 167
62 98 166
62 98 166
61 97 161
60 96 156
61 97 159
62 98 164
61 97 162
62 98 163
63 99 167
62 97 156
61 97 158
61 97 156
61 97 157
63 99 164
61 97 161
61 97 162
62 98 161
62 98 157
62 98 165
62 98 156
62 98 163
62 98 161
61 97 159
63 99 164
61 97 153
62 98 159
62 97 155
62 98 160
61 97 154
61 97 159
62 97 152
62 97 147
62 97 159
61 98 164
61 97 155
61 97 150
62 97 153
62 98 159
61 97 154
61 97 154
61 97 155
62 97 159
62 97 153
61 97 154
61 97 155
62 98 160
61 97 148
61 98 161
62 97 150
60 96 149
61 96 154
62 98 156
62 97 155
62 98 158
61 97 155
61 97 155
61 97 154
61 96 155
61 97 150
62 98 158
62 98 158
61 97 160
61 96 150
62 98 161
61 97 154
61 97 152
60 96 153
62 97 153
62 97 155
61 96 148
62 98 162
60 96 143
62 98 161
61 97 149
61 96 144
61 96 150
61 97 154
61 96 151
61 96 148
61 95 143
62 96 146
62 97 151
60 95 145
62 97 154
61 96 137
60 94 140
61 96 148
60 94 147
62 97 152
61 96 147
60 95 143
59 93 131
58 91 122
57 90 118
68 95 121
80 98 101
81 89 50
101 105 44
107 111 0
105 106 14
110 112 11
105 106 11
100 100 0
110 109 11
101 100 0
102 102 0
92 90 0
93 92 11
93 95 5
89 85 12
101 97 0
103 100 0
102 100 0
93 89 11
88 86 0
107 105 0
90 86 0
85 81 0
92 90 0
86 84 8
97 92 8
103 98 0
108 103 8
102 99 11
92 89 0
104 101 14
99 96 14
104 100 11
97 91 11
105 100 14
108 104 11
102 99 16
106 102 8
110 107 19
116 111 19
119 115 21
117 113 16
104 102 21
124 118 24
115 111 16
112 108 22
128 121 11
113 107 22
109 105 24
112 108 18
115 112 16
119 113 11
124 120 19
116 112 0
122 119 28
116 113 11
117 112 19
130 125 25
123 119 16
123 119 22
121 115 24
127 122 30
109 105 19
121 115 22
114 110 16
126 121 19
132 125 28
116 109 30
127 120 36
125 119 11
120 115 28
125 120 19
136 130 30
118 112 22
130 125 28
123 118 19
120 115 30
123 119 22
112 108 0
121 116 22
123 118 30
115 110 19
121 116 19
115 113 25
134 131 25
130 130 16
126 125 11
136 136 28
133 134 19
142 143 25
141 143 22
137 139 11
141 142 22
127 128 22
126 132 25
144 149 22
150 157 11
149 156 11
142 151 11
151 157 11
152 163 11
155 168 11
148 155 0
146 156 0
159 169 0
155 164 0
157 169 0
155 166 0
161 175 0
164 177 0
163 176 0
155 169 0
162 176 0
156 168 0
163 180 0
161 178 0
162 175 0
161 177 0
160 173 0
165 182 0
163 178 0
164 180 0
160 178 0
164 179 0
165 181 0
163 181 0
166 183 0
160 178 0
161 177 0
163 180 0
164 182 0
162 178 0
167 183 0
166 184 0
166 186 0
163 181 0
168 188 0
166 185 0
201 220 207
204 223 215
202 221 214
200 219 198
206 224 220
207 225 226
208 225 227
206 224 220
204 222 215
210 228 236
204 223 217
211 228 234
208 226 230
208 226 227
207 225 230
208 225 231
207 224 221
213 229 240
210 226 231
208 226 228
210 228 234
206 224 224
209 226 237
210 227 231
207 224 227
207 225 234
208 225 230
204 223 217
206 224 230
208 226 233
199 219 207
203 221 212
205 224 217
204 222 217
207 225 227
202 220 204
199 218 206
204 222 211
200 219 204
201 220 206
202 221 211
201 221 212
204 223 215
205 223 217
205 223 215
207 225 227
202 220 207
200 219 201
200 219 199
204 223 215
204 222 220
202 220 207
202 220 214
201 219 209
206 224 220
200 219 204
202 221 207
207 224 226
204 222 207
210 226 228
204 222 211
206 224 221
203 221 212
204 222 211
206 223 223
209 226 234
209 226 226
209 226 226
208 225 226
206 224 221
211 227 234
206 223 221
205 223 226
197 215 226
192 210 228
183 201 218
179 199 225
181 199 224
172 191 226
170 190 221
153 174 217
158 178 220
152 173 215
136 159 209
134 157 204
134 157 205
119 144 200
125 149 199
116 141 197
128 151 203
112 138 196
109 135 194
107 132 188
90 119 185
93 122 182
80 112 180
96 125 181
82 113 170
84 114 173
69 104 174
69 104 176
72 105 175
72 106 167
68 103 175
62 98 167
70 104 170
72 105 165
71 105 166
65 99 167
65 100 168
70 104 168
64 98 158
64 99 160
63 98 159
64 99 162
62 98 172
64 100 164
62 98 161
61 97 166
63 99 163
62 97 157
61 97 166
61 98 168
61 98 170
61 97 163
61 98 168
63 99 170
62 98 165
61 98 165
61 98 163
62 98 169
61 98 166
61 97 166
60 96 159
61 97 158
61 98 162
62 98 169
61 98 165
61 97 164
62 98 167
62 98 165
61 97 161
61 97 161
61 97 163
62 98 163
62 98 163
61 97 158
62 98 167
62 98 169
63 99 168
61 98 159
62 98 164
63 99 164
62 98 165
61 96 156
62 98 164
62 99 166
62 98 164
62 98 163
62 98 164
62 98 162
61 97 161
62 98 164
62 98 160
63 99 166
61 96 155
61 98 158
62 98 164
62 98 162
61 98 162
62 98 161
62 98 167
63 99 165
61 98 158
61 97 159
62 98 166
62 99 167
62 98 162
62 99 167
62 98 162
61 97 159
62 99 165
62 98 161
62 98 162
62 98 161
63 99 165
62 98 159
62 98 161
61 97 158
61 97 157
61 97 157
62 98 157
61 98 160
61 98 160
62 98 160
61 97 156
62 98 163
61 97 156
62 97 157
61 97 160
62 98 158
61 97 156
62 98 158
62 97 155
62 98 154
61 96 152
62 98 161
61 97 152
61 97 156
61 97 156
62 98 155
61 97 154
63 98 157
61 97 155
62 98 153
62 97 152
62 98 152
62 98 159
62 98 159
62 97 154
61 97 153
61 97 151
62 98 160
63 99 165
61 97 153
62 98 163
61 96 149
63 98 157
61 96 152
62 97 151
60 96 147
62 97 156
62 97 157
62 98 155
61 96 148
61 97 150
60 96 142
62 97 150
61 96 145
61 97 156
62 97 148
61 96 149
60 95 145
62 97 151
61 97 155
60 95 142
61 97 153
60 95 141
60 95 150
60 95 152
61 96 142
60 94 137
59 94 139
61 96 148
62 97 153
59 93 138
61 96 152
59 93 139
61 94 146
59 92 131
59 92 135
70 94 103
75 94 101
90 94 57
104 110 37
101 105 11
99 101 0
102 103 11
113 118 0
109 112 0
103 100 0
94 96 0
100 100 0
91 90 0
100 96 0
110 110 16
89 86 14
93 90 14
98 94 16
110 109 0
94 92 0
98 93 18
89 85 0
87 84 0
100 95 0
94 90 8
101 96 12
95 91 3
101 98 18
98 93 11
94 90 0
91 87 14
96 93 0
102 99 0
103 99 1
95 91 18
105 100 8
109 106 16
106 102 11
98 93 16
99 96 0
116 111 18
107 103 19
110 106 16
117 112 22
112 109 11
108 105 19
115 111 11
111 108 11
116 113 16
121 118 22
115 110 16
104 103 0
111 107 16
107 104 8
116 111 19
129 123 16
120 116 24
123 119 22
98 96 0
124 120 19
113 108 19
121 115 22
123 118 19
122 117 11
114 110 22
121 117 25
127 121 28
121 116 28
117 112 11
112 107 16
118 113 19
125 120 25
121 117 11
123 116 22
121 116 25
121 116 22
125 119 16
112 107 19
119 113 30
111 107 30
125 120 22
121 116 25
102 98 28
123 118 22
126 126 19
123 119 19
120 118 11
129 127 30
128 129 22
141 142 28
133 134 0
133 136 22
140 144 0
124 125 16
140 145 16
146 151 11
143 150 16
143 149 16
142 149 0
149 159 0
149 158 0
151 160 16
152 160 0
158 170 11
160 172 16
159 172 0
152 163 0
154 166 0
157 170 0
155 168 0
163 179 0
155 167 0
155 169 0
155 168 0
164 178 0
157 173 0
160 174 0
158 172 0
156 171 0
157 171 0
165 181 0
166 180 0
158 175 0
163 181 0
162 176 0
163 180 0
158 174 0
165 182 0
169 185 0
164 182 0
165 183 0
166 183 0
166 183 0
163 181 0
168 187 0
171 192 0
169 188 0
164 182 0
168 189 0
202 220 211
208 225 227
208 225 227
205 223 215
208 225 226
207 224 221
207 224 220
202 220 212
208 225 226
205 223 220
209 226 234
208 225 231
210 227 234
209 226 231
209 227 233
209 226 228
209 226 227
205 223 220
205 224 221
206 224 218
208 225 227
207 225 226
207 224 224
205 223 220
203 222 215
204 223 218
206 224 224
204 223 220
206 224 227
203 221 211
198 217 201
206 225 223
203 222 211
202 220 206
199 218 199
201 220 204
200 218 204
200 219 198
201 220 203
199 218 199
198 218 198
201 220 206
201 220 201
198 218 194
200 219 198
197 217 204
202 221 204
199 218 203
197 216 193
198 218 201
196 215 182
199 218 203
201 219 203
202 221 206
201 220 204
201 219 201
203 222 209
199 218 207
199 218 203
203 221 209
200 218 209
205 223 220
205 223 214
200 218 203
202 220 203
205 223 220
204 222 212
207 224 227
202 220 207
205 223 212
209 226 228
204 222 222
197 214 217
197 214 231
182 201 215
186 204 230
178 197 224
165 185 219
163 183 220
156 177 216
171 190 227
146 167 211
154 174 216
139 162 207
142 164 210
125 148 198
132 155 206
125 149 197
123 146 198
110 135 191
112 138 195
110 136 194
95 123 182
92 121 186
103 130 182
90 119 180
73 106 177
75 108 173
89 118 175
81 112 180
72 106 172
68 102 169
77 109 167
74 107 172
74 107 162
80 111 167
69 102 166
65 100 166
66 100 168
66 101 164
65 101 166
64 100 168
62 97 158
63 99 158
61 97 172
62 98 156
63 99 162
64 100 167
63 99 165
64 100 165
61 98 169
62 99 176
61 97 166
61 97 162
61 97 164
60 96 166
62 98 168
61 97 163
62 98 169
61 98 163
61 97 157
60 96 161
62 98 166
60 96 162
61 97 162
61 98 168
61 97 161
61 98 167
60 97 161
61 98 171
61 97 168
61 96 153
61 97 160
62 99 171
63 99 169
62 98 166
62 98 164
62 98 165
61 98 167
62 98 165
63 99 170
61 98 163
62 98 164
60 96 154
62 98 166
62 97 156
62 99 168
61 97 161
62 98 163
62 98 161
63 99 168
62 98 161
62 98 162
62 98 164
62 98 165
61 97 157
62 99 169
61 97 159
61 97 157
61 97 155
62 98 161
61 97 159
61 98 159
63 99 166
61 98 163
61 97 164
61 98 164
61 97 158
62 98 160
61 97 155
62 98 160
62 98 162
61 97 157
62 98 161
62 98 160
62 98 157
60 96 155
62 98 162
61 97 158
62 98 163
61 97 155
61 97 151
62 98 164
62 98 165
62 99 165
61 97 159
61 97 160
62 98 162
61 97 149
60 96 149
63 98 161
62 99 164
61 97 154
62 98 157
62 98 158
62 98 163
62 98 160
61 97 159
62 98 155
62 98 157
62 98 158
62 98 158
62 97 151
62 98 159
63 98 159
61 97 151
63 99 157
61 97 152
62 98 157
62 97 152
62 97 152
62 98 158
61 97 150
62 97 150
61 96 148
62 98 157
61 97 149
62 97 154
62 97 154
62 97 155
60 95 143
62 98 155
61 96 149
61 97 159
60 95 137
61 96 143
62 97 155
61 95 144
61 96 142
60 96 143
61 96 155
61 96 151
61 97 149
62 97 152
60 95 142
61 96 145
61 96 146
61 96 148
60 95 148
62 97 148
60 95 141
59 94 139
61 96 147
61 96 145
60 94 135
59 93 130
61 95 141
61 95 146
60 93 135
59 93 147
61 94 130
76 99 118
76 92 96
109 117 52
110 114 18
105 103 0
102 103 11
95 94 11
108 105 11
102 107 0
114 117 0
101 101 11
94 94 11
94 92 0
99 98 0
93 91 0
103 103 3
92 91 16
95 94 0
90 90 8
102 100 11
92 89 0
98 96 0
101 97 8
89 86 0
85 83 0
103 98 8
91 86 0
99 96 0
100 95 0
103 99 8
93 90 8
94 90 8
98 95 8
100 98 11
102 98 11
105 102 0
99 95 16
108 104 8
108 105 11
107 104 0
111 106 14
113 107 11
112 105 16
100 95 11
108 105 0
112 107 19
108 103 16
111 106 0
116 110 11
101 98 0
117 112 18
106 102 11
111 107 16
111 106 16
113 108 19
116 112 11
119 114 16
108 104 14
124 118 16
115 109 19
108 104 0
119 114 19
128 124 25
117 111 11
110 106 11
117 114 11
121 114 16
119 114 19
120 115 16
119 114 11
114 109 19
126 121 19
121 116 25
107 104 22
125 119 22
121 116 19
116 111 0
122 117 16
122 119 16
117 111 19
127 124 19
123 119 25
122 118 25
129 125 19
129 128 0
116 116 0
118 116 19
131 131 16
129 130 16
123 123 11
140 142 11
133 130 30
140 142 22
149 155 0
140 141 16
149 151 22
143 148 0
136 143 0
146 155 0
157 167 16
143 149 11
151 160 16
153 162 11
150 160 0
155 164 0
148 160 0
159 173 0
156 170 0
165 177 0
155 169 0
160 173 0
157 168 0
154 168 0
163 179 0
163 177 0
157 171 0
163 179 0
165 181 0
159 173 0
160 175 0
166 183 0
163 178 0
157 171 0
163 177 0
162 178 0
168 186 0
162 177 0
163 180 0
168 182 0
164 182 0
160 175 0
166 186 0
164 181 0
164 181 0
165 180 0
166 184 0
168 185 0
163 182 0
169 188 0
207 224 220
206 224 223
203 222 212
203 221 217
206 224 221
205 222 223
204 222 217
204 222 220
211 228 233
204 222 221
210 228 236
210 228 234
207 224 218
210 228 237
205 222 226
210 227 233
208 225 221
208 225 227
207 224 221
206 224 220
205 223 220
204 222 220
198 217 196
204 222 214
201 219 201
201 220 207
200 218 211
200 219 198
204 222 215
202 221 212
200 219 198
196 216 184
199 218 201
197 217 198
196 216 189
194 214 179
191 212 173
195 214 182
198 217 191
197 216 191
199 219 199
195 215 188
193 214 184
192 213 177
196 216 191
194 214 186
202 222 214
193 213 184
197 216 184
198 217 193
200 219 194
196 214 186
199 219 199
198 217 191
192 212 175
195 215 177
194 213 189
193 214 179
204 222 211
194 213 193
196 216 191
200 219 201
202 220 209
197 216 194
201 219 199
199 218 198
203 222 209
204 222 209
205 223 224
205 223 214
205 222 223
207 224 232
195 213 216
195 213 226
188 206 225
185 204 228
174 193 217
171 190 220
159 179 219
159 179 210
153 174 211
151 172 213
151 172 210
150 171 212
148 169 212
145 166 211
133 156 207
121 145 200
111 137 193
133 156 206
113 139 194
124 148 200
114 139 196
110 136 191
98 125 188
89 119 184
89 118 180
73 106 176
84 115 182
77 109 171
77 109 176
79 110 172
79 111 177
71 104 170
66 100 167
68 102 167
63 97 158
64 100 170
82 113 173
68 102 163
63 99 163
68 103 165
63 99 166
63 99 174
62 98 165
64 100 169
60 96 161
61 98 160
61 97 164
60 96 167
61 97 166
61 97 161
60 96 161
61 97 164
62 99 173
61 97 170
62 98 167
60 95 159
62 98 162
61 97 166
60 97 160
61 97 165
60 96 161
62 98 166
60 97 161
61 97 160
62 99 165
62 98 169
61 98 167
61 97 162
61 97 162
61 97 162
61 97 160
61 97 165
62 98 163
62 98 166
62 98 165
60 96 159
61 97 161
61 97 159
61 97 164
62 98 160
62 98 165
61 97 163
61 97 161
61 97 156
62 98 163
62 98 161
60 96 155
62 97 154
61 98 162
63 99 167
62 98 162
61 98 164
62 98 165
62 99 165
61 97 158
61 97 156
62 98 160
62 98 165
62 98 165
61 98 163
62 98 161
61 96 154
62 98 164
62 98 164
62 98 165
62 98 161
62 98 164
62 98 164
62 98 162
62 98 165
61 97 154
61 97 158
62 97 157
64 100 166
62 98 158
61 97 159
62 98 163
61 97 154
62 98 155
61 97 154
61 97 152
61 97 154
62 98 161
62 98 161
62 99 166
62 98 156
63 99 163
61 96 150
63 99 168
62 98 160
61 98 162
63 99 161
60 96 153
62 97 156
62 97 154
61 97 153
62 98 158
62 98 161
62 98 157
62 98 163
61 96 149
61 97 150
62 98 157
62 98 159
61 96 151
62 97 157
61 96 151
61 97 156
62 97 153
61 97 153
61 97 149
62 98 154
61 96 143
61 97 155
60 95 145
62 97 151
62 98 157
61 97 149
61 97 157
62 97 155
61 96 149
61 97 154
61 96 149
61 96 152
61 97 152
61 96 145
61 96 150
61 96 150
62 97 154
60 95 144
62 97 155
60 95 143
61 96 153
60 95 144
61 96 143
61 95 140
61 97 151
60 94 142
61 96 142
60 95 144
60 94 140
61 96 146
60 95 149
60 94 141
61 95 137
60 94 136
59 92 139
59 93 135
59 92 130
69 92 111
94 106 80
109 115 52
100 100 25
114 117 0
116 117 11
105 107 0
98 101 0
98 99 0
103 104 19
102 101 3
84 86 11
89 88 0
97 95 0
106 105 0
99 96 0
100 96 0
98 95 0
89 87 11
83 82 0
102 98 0
106 100 0
92 86 0
90 86 0
89 85 0
96 91 0
95 92 8
103 100 14
92 88 0
98 95 3
96 94 11
90 86 0
92 90 8
91 86 0
105 100 0
109 103 0
103 100 0
102 98 0
98 94 0
93 89 8
109 105 0
111 108 0
105 100 11
122 118 11
110 105 11
114 111 0
113 109 11
114 110 8
110 105 11
118 113 19
112 107 16
116 112 0
113 108 11
111 106 11
117 113 0
115 110 11
108 103 16
118 113 16
113 108 0
120 115 0
109 103 11
112 108 19
109 105 0
124 119 28
125 119 24
114 109 16
110 104 0
102 97 11
110 106 16
117 112 0
112 107 25
118 114 22
107 101 16
123 119 16
117 112 11
119 114 16
117 114 19
115 111 16
127 125 22
109 107 0
117 117 11
129 127 25
126 125 11
126 125 16
130 130 16
131 132 19
124 124 16
138 139 19
124 128 0
129 133 0
128 131 11
144 144 22
144 148 19
136 139 0
139 145 16
136 140 19
145 157 11
139 144 0
141 147 0
152 163 0
154 162 0
151 162 0
152 163 0
153 165 0
153 164 0
157 170 0
159 171 0
155 165 0
155 166 0
156 170 0
163 176 0
158 172 0
161 177 0
162 177 0
160 175 0
157 172 0
164 182 0
158 169 0
160 175 0
160 176 0
159 173 0
161 175 0
167 182 0
167 182 0
163 179 0
157 174 0
164 181 0
161 177 0
165 180 0
162 178 0
162 177 0
168 186 0
165 180 0
166 184 0
168 184 0
167 185 0
165 183 0
167 186 0
169 187 0
206 224 220
207 225 227
209 226 233
205 223 215
205 223 224
207 225 227
208 225 231
207 225 226
209 226 231
207 225 223
207 224 226
208 225 224
207 225 224
208 226 227
210 228 233
204 222 217
207 224 215
206 224 223
207 225 224
200 219 206
202 220 214
199 218 204
201 220 207
202 220 204
198 218 201
200 219 206
196 215 186
195 215 179
200 219 199
197 217 191
195 215 179
195 215 179
198 217 198
194 214 171
197 216 188
192 212 182
191 211 167
197 216 189
193 214 181
190 210 163
193 213 173
193 213 169
194 214 182
194 214 186
191 212 167
189 209 163
188 209 157
191 211 167
197 217 188
190 211 163
193 213 182
191 212 179
193 213 181
189 210 165
192 213 177
194 213 177
196 216 191
194 214 175
199 218 188
193 213 173
196 215 194
197 216 191
201 220 201
193 212 179
201 219 206
195 215 188
200 219 199
197 216 191
198 217 201
202 221 211
196 216 200
195 213 214
193 210 226
190 208 209
182 201 222
170 189 211
182 200 223
162 182 218
164 183 216
161 181 209
150 171 207
150 171 214
144 166 205
148 169 214
145 167 205
136 159 204
136 158 205
116 141 191
127 150 198
120 144 196
104 131 191
124 148 200
103 130 190
107 133 190
92 121 185
87 117 183
110 136 193
81 112 178
81 112 175
78 109 176
64 100 174
80 112 176
64 100 170
67 102 171
77 108 169
68 103 170
75 108 171
73 105 165
66 101 160
64 99 168
70 104 166
66 101 167
65 100 172
67 102 168
63 99 160
63 99 160
61 97 161
60 96 164
63 98 159
63 99 167
61 97 163
64 100 167
63 99 171
60 96 159
60 96 162
61 96 161
61 98 167
61 97 164
62 99 170
61 97 166
61 97 160
61 97 160
60 97 164
61 98 167
61 97 156
61 97 159
61 97 162
61 97 165
62 98 162
62 98 168
61 97 161
60 97 162
62 98 162
60 96 153
60 97 162
61 98 162
61 96 160
62 98 163
62 97 161
63 99 169
62 98 163
61 97 160
61 98 161
62 98 163
62 98 161
62 98 165
62 98 162
61 97 158
62 98 161
61 97 160
62 98 162
61 97 152
63 99 166
62 98 160
60 96 155
62 98 160
62 98 157
61 97 154
61 97 152
62 98 165
63 99 162
62 98 162
61 97 160
61 96 156
62 98 162
62 98 159
62 99 166
62 98 162
62 98 161
62 98 161
61 97 161
62 98 166
61 98 160
62 98 162
61 96 151
61 97 157
61 97 156
61 97 158
62 98 164
63 98 158
63 99 166
62 97 156
61 97 148
62 98 161
61 96 151
62 98 167
61 97 155
62 97 160
60 95 145
61 97 157
60 96 145
61 97 154
61 97 152
61 97 158
62 97 159
62 97 151
62 98 161
62 97 157
61 97 148
62 97 154
61 97 149
62 98 152
61 96 157
61 97 151
63 98 157
61 96 145
62 98 155
61 97 155
61 97 155
62 97 153
62 98 160
62 97 153
61 97 151
62 98 158
63 98 157
61 97 151
63 98 157
62 98 153
63 98 158
61 97 155
62 98 158
62 97 156
61 97 152
61 97 152
61 96 149
62 97 149
62 97 155
61 96 150
62 98 155
61 96 145
62 97 147
61 97 149
61 96 148
61 96 142
59 94 142
60 95 145
60 95 144
60 95 148
62 97 152
62 97 151
61 96 145
59 93 137
61 95 142
59 94 141
60 95 147
59 93 126
59 92 137
59 92 132
58 92 125
58 92 127
60 90 122
78 94 92
100 109 72
104 110 41
103 108 0
108 112 0
108 110 0
102 105 12
105 106 11
101 101 0
116 118 0
107 111 0
102 104 0
108 109 0
88 87 0
103 102 0
97 91 0
96 94 0
102 100 0
88 86 3
99 95 0
104 101 11
101 97 0
102 97 0
98 95 0
93 89 0
90 89 5
95 92 11
92 88 0
92 90 3
99 93 0
98 95 3
88 86 14
105 102 8
106 102 0
98 95 0
93 91 8
105 102 8
106 99 0
100 95 8
106 103 8
104 100 0
109 103 14
91 88 11
106 101 11
106 100 11
106 102 11
109 105 0
110 106 0
114 109 16
108 104 0
109 102 0
109 103 18
116 109 19
109 105 16
113 107 16
113 109 11
111 107 11
115 111 19
113 109 19
114 108 19
112 108 16
108 103 16
115 110 11
115 109 11
126 118 11
115 109 16
115 110 19
116 111 16
114 110 16
108 104 19
121 116 19
118 113 11
110 106 11
119 113 16
112 107 19
120 118 16
126 124 16
118 115 11
121 119 22
118 115 11
128 127 11
118 116 16
131 128 16
136 136 19
123 122 11
129 128 22
129 131 0
125 126 11
138 140 16
134 135 11
127 132 0
142 146 11
145 151 11
144 150 11
146 153 0
152 159 16
143 149 11
148 156 19
147 157 0
154 165 0
147 155 0
153 166 0
155 165 0
152 161 0
153 164 0
155 166 0
155 168 0
157 171 0
166 180 0
156 169 0
155 166 0
155 168 0
160 171 0
161 175 0
163 177 0
164 182 0
159 173 0
165 180 0
162 177 0
166 182 0
166 184 0
160 176 0
167 185 0
158 176 0
168 183 0
166 184 0
162 175 0
168 185 0
166 181 0
161 177 0
167 185 0
163 178 0
154 169 0
165 181 0
165 183 0
167 187 0
164 181 0
163 180 0
164 181 0
205 223 221
209 226 230
210 228 236
212 229 240
207 225 223
207 225 221
208 225 224
207 225 226
205 223 217
206 224 220
205 223 223
206 224 224
207 225 224
206 223 223
201 220 204
208 225 226
204 222 209
195 215 191
201 220 206
198 217 194
196 216 189
201 220 203
201 220 201
196 216 186
196 217 199
197 216 188
196 216 191
191 210 163
194 215 184
193 213 184
194 214 171
196 216 182
190 211 169
192 212 175
193 212 173
189 210 163
192 212 163
192 211 173
191 212 165
190 211 177
188 209 153
188 210 155
189 210 151
189 209 157
189 210 155
189 210 161
185 207 149
191 213 171
192 212 163
188 208 159
190 210 163
191 211 161
192 212 161
191 211 165
191 211 161
195 215 175
187 208 157
193 213 171
194 214 171
186 206 157
195 214 179
190 211 163
196 215 189
191 212 167
193 213 171
196 216 189
190 210 161
192 212 169
197 216 193
194 214 185
194 212 202
186 204 203
183 202 211
174 194 208
176 195 217
175 194 219
169 189 213
155 176 205
162 182 208
158 179 217
147 169 203
143 165 205
140 162 207
137 159 202
132 155 204
141 163 205
135 157 203
121 146 199
133 155 203
128 152 200
114 139 195
112 137 194
109 135 193
98 125 189
98 126 181
102 129 188
98 126 188
89 118 185
76 109 180
84 114 182
83 114 180
68 102 173
63 98 166
75 108 174
71 105 175
73 106 172
80 112 176
79 110 170
70 103 168
65 100 167
67 101 164
63 98 167
61 98 167
67 102 164
63 98 161
65 101 169
63 99 168
61 97 167
65 100 169
63 99 163
62 98 166
61 97 164
61 97 165
63 99 159
63 99 166
63 98 164
61 97 163
61 97 166
61 97 164
60 96 160
61 97 169
62 98 166
62 98 165
62 98 168
61 98 166
61 98 166
61 97 163
61 97 159
61 98 170
62 99 170
61 98 165
61 97 161
61 97 160
62 98 165
61 97 167
61 97 160
62 98 163
61 98 167
62 98 164
61 97 159
61 97 156
60 96 153
61 97 156
60 96 149
61 97 159
63 99 171
62 99 170
62 98 162
61 97 161
62 98 166
61 97 153
61 97 158
62 98 167
61 97 162
62 97 157
62 97 160
61 97 154
61 98 163
63 99 167
62 98 162
61 97 161
62 97 156
62 98 167
62 98 161
62 98 158
61 97 160
62 98 165
61 97 161
61 97 157
62 97 162
61 96 154
61 96 151
63 98 165
62 98 160
61 96 143
61 96 147
62 98 159
63 98 160
61 96 150
60 96 149
61 97 155
61 97 156
62 98 157
61 96 155
63 98 158
61 97 154
63 99 165
62 97 153
62 97 157
62 98 159
62 97 156
62 98 151
61 97 155
61 97 151
62 98 159
60 95 143
62 98 155
61 97 154
62 98 159
61 96 152
61 97 150
62 98 158
61 97 158
61 97 156
61 97 155
61 97 155
61 97 148
60 95 141
62 98 160
62 98 161
62 97 157
61 97 154
61 97 153
62 97 153
61 96 147
61 96 155
61 97 151
61 97 152
61 96 153
61 97 150
62 98 158
61 97 148
61 97 148
61 97 154
61 97 148
60 95 142
60 96 148
61 96 147
61 97 152
62 97 147
61 97 152
61 97 152
61 97 154
61 96 143
61 97 145
61 96 142
62 96 153
59 94 142
60 95 135
61 96 143
60 95 138
60 95 141
61 95 140
58 92 118
59 93 141
60 94 134
59 93 134
58 92 132
60 94 139
56 88 116
64 92 116
79 94 87
111 119 65
117 123 32
111 116 0
120 126 11
109 110 0
109 113 0
106 109 0
117 120 0
107 111 0
109 113 0
106 105 0
89 87 11
91 89 0
97 96 0
100 102 0
95 94 14
93 89 11
97 97 0
99 97 0
90 88 0
99 95 0
103 103 8
101 99 0
103 100 0
93 88 0
77 74 0
95 92 0
91 88 0
90 87 0
90 87 0
98 93 0
106 103 8
86 84 0
102 97 11
110 105 11
98 95 0
95 92 0
96 93 0
111 107 0
104 101 0
94 90 0
106 100 0
115 109 0
116 112 0
112 106 0
100 96 0
104 101 11
105 101 0
108 103 16
112 108 19
104 99 0
105 101 0
110 105 0
95 91 0
117 110 0
108 103 11
115 110 0
106 101 0
105 100 11
113 108 11
119 114 16
112 108 19
112 108 19
121 115 19
115 110 11
119 114 0
111 107 0
119 113 19
110 106 11
125 122 16
118 115 11
116 111 16
113 109 16
120 118 16
125 123 11
124 120 0
110 108 19
130 129 16
126 124 16
123 124 16
125 122 19
131 132 16
137 137 11
134 134 25
134 136 11
131 134 0
140 140 16
136 141 11
138 142 0
136 141 11
141 149 11
138 145 0
145 148 11
150 159 11
144 150 16
154 160 11
152 161 11
154 163 0
157 165 0
156 166 0
159 170 0
154 164 0
160 171 0
160 170 0
160 174 0
158 171 0
154 165 0
162 176 0
161 176 0
161 174 0
156 169 0
164 179 0
157 171 0
167 182 0
164 179 0
160 172 0
159 174 0
164 179 0
162 177 0
163 180 0
161 178 0
161 176 0
164 182 0
162 178 0
161 178 0
163 179 0
165 183 0
160 177 0
161 179 0
154 168 0
160 176 0
167 186 0
163 181 0
164 181 0
166 185 0
167 184 0
170 188 0
161 176 0
202 220 204
206 224 223
209 226 230
211 227 233
209 227 230
206 224 224
205 223 217
207 225 220
206 223 218
209 226 226
200 219 207
201 220 207
203 221 206
199 218 201
203 222 218
200 219 203
200 219 198
198 218 196
200 219 194
196 215 193
196 215 191
198 218 203
194 215 177
192 213 179
192 212 173
195 215 179
189 209 163
192 213 171
193 213 171
195 215 173
191 211 169
187 207 165
185 207 147
191 211 161
185 207 144
188 209 153
186 206 142
188 209 151
188 209 147
184 206 137
187 208 144
186 207 151
187 208 151
187 208 153
185 206 142
188 209 155
184 206 142
188 208 151
187 208 155
184 206 144
184 206 144
186 208 151
188 209 157
188 209 151
190 210 155
185 206 140
182 204 144
185 206 144
190 211 153
188 208 153
190 210 159
196 216 184
192 212 169
191 211 167
187 208 171
194 214 177
194 214 175
197 216 191
194 214 181
193 211 190
184 203 200
182 201 199
171 191 199
176 195 211
167 187 203
162 182 211
155 175 206
154 174 201
155 175 216
148 169 207
146 168 203
139 162 201
146 167 204
140 163 207
133 156 199
135 158 200
135 158 204
122 146 199
126 149 200
120 145 200
110 136 191
120 145 197
112 137 194
108 134 192
107 133 190
104 131 187
96 124 186
92 120 186
93 121 182
81 112 179
79 111 182
74 107 177
73 106 168
63 98 165
65 100 168
72 106 172
73 106 166
66 101 167
67 101 167
74 107 177
67 101 165
69 102 166
73 105 166
65 100 163
68 102 167
67 101 167
61 97 165
68 102 164
62 98 167
61 97 170
62 97 160
61 97 162
63 98 156
61 97 164
61 97 161
60 96 160
61 97 165
62 98 171
61 97 162
60 96 158
62 98 167
61 97 159
61 98 167
61 97 158
62 98 168
61 97 156
61 97 162
61 97 163
61 97 160
61 98 167
61 97 162
61 97 159
61 97 158
61 97 159
62 98 167
62 98 164
61 97 158
62 98 165
61 97 162
62 98 161
61 97 159
62 98 165
61 97 155
62 98 165
62 97 158
62 98 162
62 98 159
62 98 162
62 98 170
62 98 163
61 97 158
62 98 167
62 98 159
61 96 154
62 98 158
62 98 162
61 97 155
61 97 154
61 97 155
62 99 167
62 98 161
60 96 153
62 98 160
61 97 156
61 97 157
62 98 161
61 97 155
63 99 163
61 98 160
62 97 156
62 98 161
61 97 153
61 97 152
61 97 156
61 97 150
61 97 157
62 98 157
62 98 157
61 97 155
62 97 156
62 98 157
62 98 164
61 97 155
61 97 151
61 97 156
62 98 159
62 98 160
61 96 150
61 96 147
61 97 155
61 97 155
62 98 160
62 98 160
62 98 162
61 96 150
62 98 159
60 96 149
61 97 153
62 97 154
61 97 153
61 97 154
61 96 153
61 97 150
63 99 165
61 97 151
62 98 159
62 97 150
61 97 154
61 96 152
62 97 152
61 97 149
62 97 152
61 97 152
62 98 159
62 97 150
61 96 152
61 97 156
61 96 147
61 96 152
60 96 141
61 97 149
61 96 147
62 98 152
61 97 149
61 97 150
60 95 148
61 96 147
61 97 149
61 96 148
60 95 141
60 95 143
61 97 144
60 95 141
62 97 147
60 94 139
60 96 148
61 95 139
61 95 140
60 94 143
60 95 134
59 93 133
59 94 133
59 93 134
60 94 140
59 93 129
59 93 141
60 94 138
59 93 141
59 92 133
60 93 132
66 93 115
98 113 86
116 128 57
103 108 18
112 118 0
112 117 0
112 114 0
105 108 0
115 119 0
101 105 0
102 102 11
102 104 0
102 100 0
107 108 0
90 90 0
88 89 0
107 107 0
97 97 11
101 100 0
103 104 0
96 94 0
102 100 0
94 93 0
90 88 0
93 93 8
97 95 0
95 95 0
101 98 0
100 98 0
104 102 11
103 102 8
102 98 0
88 83 0
98 93 8
93 88 8
90 88 0
93 90 0
102 95 0
97 94 0
107 100 16
101 96 11
96 93 0
105 100 14
104 100 11
108 104 11
107 103 0
101 98 0
93 89 11
114 110 11
112 108 0
104 100 11
100 97 11
103 101 11
111 106 0
112 107 0
110 105 0
99 92 16
109 106 16
107 104 0
111 107 11
111 106 11
105 101 16
123 120 16
118 113 11
116 112 11
108 104 11
114 110 19
117 112 11
117 115 11
121 118 11
122 119 11
113 111 16
124 120 0
122 120 0
123 118 11
123 119 28
120 117 22
122 121 11
123 118 16
128 128 16
116 115 11
123 121 11
124 124 19
126 125 19
128 129 19
134 137 11
129 129 16
134 136 16
130 130 0
129 132 0
147 151 11
136 141 11
139 146 0
139 143 11
142 150 0
150 156 11
144 152 0
150 162 0
145 155 11
153 162 0
151 161 0
148 155 0
156 166 0
150 161 0
154 164 0
154 165 0
161 172 0
162 175 0
151 164 0
156 170 0
163 175 0
162 176 0
161 177 0
161 175 0
159 170 0
158 171 0
159 173 0
162 177 0
159 172 0
160 173 0
164 181 0
163 179 0
159 174 0
162 177 0
163 181 0
163 182 0
164 180 0
161 177 0
167 182 0
165 183 0
160 176 0
164 184 0
161 177 0
164 182 0
163 180 0
162 179 0
157 175 0
160 178 0
165 184 0
169 185 0
207 225 227
208 225 227
204 221 207
206 224 221
206 223 227
207 225 228
206 225 224
208 226 228
204 222 215
204 222 212
204 222 212
202 221 206
204 222 211
194 214 189
198 217 188
196 215 181
192 212 167
195 215 188
199 218 194
194 214 186
192 212 167
192 212 175
188 209 153
190 211 163
190 210 159
190 210 165
188 209 149
190 210 161
183 204 144
187 207 161
188 210 163
183 205 140
185 206 135
183 205 147
184 205 133
184 206 147
181 203 130
183 205 125
182 204 140
182 203 120
180 202 122
185 206 140
180 202 114
181 203 133
187 208 149
183 205 117
182 204 114
182 205 130
179 201 130
181 204 122
180 202 117
178 200 117
181 204 125
182 204 111
181 203 125
184 205 133
181 202 127
183 204 127
187 208 155
182 204 133
185 206 149
187 208 137
184 206 137
191 212 159
186 207 140
187 208 155
189 209 151
191 211 161
193 212 178
190 210 177
173 194 155
180 201 189
171 191 195
164 184 210
164 184 212
160 181 203
149 170 195
150 171 203
152 173 203
158 179 213
148 170 209
150 172 207
141 163 203
140 162 198
130 154 195
131 155 199
124 148 194
110 136 190
116 140 191
118 143 194
100 128 188
127 151 201
103 130 188
113 138 195
103 130 189
89 118 186
105 131 186
92 121 188
95 123 184
77 109 179
82 113 183
78 110 174
73 106 172
74 107 171
78 110 174
67 102 171
74 107 168
68 102 163
73 105 171
69 103 165
65 99 160
69 103 168
76 108 168
66 100 162
74 107 169
66 100 161
63 99 166
61 97 161
62 99 173
61 96 163
64 100 167
61 97 164
61 96 158
61 98 165
61 97 163
64 99 161
66 101 164
64 99 159
61 98 167
61 98 164
61 97 169
61 97 161
61 97 160
60 97 160
61 98 166
61 97 159
61 97 161
60 96 157
62 98 166
62 99 170
62 98 166
61 98 158
61 97 159
62 98 169
61 97 159
62 98 164
61 97 161
60 96 156
61 97 162
62 98 162
62 98 163
62 98 165
61 97 165
62 98 165
62 98 160
62 98 168
61 97 161
60 96 158
62 98 165
62 98 166
62 98 162
62 98 164
62 98 156
61 97 157
61 97 158
62 98 165
60 96 155
61 97 156
62 98 163
62 98 162
62 98 163
60 96 152
61 96 155
61 97 149
62 98 159
62 98 159
62 98 161
61 97 157
62 98 161
61 97 161
61 97 147
62 98 161
60 96 153
61 97 154
62 97 155
61 97 157
62 98 166
61 97 156
62 98 162
63 99 166
62 98 161
62 97 161
61 97 159
61 97 155
61 96 152
62 98 161
61 97 156
62 98 158
62 97 158
61 97 149
62 98 153
62 98 160
61 97 158
61 96 152
61 97 157
61 97 153
61 96 145
62 98 160
62 98 155
62 97 159
61 96 151
60 96 151
63 99 161
61 97 150
62 98 156
62 97 154
62 98 160
61 96 153
62 97 153
62 98 157
62 97 149
61 96 150
60 95 144
62 97 149
61 97 150
61 97 154
61 96 148
60 94 137
61 97 150
62 97 155
60 95 144
61 96 147
61 96 148
62 97 158
60 95 137
61 97 151
61 96 139
61 96 150
61 96 143
60 96 139
60 94 139
61 96 145
59 94 133
62 97 149
61 97 148
60 95 143
60 95 140
61 96 146
60 95 134
61 96 141
58 92 130
61 95 135
60 94 140
60 95 138
60 94 131
61 95 142
59 93 136
59 93 134
58 91 132
61 93 136
78 101 103
90 102 82
110 119 36
108 112 0
118 124 0
103 108 0
107 111 0
107 113 0
107 111 0
123 127 0
106 109 0
111 113 0
108 113 0
99 97 0
121 126 0
98 101 0
99 100 0
95 95 0
100 97 0
94 91 0
100 96 0
87 87 0
95 92 0
88 90 0
96 93 0
89 87 0
105 103 0
96 94 0
93 91 8
93 89 8
88 85 8
98 94 0
95 93 0
105 100 0
91 88 0
96 94 11
98 94 0
104 100 8
95 92 0
99 94 8
99 93 0
95 91 0
103 97 0
109 104 0
109 105 11
95 90 16
102 97 0
108 103 11
109 105 0
105 99 0
109 105 0
106 100 11
113 110 11
100 97 11
105 101 19
108 103 0
100 94 0
114 110 0
104 99 11
114 110 16
103 100 0
112 108 16
121 118 11
117 113 16
116 110 0
121 117 0
114 110 19
112 107 19
111 108 16
110 109 11
114 112 11
107 102 11
117 115 11
107 104 16
122 121 11
119 117 0
130 130 16
117 115 0
126 123 22
128 128 11
129 130 0
127 125 0
132 133 0
135 136 11
130 132 0
134 136 19
127 128 11
146 153 0
130 132 11
134 140 0
144 148 11
140 145 11
152 157 11
145 150 16
141 148 0
142 150 0
145 152 11
148 157 0
150 159 0
151 158 0
148 155 0
156 168 0
152 160 0
157 170 0
157 168 0
157 166 0
163 175 0
155 167 0
157 170 0
154 167 0
155 168 0
162 177 0
156 168 0
164 179 0
161 176 0
154 167 0
161 175 0
161 175 0
162 177 0
164 181 0
163 179 0
161 176 0
161 176 0
159 175 0
165 179 0
163 179 0
167 185 0
163 177 0
166 183 0
163 181 0
166 185 0
164 182 0
163 181 0
166 185 0
161 179 0
164 183 0
159 177 0
164 182 0
170 189 0
164 183 0
208 226 230
203 222 214
203 221 214
206 224 221
206 224 228
206 223 221
201 220 206
202 221 212
198 217 198
202 219 199
198 217 199
198 217 201
201 220 209
197 216 189
196 215 191
194 214 181
197 217 199
191 211 181
194 214 181
191 212 161
185 207 153
190 211 167
186 207 153
189 210 153
185 205 137
184 206 147
184 206 133
187 208 142
185 207 135
184 205 125
188 208 144
181 203 111
183 205 117
180 202 111
178 201 105
183 206 140
180 202 111
182 203 127
180 201 122
183 205 114
179 202 120
179 202 111
180 203 111
176 199 99
180 202 105
179 201 95
180 202 108
178 201 88
179 200 108
179 201 114
176 197 84
178 201 108
182 204 120
178 201 114
182 204 125
179 201 102
183 205 130
184 206 127
183 204 122
177 200 102
184 205 137
181 203 120
187 208 144
184 206 127
183 205 125
188 209 165
187 208 157
182 204 135
184 206 149
181 201 170
176 197 156
162 182 168
164 186 179
164 184 207
150 172 199
148 170 196
150 171 201
143 165 192
147 168 202
150 171 200
142 163 199
139 161 202
141 163 202
141 163 200
135 158 207
127 150 197
123 147 194
121 146 194
105 132 188
125 149 198
102 129 188
107 132 188
109 135 188
117 142 191
107 133 188
106 133 193
101 128 188
100 127 188
88 118 180
95 124 185
82 113 181
78 109 175
78 110 179
77 109 173
64 100 175
64 100 171
76 108 175
67 101 168
72 106 169
67 102 171
66 101 168
70 104 173
76 108 172
70 103 164
65 101 166
64 100 168
70 103 170
63 99 165
63 98 163
62 98 164
61 96 163
63 98 165
63 98 163
64 100 168
62 98 164
63 98 156
62 98 164
61 97 156
60 96 160
61 97 159
60 96 157
61 96 161
61 97 160
61 97 159
61 97 159
62 99 168
61 97 158
61 98 167
61 97 160
61 97 161
61 97 163
62 98 163
61 97 154
61 97 163
61 97 158
61 97 167
60 96 156
61 96 154
61 97 156
61 97 160
61 97 159
61 97 159
62 98 158
61 97 160
62 98 165
62 98 162
62 98 162
62 98 158
61 97 159
61 97 160
61 96 153
61 97 156
61 97 159
61 98 165
62 98 158
62 98 160
62 98 160
62 98 159
62 98 159
62 98 157
61 97 157
61 97 159
62 97 151
61 98 159
62 98 162
61 97 158
62 97 159
62 98 158
61 97 159
61 96 153
62 98 163
62 98 160
62 98 157
61 97 158
61 97 159
61 96 154
62 97 155
60 95 145
61 97 154
62 98 161
61 96 148
61 97 154
62 98 159
61 97 160
61 97 156
62 98 159
63 99 159
62 98 158
62 98 157
63 99 161
61 97 152
61 97 156
62 97 155
62 98 162
61 97 150
62 98 158
61 98 159
63 99 163
61 97 155
62 97 151
60 96 152
61 97 155
61 97 154
62 97 154
61 97 155
60 96 149
63 99 156
61 97 152
61 97 147
61 96 144
61 97 147
62 98 157
61 96 150
62 98 154
61 96 150
62 97 153
60 96 144
62 97 151
61 96 144
60 95 142
62 97 143
61 96 147
59 94 131
61 97 152
60 95 139
61 96 141
61 96 149
60 95 140
60 95 143
62 97 142
60 95 139
60 94 140
61 96 145
61 96 143
60 95 145
60 94 137
62 97 153
59 94 140
61 96 148
61 96 140
60 94 140
59 93 140
60 95 142
60 94 139
61 96 142
59 93 128
59 92 126
58 91 124
60 93 130
63 92 115
90 109 99
95 106 57
115 123 18
122 128 0
110 115 0
114 120 0
114 115 0
113 114 0
103 105 0
112 113 0
103 105 11
101 102 0
119 122 0
102 106 0
101 102 0
113 112 11
102 102 11
106 106 0
96 97 11
112 114 0
101 103 0
92 89 0
97 95 0
95 96 11
101 101 11
97 96 0
87 86 0
94 94 0
98 96 11
90 87 0
103 100 0
90 88 0
96 94 0
105 101 0
108 106 0
100 96 0
110 108 0
101 97 0
102 99 0
104 101 0
105 102 0
108 104 0
101 95 0
100 94 0
104 99 0
92 88 0
92 86 0
106 102 11
101 98 0
103 101 0
106 101 11
110 106 0
99 94 11
110 103 0
101 97 0
113 109 0
102 98 0
113 108 16
111 107 11
101 96 0
117 110 11
107 103 0
113 110 0
124 119 11
122 117 16
112 108 0
112 109 11
119 116 11
118 115 0
124 122 0
125 122 16
113 112 11
121 119 11
116 114 11
128 127 11
127 123 16
123 121 11
130 128 19
131 130 0
137 139 16
123 123 16
135 136 19
136 137 11
125 127 16
139 140 11
139 143 11
132 136 0
141 147 11
139 145 11
138 145 11
131 137 0
142 149 0
148 153 0
146 152 0
149 158 0
153 160 0
145 154 0
153 160 0
157 169 0
156 167 0
150 160 0
144 151 0
144 152 0
157 169 0
155 166 0
157 167 0
158 170 0
158 168 0
162 175 0
154 166 0
161 173 0
160 173 0
159 173 0
156 169 0
158 172 0
152 164 0
161 174 0
159 172 0
162 175 0
162 176 0
159 174 0
161 176 0
160 175 0
158 173 0
158 172 0
163 178 0
158 172 0
162 176 0
163 181 0
164 181 0
160 175 0
161 177 0
162 179 0
161 179 0
167 186 0
166 183 0
161 178 0
166 184 0
166 188 0
162 179 0
205 223 220
203 221 218
206 224 217
207 225 226
204 223 218
206 224 221
205 223 218
203 221 211
196 216 189
198 217 198
198 217 199
195 215 181
193 213 171
193 213 173
190 211 161
194 214 177
187 208 151
191 212 163
188 209 169
190 210 159
188 210 161
189 210 157
184 205 135
183 203 144
189 210 163
182 204 133
186 207 130
183 205 133
180 202 117
181 203 122
180 202 105
180 203 108
180 203 105
180 202 95
176 199 95
181 203 127
183 205 108
178 200 111
180 203 122
178 201 102
178 201 102
184 206 125
174 197 84
177 200 95
176 197 99
173 196 76
176 198 102
176 199 76
175 197 92
174 197 102
178 201 102
177 199 95
176 199 76
177 200 95
176 199 80
180 203 108
181 204 125
176 199 84
177 198 105
178 201 105
179 201 117
177 199 114
181 202 120
179 201 102
181 203 125
180 202 130
183 205 130
185 206 133
183 204 149
177 199 141
168 189 158
159 181 161
146 170 178
140 163 187
146 168 196
142 164 197
146 168 188
137 160 189
155 176 202
141 164 202
148 170 207
125 149 186
124 148 186
120 145 193
121 146 183
119 144 183
128 152 195
122 146 199
121 145 198
103 130 192
104 131 182
107 133 191
116 141 189
106 132 187
105 132 185
110 136 189
94 123 188
86 116 184
104 130 192
95 124 185
82 113 181
92 120 181
72 105 174
65 100 171
67 101 169
70 104 175
79 110 176
65 101 170
64 100 168
75 108 168
69 103 168
67 101 169
68 101 162
76 107 166
67 101 167
70 104 171
60 97 163
70 103 164
69 103 163
61 97 168
62 98 166
64 99 165
63 99 163
61 97 162
64 100 164
62 98 166
61 97 162
64 99 161
60 96 159
62 98 165
61 97 153
61 97 159
61 96 155
61 97 162
61 97 162
62 98 165
60 96 158
62 98 162
62 99 170
61 97 160
61 97 161
62 98 158
61 97 158
60 96 156
62 98 165
62 98 167
61 97 160
61 98 163
61 97 153
61 97 160
61 98 169
61 97 160
62 97 155
62 98 160
62 98 167
61 97 160
62 98 158
62 98 160
61 97 159
62 98 158
61 97 159
62 98 159
62 98 157
62 97 154
62 98 161
62 98 161
62 98 161
63 98 165
62 98 159
62 98 159
62 98 162
62 98 166
62 98 166
61 96 147
61 96 155
61 97 157
61 97 157
61 97 154
61 96 152
61 98 159
62 97 152
61 97 154
62 98 158
62 98 158
62 98 153
62 97 155
62 98 155
62 97 149
61 96 151
62 98 165
61 97 152
62 98 159
62 98 158
62 98 160
61 96 152
62 98 154
62 98 160
62 98 157
61 97 153
62 99 166
62 98 157
62 97 152
61 97 149
62 98 156
62 98 153
62 97 155
62 98 157
61 96 152
61 97 150
62 98 158
62 98 159
61 97 149
62 97 155
60 96 147
61 97 147
61 96 148
62 97 149
61 97 150
61 97 145
61 97 153
61 97 160
61 97 150
62 98 154
61 97 151
61 97 152
62 98 154
62 98 163
62 97 153
61 97 153
62 97 151
61 96 139
61 96 148
60 95 143
61 96 150
62 97 152
60 95 142
60 94 137
61 96 147
61 96 143
61 96 154
60 95 141
60 94 139
60 95 136
61 96 149
60 95 140
59 94 125
59 93 137
60 94 135
59 93 134
61 96 149
61 96 146
61 95 139
59 93 131
59 93 134
58 92 133
59 92 134
58 92 130
58 91 121
58 92 131
71 97 120
93 112 99
108 115 60
118 124 18
109 114 0
117 121 0
123 131 0
112 116 11
115 119 0
115 120 0
114 118 0
107 110 0
109 111 0
125 132 0
95 97 0
96 96 0
102 106 0
100 101 0
104 105 0
104 104 0
98 101 0
102 101 0
99 98 0
103 104 11
106 106 0
92 89 0
92 89 0
95 93 0
98 92 0
95 96 0
95 91 0
104 102 0
90 87 8
101 97 0
103 101 0
104 102 8
95 93 0
100 95 0
104 101 0
110 107 0
101 98 0
104 100 0
105 103 0
103 99 0
109 106 0
105 102 0
101 96 0
100 95 0
107 104 0
95 93 11
103 100 0
107 101 0
111 107 0
111 108 11
107 102 0
115 111 11
106 106 11
109 103 0
103 98 0
116 113 0
100 96 0
106 101 0
109 106 0
112 107 11
116 115 11
117 113 16
119 118 0
114 111 11
114 113 0
124 121 11
112 111 16
119 116 0
118 116 0
129 127 11
126 125 0
131 126 11
133 133 11
137 135 16
128 128 0
126 126 16
126 127 0
123 121 0
126 129 0
132 136 11
131 132 0
139 143 0
141 146 0
142 147 11
139 143 16
145 148 0
136 140 11
143 147 0
148 154 11
153 161 0
154 163 0
144 152 0
152 162 0
155 163 0
157 167 0
157 170 0
155 163 0
158 168 0
154 165 0
151 162 0
153 164 0
155 166 0
160 172 0
155 168 0
157 170 0
161 173 0
158 172 0
159 174 0
154 165 0
159 171 0
160 174 0
161 174 0
159 172 0
161 178 0
159 174 0
160 175 0
161 175 0
162 178 0
161 177 0
165 180 0
161 175 0
163 180 0
161 175 0
162 179 0
163 178 0
160 178 0
164 179 0
162 179 0
166 182 0
163 179 0
166 185 0
167 185 0
157 176 0
167 185 0
165 182 0
163 180 0
162 180 0
204 222 204
203 222 211
202 220 206
202 221 207
199 218 201
200 219 204
198 217 189
193 212 177
193 214 184
195 215 186
195 215 179
195 214 177
188 209 157
187 208 153
188 209 153
181 203 142
190 210 167
187 208 147
185 206 122
187 208 149
184 205 140
185 207 133
179 201 122
182 204 127
182 204 127
179 201 111
180 202 114
176 199 99
178 201 111
178 200 114
180 202 105
176 199 76
176 198 95
178 201 84
180 203 108
175 197 84
178 201 102
178 201 108
178 201 84
175 198 88
178 200 92
175 199 88
178 201 114
172 196 67
174 197 76
172 195 67
175 198 102
176 199 84
177 200 88
175 199 80
175 198 88
174 198 67
174 198 67
174 197 72
179 202 102
180 203 111
178 201 99
173 195 80
174 197 88
174 197 99
175 198 92
177 200 102
179 201 108
179 201 117
179 201 105
181 203 122
177 199 102
183 203 142
176 198 140
176 197 155
170 193 157
156 178 155
144 168 169
132 156 173
129 152 186
136 159 184
137 160 188
141 163 195
133 157 183
138 160 194
131 155 190
127 151 192
138 160 194
126 150 194
127 151 185
126 151 190
111 137 183
104 131 188
98 126 182
114 140 191
101 128 188
104 131 186
103 130 191
101 128 188
102 129 187
95 123 186
100 127 188
99 127 184
93 121 184
89 119 186
79 111 179
71 105 174
82 113 180
76 108 177
74 107 174
61 98 173
77 109 177
68 102 175
65 101 173
73 106 173
66 100 166
69 102 170
66 101 167
65 99 166
70 104 172
68 102 168
72 105 167
62 97 169
66 100 165
61 97 155
61 96 156
66 101 163
60 96 161
62 98 165
60 96 163
61 97 158
61 97 160
61 97 156
63 99 159
61 96 160
61 98 170
62 98 167
61 97 160
60 96 156
60 96 160
60 96 157
61 97 162
61 97 160
61 96 152
61 97 159
61 96 158
61 96 160
61 98 163
60 97 159
61 97 162
61 97 159
61 96 158
61 97 157
61 97 159
62 98 161
62 98 161
63 99 163
62 98 163
61 97 163
61 97 158
62 97 158
62 98 158
62 97 160
62 98 162
61 97 161
62 98 161
61 97 155
61 97 156
61 97 158
62 98 164
61 96 154
61 97 159
61 96 153
61 97 153
62 98 165
62 98 161
62 98 163
61 97 158
62 98 158
61 97 157
60 96 151
63 98 157
62 98 160
62 98 159
61 97 155
62 97 157
61 97 157
62 97 161
61 97 159
62 98 163
61 97 153
62 97 160
61 97 162
62 98 157
61 97 158
62 98 158
62 98 161
61 97 153
62 98 157
62 97 153
61 97 154
62 97 161
62 97 151
61 97 152
61 97 149
61 97 161
61 96 148
61 97 152
62 97 148
61 97 156
62 98 161
61 97 150
61 97 156
61 96 149
60 96 152
62 97 154
61 97 152
61 96 144
61 97 156
61 97 156
61 97 153
61 97 155
61 96 148
62 97 154
62 97 149
61 96 137
62 97 152
62 97 153
61 97 152
61 97 148
61 97 154
60 96 150
61 97 149
61 96 151
61 97 148
61 96 147
61 96 145
61 96 147
60 96 140
61 97 153
60 95 138
61 96 147
61 96 142
62 97 155
62 97 154
62 97 149
60 94 134
60 95 133
61 96 143
60 95 141
60 95 144
61 95 137
61 96 140
60 95 137
60 95 140
60 94 133
61 96 147
60 94 131
60 95 142
59 94 128
59 93 139
60 94 128
59 93 132
61 94 128
80 100 97
99 113 77
102 111 40
114 120 18
116 120 0
107 115 0
116 117 0
108 115 0
119 123 0
111 116 0
104 109 0
117 120 0
103 106 0
111 116 0
101 102 0
110 112 0
105 105 0
113 114 0
93 92 0
101 97 0
106 107 0
95 95 0
105 105 0
103 104 0
110 111 0
107 108 0
107 107 0
104 100 0
101 99 0
99 96 0
102 99 0
86 84 0
94 92 0
104 101 0
101 96 0
94 91 0
90 86 0
100 96 11
96 93 0
98 93 0
98 94 0
106 103 11
94 90 0
105 102 0
106 103 0
101 100 0
102 101 0
102 97 0
104 97 0
99 95 0
105 102 0
100 96 0
108 105 0
115 111 0
111 109 0
114 111 0
116 113 11
115 111 0
110 103 11
118 114 11
114 110 0
120 119 0
116 114 0
117 115 11
111 109 0
114 114 0
120 118 0
116 114 0
113 113 16
117 115 0
114 111 16
113 114 0
110 110 0
129 129 0
127 128 11
122 123 0
127 129 0
126 128 0
126 126 16
132 132 0
136 141 0
133 136 11
136 139 0
131 134 11
132 135 11
140 145 16
136 139 11
147 149 11
135 139 0
143 146 11
143 149 11
147 152 0
146 154 0
145 151 0
155 165 0
151 160 0
152 161 0
153 165 0
152 162 0
150 162 0
155 164 0
150 158 0
150 158 0
150 159 0
153 164 0
152 161 0
158 170 0
159 171 0
160 174 0
156 168 0
157 170 0
160 173 0
152 165 0
161 174 0
160 174 0
156 170 0
158 173 0
163 180 0
164 179 0
166 180 0
162 176 0
163 179 0
160 174 0
162 180 0
164 179 0
162 181 0
166 180 0
162 177 0
160 178 0
160 176 0
163 180 0
165 182 0
164 181 0
166 183 0
169 186 0
168 184 0
163 179 0
168 187 0
166 184 0
169 187 0
164 182 0
199 218 201
196 215 194
202 220 204
195 214 184
197 217 188
195 215 203
192 212 181
195 215 184
193 213 175
192 211 169
189 209 161
190 211 163
189 209 163
190 210 163
188 209 149
181 203 127
180 202 117
186 207 147
186 208 153
182 205 122
177 199 125
184 205 127
181 203 108
180 202 114
181 203 111
177 199 92
178 200 92
173 197 102
172 195 76
172 195 67
180 202 111
178 201 88
180 202 99
174 198 88
174 197 67
178 201 92
174 196 95
172 196 84
175 198 80
176 200 102
176 200 92
175 198 72
173 197 72
173 196 84
173 197 80
176 199 95
170 194 62
174 198 80
170 195 80
172 195 72
174 197 62
177 200 67
172 196 76
176 199 102
175 198 76
176 199 99
175 198 102
169 192 88
176 198 88
176 199 95
173 196 92
178 201 99
172 194 72
175 198 80
179 201 102
179 202 95
179 202 105
174 197 103
175 198 113
168 190 136
156 178 141
154 177 147
132 157 163
114 140 182
123 148 171
137 161 193
123 148 191
122 147 184
131 155 192
131 154 190
126 150 190
113 139 183
111 137 181
108 134 175
125 149 190
120 146 188
109 136 186
115 140 184
115 141 186
114 140 187
111 137 185
104 130 184
109 135 185
103 130 190
93 122 186
88 118 181
94 123 188
104 131 189
91 121 186
96 124 183
91 120 184
79 111 182
89 118 181
84 115 181
89 118 182
81 112 179
73 106 172
77 109 175
67 102 168
69 103 167
65 100 167
70 104 161
70 103 170
71 103 162
71 104 166
64 99 163
60 96 160
61 97 165
65 100 168
65 100 164
64 99 159
60 95 162
61 97 160
66 101 169
62 98 162
61 97 162
63 98 156
61 97 166
61 97 164
61 96 159
63 98 161
59 95 154
62 98 165
61 97 165
61 97 165
61 97 159
62 98 156
59 95 153
62 98 162
61 98 164
61 97 162
62 98 167
62 98 161
60 96 152
60 96 150
62 98 158
61 98 165
62 98 163
62 98 164
61 97 163
61 97 156
61 97 160
62 98 166
62 98 161
61 97 162
61 97 159
62 98 159
63 99 166
61 97 158
62 97 157
61 97 159
63 99 163
61 97 155
62 98 159
63 98 159
61 96 158
60 96 153
62 98 155
61 97 156
62 97 159
62 97 159
61 97 157
62 98 162
61 97 152
62 97 155
62 98 160
61 97 150
61 97 156
61 97 158
61 97 156
61 98 160
62 98 156
62 98 153
61 97 151
61 97 155
62 98 157
62 98 156
62 98 157
62 98 162
62 98 158
62 98 157
61 97 153
62 97 150
62 97 157
62 97 152
61 96 155
62 98 162
61 97 151
61 97 152
62 97 157
61 96 145
61 97 145
61 96 156
62 97 155
61 97 149
61 97 150
62 98 162
61 97 153
62 98 159
62 98 157
62 98 161
62 98 157
61 97 154
61 97 150
61 97 143
60 95 135
61 97 147
62 97 152
61 97 152
61 97 144
61 97 151
62 98 153
61 96 148
62 97 154
62 98 154
60 96 143
61 96 145
61 96 153
61 97 150
61 95 148
61 96 145
62 97 153
62 97 154
62 98 153
61 96 149
62 97 154
61 96 148
61 97 147
61 97 153
62 97 149
61 96 143
60 95 134
60 96 139
60 94 135
59 93 133
61 96 142
59 93 130
60 95 133
62 97 153
60 95 140
59 94 135
59 93 126
59 93 130
60 94 135
59 93 127
57 91 117
57 89 120
59 92 127
63 95 128
77 99 101
97 109 75
117 127 47
118 125 0
116 123 0
113 119 0
106 109 0
111 113 0
107 112 0
100 104 0
113 117 0
114 118 0
115 121 0
103 109 0
104 110 0
106 109 0
113 117 0
101 104 0
112 117 0
99 105 0
102 103 0
99 100 0
109 111 0
100 101 0
99 101 0
102 102 11
95 92 0
107 108 0
93 93 0
107 104 0
99 96 0
101 99 0
92 90 0
104 102 0
109 105 0
97 98 0
98 98 0
101 97 0
97 95 0
105 103 0
100 97 0
102 101 0
91 90 0
103 103 0
106 102 0
102 100 0
105 100 0
103 98 0
110 105 0
112 109 11
109 108 0
107 102 14
118 115 0
103 100 11
119 118 0
109 104 0
95 89 0
104 104 0
111 108 11
108 105 0
109 108 11
101 96 0
118 115 0
117 113 0
114 110 0
110 107 0
118 116 0
117 116 11
114 111 0
113 111 0
111 108 0
125 125 11
114 114 0
122 121 0
124 126 0
122 124 0
129 130 0
128 131 0
129 130 11
134 136 11
138 140 19
135 136 0
137 138 0
131 133 11
142 148 11
142 146 11
142 146 11
144 152 0
147 153 0
144 154 0
147 155 0
149 155 0
148 156 0
152 160 0
151 158 0
150 155 0
148 156 0
153 163 0
148 157 0
153 162 0
150 159 0
161 172 0
153 163 0
154 166 0
153 165 0
162 174 0
156 165 0
160 174 0
157 171 0
156 168 0
156 168 0
161 175 0
155 169 0
159 175 0
159 173 0
160 175 0
156 169 0
163 180 0
163 179 0
159 173 0
159 174 0
163 177 0
163 177 0
161 177 0
158 174 0
159 176 0
161 178 0
161 177 0
161 175 0
158 175 0
163 181 0
166 185 0
164 182 0
166 184 0
166 184 0
165 182 0
164 181 0
164 182 0
164 181 0
166 183 0
163 181 0
201 220 206
200 219 194
202 220 201
194 213 177
191 211 165
194 214 179
195 214 184
191 211 165
192 212 171
192 212 163
185 206 153
183 205 135
180 203 120
185 206 135
190 211 163
180 202 117
181 203 122
182 204 120
174 198 108
182 204 125
185 207 133
176 199 95
173 197 95
177 199 80
178 201 105
175 198 80
175 198 80
177 200 105
173 197 76
174 198 92
173 197 57
172 196 72
173 197 76
175 199 76
174 198 62
176 200 92
176 199 76
173 197 80
174 198 88
171 195 84
174 198 80
173 197 57
174 198 88
177 200 76
174 198 72
174 198 84
174 197 67
172 196 88
172 196 67
172 196 67
172 195 72
173 196 57
172 196 80
171 194 51
175 199 88
174 197 80
172 195 76
177 200 80
172 194 72
173 196 76
170 194 67
174 198 80
170 194 62
172 196 88
179 200 92
173 197 84
179 202 84
171 194 95
169 193 99
160 183 117
161 184 129
138 162 157
129 154 153
113 139 181
115 141 183
125 150 178
124 148 176
122 147 177
135 158 184
119 144 186
122 146 185
119 144 181
101 129 179
116 141 186
113 139 183
114 139 188
97 126 175
106 133 185
116 142 187
108 134 181
103 130 185
96 125 188
114 139 185
93 122 180
94 122 180
95 124 184
95 124 184
90 120 175
87 117 183
80 111 175
93 121 181
74 107 181
82 113 183
82 113 178
86 116 181
87 117 182
79 111 176
71 105 174
77 109 170
65 101 174
65 101 172
75 107 168
64 99 166
64 98 159
61 97 163
66 101 166
66 101 169
74 106 165
70 103 160
64 99 158
61 97 162
64 98 153
66 101 164
62 97 158
61 97 159
63 98 161
62 98 162
61 97 170
61 97 162
61 97 161
62 97 164
62 97 162
60 96 157
62 98 163
62 98 162
60 96 150
62 98 163
60 96 155
61 97 155
61 97 160
61 97 159
61 97 162
61 98 161
61 97 159
62 98 168
60 96 159
60 96 155
61 97 156
62 99 169
61 97 154
61 96 157
62 98 165
62 98 161
62 98 160
62 98 161
61 97 160
62 98 164
62 98 157
62 98 165
61 97 159
61 97 161
61 97 154
62 98 159
61 97 157
61 96 155
62 98 160
60 96 149
62 97 160
61 97 152
61 97 153
62 98 163
62 98 156
61 97 155
60 96 144
62 97 156
62 97 155
62 98 160
61 97 157
62 97 158
61 97 154
61 97 155
62 98 160
61 97 155
61 97 152
61 97 161
62 98 159
61 97 153
60 95 150
61 97 155
62 98 160
61 96 144
62 97 154
62 97 154
61 97 149
63 98 162
61 96 150
62 97 156
62 98 155
61 97 151
62 97 152
60 96 149
61 97 156
62 98 160
61 97 155
62 98 155
62 97 149
62 97 155
62 97 156
62 98 154
61 96 141
62 97 152
60 95 148
60 95 142
62 97 149
61 96 152
61 97 149
61 96 145
62 97 152
62 97 153
61 97 151
61 96 150
62 97 152
61 97 152
60 95 134
60 96 148
60 95 148
60 95 142
61 96 147
61 96 149
62 97 156
63 98 154
60 96 145
59 94 143
61 96 150
60 95 135
61 96 143
60 94 137
61 96 145
60 95 137
60 94 134
61 96 150
59 94 133
59 94 139
61 96 147
62 96 151
60 95 141
61 96 146
60 95 143
59 94 136
59 93 129
61 96 148
58 92 135
60 94 134
61 95 141
59 94 131
59 93 124
59 93 127
56 89 118
74 97 101
78 98 98
102 113 68
111 120 40
111 118 0
104 110 0
114 118 0
119 125 0
110 115 0
113 119 0
107 115 0
107 115 0
104 109 0
114 118 0
106 111 0
108 108 0
114 117 0
104 109 0
109 112 0
106 108 0
103 105 0
98 100 0
108 106 0
104 106 0
102 103 0
108 110 11
103 107 0
110 113 0
99 98 0
106 107 0
111 112 0
109 108 0
110 111 0
95 94 0
105 103 0
102 100 0
103 100 0
112 110 0
109 106 0
106 103 0
103 103 0
93 91 0
104 104 0
97 94 0
98 95 0
117 116 0
111 109 0
102 102 0
110 108 0
110 108 0
108 104 0
112 110 11
110 107 0
109 102 0
105 102 0
107 103 0
113 107 0
105 101 0
107 106 0
118 119 0
117 115 0
109 105 0
116 115 0
119 118 0
109 105 0
118 117 11
118 115 0
115 112 0
123 121 0
117 116 11
111 109 0
122 122 11
123 122 11
135 133 11
119 119 0
133 135 0
121 122 0
130 129 0
140 146 0
135 138 0
138 140 16
131 133 0
136 141 0
136 140 0
138 138 0
126 131 0
144 149 11
136 140 0
139 144 0
151 159 0
143 151 0
146 152 0
145 154 0
149 160 0
153 161 0
146 154 0
145 153 0
151 161 0
151 162 0
153 164 0
154 164 0
160 169 0
156 166 0
157 167 0
157 168 0
151 159 0
157 171 0
155 168 0
163 175 0
159 171 0
157 168 0
159 172 0
158 169 0
157 169 0
162 175 0
164 176 0
159 173 0
159 174 0
165 180 0
164 181 0
165 180 0
162 179 0
160 175 0
159 174 0
166 181 0
158 175 0
163 179 0
166 184 0
163 179 0
167 184 0
163 180 0
170 186 0
166 184 0
162 178 0
166 185 0
166 184 0
170 187 0
164 180 0
164 183 0
162 179 0
166 184 0
165 184 0
200 219 198
193 212 177
198 217 191
194 214 177
188 209 153
192 213 167
193 213 175
188 209 155
184 206 127
183 205 137
189 210 159
184 206 142
181 203 127
186 207 127
179 200 114
183 205 144
182 204 114
182 204 117
179 201 105
175 199 95
179 202 102
179 202 105
174 198 88
174 198 80
177 200 99
175 198 88
177 200 80
176 198 88
176 200 84
174 197 80
173 197 72
174 198 62
176 200 88
173 196 51
171 195 84
173 197 51
174 198 105
174 198 76
174 197 62
174 198 67
175 198 80
171 194 72
177 200 99
172 196 88
171 194 57
172 196 62
172 195 62
175 198 72
174 198 62
174 197 76
173 197 76
173 197 84
172 196 62
172 197 67
169 193 62
176 199 88
172 195 76
175 199 76
173 196 57
170 193 51
171 193 51
171 194 57
174 197 62
170 194 57
175 197 84
169 194 57
171 195 62
176 199 97
168 192 94
160 183 97
157 180 120
142 166 151
118 144 159
104 131 170
116 142 181
114 140 177
113 139 171
120 146 177
111 138 172
120 145 183
120 145 172
105 133 175
102 129 168
112 138 173
135 158 183
104 131 180
103 131 177
108 134 179
103 130 184
91 120 177
106 132 186
101 128 175
105 132 184
92 121 182
87 118 178
102 129 184
93 122 180
97 125 188
85 115 178
93 122 181
85 116 178
81 113 177
75 108 175
84 115 181
85 115 179
77 109 175
74 107 179
71 104 168
67 101 168
68 102 170
71 105 173
69 102 170
68 103 173
64 99 161
71 105 169
70 103 168
66 100 162
61 97 161
67 101 163
71 104 165
61 97 166
68 101 161
65 99 157
67 102 166
63 98 159
61 96 150
64 100 163
61 97 159
64 100 166
61 97 160
64 99 162
61 97 163
61 97 159
61 97 160
61 97 158
61 97 166
61 97 164
61 97 158
61 97 165
61 96 159
61 97 158
61 96 157
62 98 158
61 97 157
62 98 165
62 98 165
60 96 155
60 96 153
61 97 155
61 97 157
61 97 159
61 97 157
61 97 160
61 97 156
61 97 157
61 97 152
61 96 152
61 96 153
61 97 153
60 96 145
63 98 163
62 98 161
61 97 164
62 98 161
62 98 156
63 98 155
62 98 166
61 97 155
62 98 166
62 98 157
61 96 148
61 97 159
61 97 154
61 97 155
61 97 153
62 97 156
62 98 164
61 97 157
60 96 154
62 97 153
63 99 162
62 98 157
61 97 151
62 98 155
60 95 150
62 97 156
61 96 153
61 97 151
61 97 156
61 97 152
61 97 150
62 98 158
62 97 156
62 98 158
61 97 154
62 97 152
61 97 156
61 96 152
61 96 151
62 98 155
62 97 148
60 96 147
60 96 151
61 96 143
62 97 154
62 97 153
63 98 160
60 96 145
61 96 147
61 97 150
62 98 153
61 97 149
61 97 151
61 97 153
60 96 148
61 97 151
60 96 149
61 96 147
62 97 156
61 96 154
61 97 157
62 97 149
61 97 143
61 96 149
62 97 153
61 96 154
62 98 149
60 95 144
62 97 150
60 95 143
62 97 148
60 95 140
61 97 151
60 95 142
60 95 139
61 96 140
62 98 149
60 95 144
60 95 142
60 95 139
60 94 133
61 96 144
61 96 147
61 96 143
60 95 141
59 94 134
60 95 144
61 95 139
60 95 137
59 94 140
60 94 141
61 96 144
59 94 135
60 94 144
56 89 117
59 93 134
57 90 122
58 90 127
80 100 92
92 107 63
109 119 60
115 122 0
113 123 0
108 115 0
126 134 0
102 108 0
109 117 0
108 111 0
120 126 0
123 128 0
115 124 0
106 110 0
115 117 0
115 117 0
106 108 0
124 129 0
116 120 11
111 113 0
97 100 0
96 98 0
105 104 0
110 110 0
102 103 0
103 106 0
103 102 0
104 104 0
100 101 0
108 108 0
106 106 0
96 96 0
97 95 0
113 112 0
99 99 0
108 106 0
96 94 0
108 107 0
104 102 0
99 96 0
103 101 0
109 108 8
111 110 0
108 105 0
102 104 0
100 98 0
109 109 0
110 108 0
109 105 0
112 107 0
105 103 0
107 102 0
106 102 0
107 104 11
117 115 0
108 109 0
115 112 0
112 111 0
111 108 0
110 110 0
111 109 0
106 104 0
116 114 0
112 109 0
111 110 0
116 115 0
123 124 0
124 124 0
122 122 0
126 125 16
135 134 0
126 126 0
124 125 0
135 139 0
128 130 11
133 135 0
133 133 0
126 128 0
140 143 0
129 131 0
132 134 0
141 144 0
140 143 0
144 152 0
135 138 0
140 145 0
144 151 0
145 152 0
132 135 0
148 154 0
145 155 0
143 148 0
149 157 0
150 158 0
154 163 0
151 160 0
146 152 0
152 161 0
152 163 0
151 161 0
150 160 0
156 166 0
156 166 0
153 165 0
153 165 0
155 167 0
159 172 0
154 167 0
156 168 0
154 168 0
157 167 0
158 169 0
159 171 0
157 170 0
158 170 0
155 170 0
162 176 0
161 172 0
157 172 0
162 176 0
160 174 0
160 174 0
157 171 0
163 179 0
161 177 0
161 178 0
160 174 0
166 181 0
161 176 0
162 178 0
160 177 0
164 181 0
164 181 0
164 181 0
165 182 0
169 186 0
164 181 0
163 180 0
165 185 0
167 185 0
162 180 0
165 184 0
197 216 188
189 210 163
195 215 179
193 213 175
194 215 177
189 209 153
187 208 153
189 210 159
181 203 120
189 209 147
187 209 151
183 205 120
174 197 95
180 202 117
181 204 108
177 200 95
180 203 111
176 199 95
178 201 125
174 197 88
179 201 105
178 201 92
175 199 76
175 199 67
170 192 51
172 196 72
171 195 62
176 200 84
174 197 57
173 197 67
172 195 67
173 197 95
174 199 76
173 196 62
175 198 67
171 195 62
174 198 76
173 197 95
171 196 80
174 198 76
174 197 67
175 199 80
174 197 67
174 197 80
172 197 80
169 193 80
175 199 84
174 198 57
172 195 51
175 200 105
173 196 80
170 193 67
173 197 76
173 196 67
174 198 76
173 197 88
172 195 67
173 197 67
175 199 76
175 198 80
173 196 80
174 197 76
175 197 84
171 195 51
174 198 72
171 194 67
171 194 80
174 196 86
167 191 95
157 180 102
147 172 126
135 161 140
124 149 159
106 134 165
91 121 167
91 122 164
110 138 171
106 133 171
110 136 167
109 136 171
103 130 165
110 136 179
104 132 174
110 137 172
100 129 169
97 125 172
103 130 177
113 139 184
105 132 179
103 131 173
100 127 181
97 125 178
103 130 177
86 116 179
81 113 176
94 123 185
90 120 177
89 118 172
80 111 173
95 123 182
86 117 180
93 122 181
71 105 175
82 113 179
80 112 181
74 107 177
87 116 176
84 114 179
71 104 170
74 106 171
68 103 175
65 100 162
74 107 173
72 105 165
74 107 169
65 100 163
71 105 157
71 103 168
66 100 160
61 97 160
62 98 161
61 97 160
63 98 159
62 98 166
66 101 159
61 97 160
65 100 160
61 97 157
65 100 159
63 99 155
64 99 159
61 97 164
64 99 160
61 98 163
62 98 164
61 97 162
62 97 158
61 96 164
62 98 159
61 97 158
60 96 156
62 97 154
62 98 167
61 97 159
61 97 154
60 96 153
62 98 161
60 96 157
61 97 160
62 98 161
62 98 160
62 98 157
62 98 162
60 96 145
62 98 157
62 98 164
61 97 156
61 96 152
61 97 155
61 97 155
60 95 151
61 96 155
62 98 162
61 97 155
61 96 153
61 97 156
62 98 163
62 98 159
61 97 160
61 97 155
61 96 148
60 96 150
61 97 156
61 97 156
61 97 158
61 97 160
62 98 163
62 97 152
61 97 156
62 99 165
61 97 151
62 98 163
61 97 155
62 97 158
62 97 156
61 97 158
60 96 148
62 97 161
62 98 159
61 97 151
62 97 155
62 97 153
61 97 151
61 97 148
62 97 154
61 97 152
62 98 161
62 97 152
61 96 149
62 98 161
61 97 155
62 98 156
62 97 154
62 97 153
62 97 157
62 97 155
62 98 160
62 97 154
61 96 147
61 97 149
60 96 147
61 97 154
61 97 145
61 97 154
61 96 145
62 97 155
62 97 147
62 97 155
61 96 145
60 95 142
61 97 155
59 95 144
62 97 158
62 97 150
61 96 144
60 95 143
62 97 151
62 97 149
60 95 140
61 96 147
61 96 143
62 97 152
62 97 148
62 97 149
61 96 147
61 97 149
60 95 142
61 96 145
60 95 136
61 96 152
61 95 137
61 96 144
60 95 140
61 96 139
59 93 133
60 95 143
60 94 131
59 94 135
60 94 140
60 94 144
60 95 143
59 93 129
60 94 139
61 95 136
60 94 140
58 92 129
59 92 132
67 96 113
81 100 99
98 111 70
109 121 46
116 124 0
124 130 0
118 124 0
117 122 0
105 110 0
126 132 0
114 119 0
118 125 0
113 116 0
119 123 0
118 124 0
107 110 0
109 114 0
113 120 0
114 118 0
108 111 0
102 108 0
103 107 0
111 115 0
117 119 0
117 119 0
107 112 0
110 113 0
112 114 0
101 102 0
109 112 0
103 101 0
106 106 0
84 84 0
99 99 0
96 95 0
112 114 0
109 109 0
112 112 0
113 115 0
106 108 0
103 100 0
109 111 0
107 106 0
102 103 0
100 101 0
108 105 0
96 92 0
110 109 0
115 114 11
110 107 0
120 122 0
118 116 0
114 113 0
112 110 0
106 105 0
99 97 0
111 107 11
114 115 0
115 117 0
123 123 0
121 118 11
112 111 11
124 124 0
122 119 0
120 120 0
120 120 0
123 121 0
123 124 0
124 123 0
129 130 0
131 133 0
127 126 0
119 121 0
127 129 0
131 132 0
126 125 0
120 117 0
131 132 0
117 117 0
137 141 0
128 129 11
134 138 0
130 133 0
142 148 0
137 140 0
143 146 0
144 150 0
151 156 0
143 150 0
143 149 0
145 153 0
144 152 0
145 154 0
152 162 0
143 153 0
143 152 0
150 159 0
152 161 0
148 159 0
155 164 0
148 157 0
155 165 0
149 161 0
158 171 0
161 173 0
151 165 0
158 170 0
152 163 0
153 166 0
155 166 0
160 172 0
150 160 0
159 173 0
160 175 0
154 165 0
158 171 0
165 181 0
162 176 0
162 177 0
161 176 0
164 179 0
160 175 0
159 176 0
160 176 0
156 171 0
162 180 0
164 182 0
161 177 0
163 181 0
164 181 0
164 180 0
164 179 0
164 180 0
164 183 0
158 172 0
160 177 0
163 180 0
163 181 0
165 183 0
161 179 0
163 179 0
166 183 0
163 180 0
194 214 181
191 212 171
189 210 163
186 206 142
187 208 147
184 206 130
188 208 142
184 205 137
182 204 130
181 203 130
180 203 117
179 202 117
177 200 95
176 199 84
177 200 80
175 198 76
175 198 88
175 198 76
177 200 92
175 198 67
175 199 84
174 198 105
174 198 76
174 197 62
175 198 67
173 196 76
172 196 80
175 199 72
176 199 80
171 196 67
176 200 80
175 198 67
172 196 51
172 195 72
170 194 62
173 196 72
172 195 57
172 196 62
173 196 84
172 196 80
171 194 72
170 194 72
171 195 62
173 196 57
171 195 76
174 197 88
173 197 76
172 196 92
172 196 72
174 197 80
170 194 76
172 195 76
170 195 51
169 193 62
175 198 57
173 196 51
174 197 57
173 197 72
173 195 72
170 193 51
176 200 80
176 199 84
173 197 76
172 196 84
172 196 67
175 198 80
172 195 51
171 194 74
167 189 103
161 184 99
146 170 100
131 155 135
120 147 142
111 139 161
93 123 155
101 129 165
92 122 161
105 133 167
102 130 175
104 131 172
102 130 170
108 135 174
103 132 174
103 131 171
110 137 179
103 132 172
103 131 165
105 132 178
92 121 168
103 131 185
95 124 166
101 129 179
100 128 172
95 124 181
85 115 168
95 123 172
78 110 178
92 121 172
88 118 180
86 117 176
83 114 178
85 115 181
84 115 178
81 112 177
73 106 174
81 112 175
80 112 180
76 108 171
64 99 171
77 109 175
68 102 171
67 103 174
61 97 168
74 107 177
68 102 171
66 101 165
71 104 171
70 103 157
71 104 165
62 98 168
61 97 163
63 98 157
62 98 165
59 95 153
63 99 165
60 96 163
61 97 164
63 97 159
63 98 158
61 97 158
60 95 153
61 97 159
60 96 154
60 96 157
62 97 161
60 95 149
60 96 153
63 98 156
61 97 158
61 97 157
60 96 154
61 97 154
60 96 153
61 97 158
61 97 158
61 96 156
62 97 155
61 97 159
61 98 160
61 97 160
61 97 156
61 97 165
61 97 156
62 98 164
62 98 159
63 99 159
61 97 162
62 98 159
61 97 156
63 99 166
61 96 157
62 97 162
62 97 156
62 98 163
61 96 151
61 97 156
62 97 156
61 96 148
61 97 158
61 97 153
62 98 155
62 98 160
61 96 157
62 97 155
61 97 157
61 97 154
63 99 163
62 98 157
62 97 156
61 97 151
62 97 156
62 98 161
62 98 162
60 96 144
62 97 152
62 98 160
61 97 148
62 98 160
62 98 161
61 97 150
62 97 153
61 97 154
60 96 144
62 97 155
60 96 145
62 97 152
61 96 149
61 97 160
61 97 152
62 97 153
61 97 151
61 96 149
61 96 147
61 96 151
60 96 150
62 97 151
62 98 155
61 96 148
61 96 149
61 96 144
62 97 154
62 97 149
61 97 158
62 98 154
61 97 148
62 98 152
60 94 136
61 97 144
61 97 155
61 97 154
61 96 143
63 98 158
61 96 141
61 97 148
60 95 142
62 97 154
60 95 140
60 95 140
61 96 148
62 97 153
60 95 137
62 97 143
61 97 144
61 96 143
60 95 135
62 97 152
60 95 144
60 95 144
59 94 135
60 94 137
61 95 144
60 95 134
61 95 141
60 95 139
59 93 131
60 95 135
60 95 143
60 94 136
60 94 135
60 94 139
58 92 125
58 92 127
58 91 122
58 91 129
58 91 128
59 93 125
56 89 113
77 103 115
82 96 82
110 124 70
110 119 18
109 116 0
118 126 0
114 123 0
117 124 0
112 119 0
113 122 0
115 121 0
112 116 0
117 124 0
114 121 0
112 115 0
118 125 0
110 113 0
122 127 0
112 114 0
112 117 0
122 125 0
107 110 0
116 117 0
112 115 0
109 113 0
112 115 0
104 107 0
109 115 0
106 109 0
112 111 0
106 109 0
110 114 0
107 109 0
108 110 0
109 109 0
109 113 0
103 103 0
95 92 0
101 103 0
99 98 0
103 102 0
105 106 0
101 97 0
106 104 0
111 111 0
100 98 0
102 99 0
113 112 0
104 101 0
101 101 0
107 105 0
106 107 0
118 118 0
106 104 0
115 115 0
107 102 0
117 113 0
106 102 0
122 121 0
118 120 0
114 113 0
121 120 0
121 119 0
119 120 0
128 129 0
121 122 0
116 115 0
122 122 0
124 124 0
114 115 0
123 125 0
127 128 0
125 126 0
128 131 0
127 129 0
131 131 0
130 130 0
138 142 11
132 135 0
133 137 0
136 138 0
131 135 0
142 147 11
135 142 0
145 149 0
144 148 0
142 149 0
146 153 0
148 156 0
139 145 0
150 158 0
148 156 0
150 159 0
144 151 0
144 150 0
146 155 0
145 152 0
152 162 0
152 161 0
151 162 0
152 164 0
149 160 0
145 154 0
153 163 0
156 166 0
156 165 0
157 168 0
152 165 0
155 167 0
157 168 0
157 171 0
160 173 0
162 176 0
156 168 0
157 172 0
159 171 0
162 175 0
155 170 0
160 173 0
160 174 0
154 166 0
162 178 0
163 179 0
156 172 0
160 176 0
163 179 0
158 172 0
162 180 0
160 175 0
160 176 0
160 176 0
162 179 0
166 185 0
160 174 0
159 175 0
159 175 0
161 178 0
159 175 0
163 178 0
169 187 0
166 183 0
160 180 0
165 184 0
186 206 149
189 209 155
185 206 142
188 208 149
180 202 130
182 204 120
180 202 105
180 203 117
180 203 108
182 204 122
179 202 92
178 201 108
176 200 88
177 200 99
178 201 88
177 200 102
172 196 80
172 196 80
172 195 88
175 199 84
174 199 62
175 198 80
171 195 80
174 198 76
174 196 44
170 194 84
173 196 57
176 200 95
177 200 72
175 198 62
173 197 76
172 197 67
174 197 76
172 194 67
174 198 72
173 197 36
173 196 80
174 197 67
171 195 72
173 197 72
176 198 67
174 198 92
172 196 84
175 199 105
170 194 57
171 195 51
171 195 51
171 195 67
171 195 62
171 196 72
170 194 84
174 197 72
168 192 51
172 195 67
174 198 88
171 194 51
173 197 67
171 195 62
172 195 51
173 197 72
169 193 84
174 196 72
169 193 84
172 195 67
172 196 62
172 196 80
173 197 80
173 197 95
167 191 76
160 183 86
141 166 122
143 168 137
121 148 139
104 133 159
99 128 164
100 128 174
113 140 167
100 128 169
93 123 164
96 125 173
100 128 167
106 133 166
103 130 165
110 137 168
95 124 173
90 120 174
98 126 169
82 113 168
89 119 173
86 117 172
90 119 163
90 120 160
92 121 173
97 125 170
93 121 179
103 131 178
90 120 175
88 118 185
100 128 182
76 108 168
86 116 172
82 113 179
72 106 174
83 114 179
83 113 176
61 98 170
74 107 176
75 108 175
70 104 170
84 114 179
71 104 172
75 107 166
67 101 164
62 98 167
73 105 162
63 99 168
64 98 162
73 105 169
69 103 161
72 105 168
64 98 157
68 102 163
66 101 161
65 100 162
61 97 160
62 98 161
60 96 158
61 97 161
62 98 162
64 99 156
63 99 157
60 96 156
62 98 164
61 96 158
60 96 154
61 97 156
61 96 156
61 97 157
60 96 159
60 96 152
61 96 154
61 96 154
62 98 166
61 97 151
61 97 159
62 98 162
59 94 142
61 97 158
61 97 160
60 95 153
61 97 154
61 97 159
61 96 154
62 98 160
62 98 162
62 98 160
61 97 153
61 97 150
62 98 164
61 97 156
61 96 150
62 98 157
61 96 144
62 98 157
62 98 156
61 96 148
62 98 163
62 98 160
62 97 158
61 97 153
62 98 160
61 97 155
61 97 156
61 97 158
61 97 154
61 97 155
62 97 161
62 98 158
62 98 161
61 96 152
62 98 157
61 96 147
61 97 156
61 97 157
62 98 153
61 96 149
61 97 153
61 97 151
61 97 149
62 97 158
62 98 156
61 96 153
62 97 149
62 98 155
61 97 154
61 97 151
62 98 158
62 97 152
62 98 158
62 97 148
62 98 155
61 96 144
61 97 153
61 96 152
62 97 151
62 98 156
62 98 153
61 97 153
60 95 142
62 98 154
61 96 148
61 96 145
61 96 147
62 97 152
60 95 148
62 98 153
62 97 152
61 97 152
61 96 149
61 97 150
61 96 151
61 96 144
61 96 148
61 96 140
62 96 144
60 95 139
61 96 147
61 96 141
61 96 145
62 97 150
60 95 143
60 95 140
61 96 143
61 96 143
61 96 149
61 96 139
61 96 148
61 96 143
62 97 149
62 96 145
60 95 135
61 96 137
60 94 141
61 96 145
60 95 141
62 97 142
61 96 145
59 93 134
63 98 154
59 93 136
60 94 138
60 94 134
61 95 140
58 92 125
59 93 125
58 91 113
62 93 113
75 97 101
86 101 69
114 125 45
111 119 8
107 114 0
123 130 0
118 126 0
100 106 0
107 113 0
113 121 0
104 109 0
122 131 0
119 125 0
110 117 0
108 111 0
105 108 0
109 114 0
113 120 0
122 127 0
136 141 0
95 101 0
108 113 0
112 117 0
110 114 0
110 110 0
108 113 0
116 122 0
110 115 0
109 111 0
102 107 0
102 102 0
115 119 0
110 111 0
109 108 0
108 111 0
113 113 0
104 103 0
110 108 0
102 102 0
110 111 0
105 103 0
111 108 0
107 107 0
111 110 0
101 99 0
108 108 0
98 99 0
106 105 0
115 116 0
105 106 0
109 110 0
125 127 0
117 116 0
110 112 0
112 113 0
109 110 0
104 102 0
116 113 0
125 125 0
111 111 0
116 116 0
114 112 0
126 129 0
125 126 0
122 124 0
124 123 0
124 125 0
125 128 0
132 134 11
127 129 0
131 132 11
126 127 0
126 125 0
121 126 0
127 127 0
134 133 0
135 138 0
136 140 0
133 136 0
132 132 0
139 143 0
138 142 0
143 148 0
140 145 0
142 149 0
137 140 0
143 148 0
147 157 0
149 156 0
149 158 0
144 148 0
142 148 0
145 153 0
147 154 0
150 159 0
153 162 0
151 159 0
146 155 0
153 161 0
152 160 0
155 167 0
155 167 0
149 160 0
151 163 0
160 170 0
154 165 0
152 165 0
150 162 0
149 157 0
156 168 0
165 180 0
160 171 0
157 169 0
163 177 0
150 161 0
159 172 0
157 172 0
160 175 0
165 178 0
162 177 0
162 178 0
161 177 0
160 173 0
154 168 0
161 174 0
162 178 0
156 171 0
160 176 0
163 179 0
156 170 0
160 175 0
165 182 0
165 183 0
162 178 0
158 175 0
163 181 0
164 183 0
164 181 0
162 182 0
166 184 0
165 185 0
165 183 0
166 183 0
187 208 142
188 210 151
185 206 137
183 205 127
182 204 122
180 202 111
182 204 114
177 200 102
175 198 76
178 201 102
177 200 84
178 201 88
176 200 76
174 197 80
175 199 80
174 197 67
173 196 67
175 198 51
173 197 62
173 197 72
171 194 72
176 199 72
172 196 72
172 195 88
173 197 62
171 194 84
174 198 88
174 197 44
174 198 80
176 199 67
175 199 88
175 198 80
172 196 72
172 196 80
174 197 80
174 198 72
172 196 62
169 193 67
176 200 76
170 194 80
174 198 92
173 196 72
175 199 88
173 196 62
173 198 72
169 192 72
170 195 67
174 198 51
173 196 67
172 196 80
172 197 88
168 191 72
175 199 72
174 198 72
172 196 80
171 195 80
170 193 62
174 197 51
171 194 67
175 198 72
167 190 72
172 196 67
171 194 88
174 198 80
175 197 84
172 196 88
169 192 62
171 194 62
170 193 78
170 193 110
146 170 122
143 168 129
130 156 159
107 135 154
103 131 176
91 121 172
94 123 165
88 118 164
98 126 160
103 131 174
102 130 164
102 129 151
98 126 175
106 133 165
97 125 165
102 129 158
99 127 169
103 131 157
99 128 170
90 119 170
99 127 169
87 117 173
100 128 179
87 117 168
91 121 174
83 114 171
79 110 170
89 119 181
93 122 177
90 120 173
77 109 164
88 118 177
86 116 178
69 103 173
74 107 175
78 110 173
73 106 171
82 113 181
82 113 179
77 109 179
68 103 176
73 107 180
78 110 175
74 107 172
68 102 174
71 104 162
72 104 160
73 104 163
72 105 162
63 99 162
75 107 168
61 97 163
62 98 165
61 97 159
68 101 160
63 98 163
60 96 159
66 101 164
61 96 156
62 98 162
64 100 162
60 95 161
60 96 155
59 95 149
60 96 155
61 97 161
61 97 161
61 96 146
60 96 154
63 98 154
61 96 155
62 97 159
61 96 151
61 97 156
61 97 157
62 98 159
60 96 156
61 96 150
61 97 154
59 94 145
60 96 155
61 97 155
61 96 157
59 95 145
60 96 153
61 97 156
62 97 157
63 99 162
61 97 158
62 98 165
61 96 149
62 99 162
61 97 150
61 97 155
61 97 155
62 98 160
61 97 157
60 95 150
60 95 152
62 98 156
61 97 151
62 98 159
61 97 156
62 98 161
62 98 152
60 96 142
62 98 155
61 96 150
61 97 152
62 98 158
61 96 150
62 98 158
62 98 155
62 97 154
61 97 153
62 97 153
61 97 155
61 97 151
60 96 151
61 97 156
61 97 154
61 96 147
61 97 150
62 98 155
62 98 161
61 97 150
62 97 154
61 96 142
63 98 164
62 97 150
62 98 158
61 96 154
61 96 144
62 97 154
61 96 151
61 97 148
61 96 150
61 97 152
61 96 140
61 97 151
60 95 139
60 95 142
60 96 144
62 97 153
61 96 149
60 95 144
61 96 152
62 98 155
61 96 148
61 96 145
60 95 135
60 95 141
61 96 147
61 96 145
61 96 141
61 96 147
61 96 147
60 95 140
61 96 147
61 96 144
60 95 136
62 97 148
61 97 148
60 95 141
61 96 145
61 95 140
60 94 136
60 95 141
61 96 144
61 95 141
58 92 130
61 96 145
61 97 144
59 94 136
59 94 129
60 95 140
61 96 143
58 91 118
59 93 122
61 95 145
60 94 127
57 91 130
57 90 110
58 91 115
58 91 118
60 91 113
70 95 109
82 102 99
94 109 63
122 134 36
107 114 0
122 129 0
122 131 0
106 113 0
119 127 0
117 123 0
124 133 0
112 118 0
105 113 0
113 120 0
110 116 0
103 108 0
120 124 0
111 116 0
117 124 0
116 123 0
114 117 0
114 117 0
113 117 0
107 112 0
110 112 0
105 110 0
115 123 0
116 121 0
103 104 0
112 113 0
119 122 0
107 112 0
107 109 0
113 118 0
107 107 0
104 106 0
97 99 0
120 123 0
109 110 0
99 103 0
103 105 0
111 112 0
113 113 0
126 129 0
114 115 0
103 106 0
112 110 0
114 113 0
116 118 0
113 117 0
116 118 0
109 108 0
121 119 0
114 112 0
109 109 0
123 125 0
124 124 0
109 110 0
109 109 0
115 114 0
114 111 0
120 120 0
119 119 0
117 116 0
120 121 0
122 123 0
124 125 0
121 121 0
123 124 0
129 129 0
121 121 0
133 136 0
128 129 0
138 142 0
131 135 0
136 141 0
136 144 0
130 133 0
140 147 11
139 143 0
139 144 0
140 146 0
148 151 0
145 149 0
144 149 0
148 155 0
144 149 0
148 156 0
140 145 0
144 151 0
147 151 0
143 151 0
142 150 0
153 162 0
151 160 0
146 158 0
148 156 0
142 149 0
148 157 0
153 161 0
147 154 0
149 160 0
155 167 0
152 162 0
162 176 0
154 166 0
147 158 0
157 170 0
156 168 0
154 167 0
154 166 0
154 165 0
152 162 0
160 172 0
162 177 0
157 171 0
164 179 0
161 175 0
161 175 0
160 175 0
160 174 0
165 181 0
157 173 0
158 175 0
161 174 0
155 170 0
164 179 0
159 174 0
162 178 0
162 180 0
158 175 0
167 184 0
163 180 0
160 176 0
162 177 0
160 176 0
160 176 0
164 182 0
165 181 0
168 188 0
167 187 0
164 183 0
165 181 0
165 183 0
181 202 117
183 205 127
182 204 120
182 205 117
184 205 127
181 204 114
177 199 111
177 200 95
175 198 92
175 198 84
173 196 67
176 199 62
176 199 80
172 195 51
175 198 57
174 197 76
173 197 67
175 198 62
175 198 57
174 198 76
173 197 72
169 193 72
174 198 80
171 195 80
173 197 80
173 196 80
171 195 80
172 195 67
173 197 76
170 194 62
173 196 67
172 196 51
170 194 57
174 197 80
172 196 72
175 198 72
171 195 84
172 196 72
171 195 80
174 197 72
172 195 80
175 198 84
172 196 84
172 196 88
171 195 51
172 196 76
169 191 51
171 194 72
172 195 67
171 194 84
169 193 84
168 192 62
173 197 72
174 197 88
174 198 72
173 196 80
170 192 57
170 193 67
173 196 88
171 195 80
172 196 67
175 198 84
173 196 76
173 197 84
170 193 62
169 192 84
174 198 57
169 192 44
167 190 78
161 185 90
152 175 90
153 177 115
128 154 141
123 149 153
104 132 159
108 135 172
104 132 169
88 119 175
89 119 169
97 126 161
100 129 167
104 132 159
127 153 169
105 132 164
87 117 162
101 129 161
100 128 169
95 124 173
96 125 165
98 126 167
106 133 179
97 126 165
96 125 164
98 126 165
99 126 162
88 118 170
79 111 175
94 123 163
88 118 166
78 110 170
90 120 169
93 123 172
74 107 171
86 116 172
86 116 173
70 104 172
74 107 169
74 107 176
70 104 172
65 100 175
74 107 178
81 112 173
77 109 174
73 106 169
65 101 171
67 101 164
71 103 158
77 109 176
61 97 161
73 105 165
70 103 159
66 101 163
65 100 164
66 99 156
61 97 164
62 97 155
60 96 158
60 96 160
64 98 157
62 98 158
61 97 157
62 97 158
60 96 154
62 97 160
63 98 157
63 98 154
61 97 152
61 98 163
61 96 150
62 97 158
61 96 159
61 96 155
61 96 153
61 97 159
60 96 155
61 96 156
61 97 158
62 98 159
61 97 156
60 95 152
61 97 154
62 97 154
61 96 159
62 97 155
60 96 151
62 97 151
60 95 148
62 98 157
61 97 152
62 98 164
61 96 155
61 97 151
61 96 151
62 98 162
63 98 158
61 97 160
61 97 157
61 97 152
61 97 154
62 98 158
61 97 153
63 99 162
62 98 157
62 97 157
61 96 153
61 97 154
61 96 150
61 97 153
61 97 155
63 99 162
62 97 156
62 98 159
62 97 153
62 97 153
62 97 156
62 98 160
61 97 150
62 98 160
60 95 148
61 96 154
62 98 155
62 97 151
61 97 150
61 96 151
62 97 156
62 97 156
61 96 147
61 96 157
62 98 151
61 96 153
61 95 136
62 97 147
61 97 150
61 96 144
61 97 152
60 94 136
62 98 157
60 96 142
61 96 144
60 95 136
62 97 156
62 98 157
61 96 152
60 95 137
60 96 144
61 96 147
60 95 141
60 95 133
61 96 150
61 97 145
62 97 155
61 96 141
61 95 147
62 97 148
61 96 153
61 97 144
59 94 133
61 96 147
61 97 148
62 97 150
61 96 142
60 95 139
60 94 137
62 97 147
59 94 139
60 95 140
60 95 132
60 94 135
60 94 139
60 95 133
62 97 152
59 93 127
61 96 141
60 95 136
61 96 137
60 96 147
59 93 131
60 95 144
59 93 128
60 94 134
57 90 110
60 94 133
59 93 127
58 91 129
59 92 130
57 89 111
84 110 117
92 106 84
114 127 42
100 108 18
119 129 0
108 118 0
116 124 0
114 124 0
103 111 0
108 114 0
122 131 0
108 113 0
110 117 0
113 123 0
116 122 0
110 116 0
112 118 0
128 136 0
101 106 0
114 121 0
113 118 0
109 115 0
106 111 0
121 127 0
112 116 0
114 117 0
110 115 0
107 110 0
110 116 0
122 124 0
115 119 0
108 112 0
115 119 0
108 110 0
118 124 0
120 124 0
112 115 0
114 115 0
109 110 0
119 121 0
116 117 0
110 112 0
106 106 0
113 115 0
109 113 0
119 122 0
111 114 0
104 102 0
114 115 0
109 110 0
120 122 0
121 122 0
126 125 0
124 126 0
118 120 0
118 120 0
109 109 0
119 122 0
125 126 0
113 111 0
135 138 0
116 118 0
119 123 0
123 125 0
127 130 0
125 128 11
124 125 0
123 126 0
138 139 0
128 131 0
133 135 0
127 132 0
130 133 0
132 133 0
130 133 0
142 145 0
137 139 0
124 128 0
132 137 0
147 154 0
141 146 0
140 144 0
143 151 0
146 150 0
142 148 0
143 150 0
142 149 0
141 148 0
135 141 0
153 161 0
146 153 0
146 155 0
147 154 0
145 154 0
151 161 0
146 155 0
146 154 0
150 158 0
153 165 0
152 161 0
149 157 0
146 157 0
152 162 0
155 164 0
154 164 0
157 171 0
156 166 0
150 161 0
160 173 0
152 166 0
155 167 0
154 167 0
154 164 0
156 170 0
159 172 0
158 172 0
152 167 0
160 174 0
158 175 0
149 161 0
156 169 0
157 173 0
159 173 0
158 173 0
161 179 0
161 174 0
160 177 0
163 178 0
161 177 0
169 186 0
163 179 0
161 178 0
167 186 0
158 175 0
163 181 0
164 180 0
164 182 0
167 185 0
161 178 0
162 181 0
164 182 0
167 185 0
163 179 0
164 180 0
181 203 122
187 208 144
177 200 99
181 203 120
179 202 99
177 200 99
178 201 92
176 199 88
174 197 84
172 196 57
172 195 51
176 199 80
176 200 88
177 201 99
174 198 57
172 195 62
172 196 80
175 199 84
173 196 62
175 199 76
172 196 57
170 194 57
167 191 67
172 197 72
173 197 76
174 198 76
170 194 76
173 196 72
173 197 95
175 198 51
172 196 67
173 196 84
172 197 62
170 194 72
174 197 76
173 197 62
172 195 67
174 198 80
169 193 76
173 198 88
168 192 84
173 197 76
172 197 62
171 195 57
174 198 80
171 195 51
173 196 62
167 191 80
173 196 76
172 195 57
173 197 80
170 194 72
174 197 67
172 195 44
168 191 51
173 195 51
171 195 76
168 191 84
171 195 36
173 196 88
174 198 62
172 195 62
173 196 80
168 192 67
170 192 72
171 194 80
171 195 80
176 199 57
171 194 67
167 190 72
159 182 107
154 178 103
144 169 117
128 154 142
108 135 153
111 138 179
87 118 171
103 131 169
98 127 163
107 135 165
87 117 170
97 126 172
92 121 168
96 125 160
105 133 172
96 125 163
104 131 159
90 120 171
100 128 163
92 121 167
101 129 172
94 122 157
97 125 166
89 119 178
96 125 165
97 126 174
91 120 168
87 117 172
93 121 173
82 114 179
91 121 167
77 109 173
86 116 174
75 108 168
81 112 173
79 111 175
74 107 171
73 106 173
69 104 173
69 104 169
74 107 176
72 106 171
71 104 168
65 100 167
71 104 164
71 105 172
83 113 173
64 100 169
69 103 165
65 100 164
68 101 165
64 98 158
70 103 158
70 103 156
65 100 164
61 97 158
63 98 155
67 101 159
68 102 160
61 97 159
60 96 157
62 97 157
62 98 158
61 96 162
61 97 160
61 97 155
60 96 155
61 97 155
61 96 146
60 96 157
62 98 159
61 97 158
61 97 156
61 97 153
61 96 153
61 96 154
61 96 157
63 98 162
62 98 157
60 95 151
60 96 150
62 98 159
63 99 161
61 97 155
61 98 160
62 98 160
61 97 159
61 97 156
60 95 140
62 98 158
61 97 152
61 97 159
61 97 151
62 98 158
62 98 157
61 97 154
62 97 157
61 97 155
63 98 157
61 96 153
61 96 147
62 97 153
62 98 157
62 98 160
61 97 152
62 97 149
62 97 152
60 96 150
61 96 152
61 96 149
61 96 151
61 97 156
62 98 157
62 98 157
63 98 155
62 98 155
62 97 152
61 97 152
61 96 148
63 99 162
61 97 156
62 98 156
60 96 145
61 96 149
61 96 150
62 97 153
62 97 153
62 98 160
60 96 145
62 97 156
61 97 147
61 97 152
62 97 150
61 97 149
61 96 151
62 97 151
60 95 149
61 96 142
61 97 149
60 95 137
61 96 145
61 96 149
62 97 151
60 95 143
60 96 144
61 96 143
62 98 150
61 96 152
61 96 148
59 94 135
61 96 149
61 96 148
62 97 147
61 96 141
59 94 137
59 94 137
61 96 140
60 95 139
59 94 126
61 96 151
59 94 127
61 96 147
61 97 147
60 94 135
61 97 142
60 95 141
61 95 137
61 96 136
61 95 140
59 94 133
60 94 139
60 95 135
60 94 133
60 95 137
60 95 144
61 95 134
58 92 129
61 95 143
59 93 128
59 93 134
58 92 125
59 94 139
59 93 133
60 94 134
59 92 123
67 96 120
85 108 99
109 124 71
102 113 37
103 112 25
115 125 0
120 127 0
121 132 0
116 126 0
113 123 0
106 116 0
113 120 0
114 119 0
112 117 0
112 118 0
111 117 0
124 133 0
109 116 0
118 123 0
110 114 0
110 118 0
121 128 0
118 125 0
103 105 0
111 116 0
115 119 0
116 125 0
107 111 0
117 121 0
105 110 0
114 119 0
127 134 0
118 124 0
118 122 0
108 111 0
123 127 0
118 120 0
118 122 0
107 109 0
113 113 0
114 119 0
109 112 0
120 122 0
110 114 0
118 118 0
120 120 0
111 112 0
119 120 0
114 116 0
107 107 0
121 124 0
116 117 0
112 110 0
128 130 0
119 124 0
119 119 0
122 123 0
120 126 0
124 128 0
129 133 0
116 117 0
105 104 0
115 114 0
118 119 0
127 132 0
128 133 0
129 132 0
119 118 0
132 134 0
130 131 0
130 137 0
128 132 0
125 127 0
130 134 0
138 141 0
131 133 0
133 138 0
134 136 0
142 145 0
134 140 0
134 140 0
135 138 0
140 143 0
144 149 0
144 150 0
137 145 0
147 156 0
142 149 0
139 145 0
142 150 0
146 153 0
154 163 0
146 150 0
149 155 0
147 157 0
150 160 0
148 154 0
150 156 0
156 167 0
152 160 0
145 155 0
152 160 0
152 161 0
152 163 0
157 170 0
148 158 0
158 168 0
156 166 0
152 162 0
155 169 0
158 170 0
154 166 0
166 179 0
163 175 0
160 175 0
157 171 0
157 170 0
164 178 0
159 173 0
164 179 0
158 173 0
158 173 0
162 178 0
156 171 0
158 172 0
160 177 0
155 171 0
165 178 0
163 180 0
164 180 0
162 182 0
159 177 0
162 178 0
164 180 0
162 179 0
161 177 0
164 180 0
162 179 0
164 182 0
164 181 0
162 179 0
161 178 0
166 185 0
163 181 0
163 180 0
177 199 95
178 201 95
180 202 92
180 202 92
177 200 76
177 199 80
174 198 76
170 194 67
173 197 72
173 197 80
173 197 76
175 198 62
175 198 72
175 199 84
172 196 76
169 193 51
174 198 80
176 200 80
173 196 72
170 194 67
174 198 72
174 198 84
172 196 76
171 195 80
175 198 44
172 196 80
173 196 62
171 195 51
171 195 80
173 198 99
172 195 62
173 197 67
174 198 57
173 196 80
172 195 88
173 196 76
173 197 76
169 193 72
170 195 62
171 194 57
173 197 84
168 192 62
172 196 67
170 195 92
171 195 80
172 195 76
169 194 57
170 194 72
172 197 92
167 190 72
171 195 62
171 194 67
170 195 76
172 196 84
170 195 67
172 196 99
170 193 62
170 194 51
170 194 62
171 195 72
171 194 80
173 196 84
167 191 57
171 194 76
171 194 57
171 194 88
175 199 80
170 194 99
172 195 62
168 192 78
167 191 92
159 182 92
151 174 103
137 162 140
120 147 150
99 128 161
98 127 172
99 127 173
96 124 168
99 127 169
100 129 170
105 133 158
102 130 163
102 129 166
101 129 168
95 124 156
108 135 170
100 128 157
98 126 167
93 122 166
98 126 164
93 121 161
94 124 175
84 115 171
99 127 168
93 123 168
95 124 168
101 128 169
91 120 162
93 122 170
95 124 166
92 121 171
91 120 176
85 116 168
76 108 168
81 112 168
74 107 175
80 111 167
80 111 170
70 104 171
70 104 174
65 101 168
76 109 175
80 111 176
71 104 169
74 106 173
74 106 168
76 108 165
71 104 166
76 108 166
63 99 160
71 104 161
69 102 160
65 100 164
61 97 161
62 98 160
63 99 163
63 98 158
62 97 156
61 97 147
61 97 160
61 97 156
61 96 159
60 96 149
63 98 158
61 97 157
61 97 153
59 95 145
60 95 144
63 99 153
61 96 155
61 97 162
60 96 155
61 96 157
61 97 153
61 96 154
61 97 153
61 97 157
61 96 160
61 97 156
61 97 161
61 97 155
61 97 159
61 96 156
60 95 147
62 98 160
61 97 155
61 97 149
61 97 155
61 97 153
62 98 158
61 97 153
61 97 156
61 97 154
62 98 158
61 97 149
61 97 152
62 98 154
61 96 148
60 96 144
61 97 155
61 97 154
62 98 155
62 98 157
61 96 148
61 97 151
61 97 151
62 98 154
62 98 156
61 96 148
62 97 152
62 98 161
61 97 154
61 97 155
61 96 148
61 97 151
61 97 151
61 97 153
61 96 149
61 97 150
61 97 149
61 96 150
62 97 154
61 96 150
63 98 156
61 97 151
62 97 148
61 97 150
62 97 153
61 97 153
62 98 154
61 96 151
62 98 156
62 97 154
62 97 155
62 97 151
62 97 150
61 97 149
61 96 141
61 96 151
60 96 145
61 96 148
61 95 137
61 96 149
62 98 152
60 95 143
61 96 143
60 96 140
62 97 151
61 96 144
60 95 135
61 96 151
61 96 142
60 95 137
61 96 140
60 95 144
60 96 144
60 96 143
61 96 144
61 97 145
62 97 147
60 95 141
60 95 133
60 95 136
61 96 152
61 96 147
59 93 129
61 95 140
60 95 144
60 95 139
60 95 139
61 96 143
60 95 143
60 95 142
61 96 146
60 94 134
60 94 127
61 95 130
59 93 128
59 93 124
57 91 121
60 94 139
59 93 125
59 92 121
56 88 110
72 98 109
86 103 78
101 116 65
115 125 18
109 118 0
117 125 0
106 114 0
110 113 0
120 125 0
109 117 0
116 125 0
113 120 0
119 128 0
114 118 0
110 120 0
108 113 0
107 113 0
116 122 0
107 112 0
119 125 0
119 127 0
117 124 0
109 115 0
127 133 0
113 118 0
106 111 0
121 125 0
120 126 0
112 119 0
123 128 0
116 121 0
107 110 0
111 115 0
108 114 0
109 113 0
113 118 0
120 124 0
114 117 0
112 115 0
125 128 0
116 120 0
121 127 0
115 117 0
115 122 0
123 126 0
111 112 0
113 115 0
110 112 0
120 125 0
113 117 0
121 123 0
107 109 0
114 112 0
128 130 0
111 114 0
128 129 0
129 131 0
115 114 0
119 119 0
131 134 0
121 123 0
129 131 0
123 122 0
123 123 0
131 133 0
128 130 0
129 130 0
123 125 0
135 139 0
122 127 0
136 138 0
129 130 0
142 146 0
136 143 0
137 138 0
138 144 0
143 147 0
130 132 0
137 144 0
139 146 0
144 150 0
140 145 0
150 159 0
141 150 0
147 155 0
146 152 0
135 141 0
140 145 0
142 150 0
148 157 0
152 161 0
148 156 0
143 151 0
145 151 0
146 154 0
146 155 0
152 162 0
151 161 0
155 166 0
154 164 0
153 164 0
157 165 0
148 157 0
145 155 0
158 173 0
150 162 0
155 169 0
159 172 0
159 171 0
158 171 0
160 175 0
152 165 0
156 171 0
159 174 0
160 173 0
161 174 0
156 171 0
159 171 0
160 174 0
161 173 0
159 169 0
161 177 0
164 179 0
158 173 0
165 182 0
158 174 0
165 179 0
162 179 0
156 171 0
161 179 0
165 180 0
168 187 0
165 182 0
160 177 0
160 177 0
163 179 0
163 182 0
162 179 0
159 176 0
161 175 0
167 185 0
168 186 0
163 182 0
166 184 0
166 185 0
175 198 80
176 199 92
177 199 72
175 198 62
178 201 108
174 197 76
173 196 62
174 197 36
175 199 102
172 196 76
175 199 92
173 197 80
173 197 76
175 197 76
174 198 80
172 196 76
171 196 84
171 194 62
173 197 67
175 198 76
173 197 95
170 194 80
171 195 44
171 195 72
174 197 57
169 193 72
172 195 57
174 197 67
173 197 67
171 194 62
174 197 72
171 196 80
172 196 62
172 195 67
170 194 67
169 194 76
171 194 76
174 198 72
167 191 72
172 196 84
173 197 76
169 192 72
167 191 72
167 190 62
171 195 92
172 195 76
172 197 76
169 192 72
170 193 67
171 194 44
169 193 67
170 194 67
170 194 80
170 194 72
174 197 72
171 195 84
172 196 76
168 190 67
170 194 88
165 189 57
170 193 51
165 188 57
172 196 88
169 193 57
167 190 88
164 187 72
171 195 67
169 193 57
169 193 88
168 192 80
167 191 90
159 183 105
149 173 121
137 162 124
110 139 160
103 131 170
88 118 167
97 126 166
85 116 166
95 124 172
95 125 167
93 123 165
88 119 163
96 125 165
92 121 166
98 126 168
98 126 161
96 125 165
96 124 158
103 131 174
96 124 160
97 125 168
103 131 169
93 122 164
89 119 163
86 116 164
97 125 173
93 122 174
88 118 168
96 124 173
82 112 163
99 127 172
96 124 172
87 117 173
77 109 165
86 117 177
84 115 174
86 116 174
76 109 177
81 112 175
72 105 171
68 102 169
67 101 167
71 105 172
77 108 168
61 97 164
77 108 169
71 104 165
79 109 168
73 106 171
67 101 163
60 96 159
71 104 159
64 99 161
63 98 159
62 98 162
59 95 154
66 100 161
60 95 154
62 97 153
61 96 156
64 99 158
63 97 148
66 100 158
61 97 156
61 97 158
62 96 151
61 97 160
60 96 153
61 96 149
61 97 153
62 98 165
62 97 159
61 97 154
61 97 156
61 97 156
61 97 152
61 97 151
61 97 157
61 97 156
61 97 157
61 96 152
60 96 155
62 98 160
61 97 155
60 96 156
62 97 157
61 97 157
61 96 148
61 97 152
61 97 156
60 96 147
60 96 141
61 97 158
62 98 165
62 97 149
61 96 155
61 97 156
61 97 151
62 98 157
60 96 148
61 97 155
61 97 151
62 98 157
60 96 144
60 96 147
61 96 148
62 98 157
62 98 156
63 98 156
61 97 150
61 96 148
63 99 161
61 96 144
61 97 150
61 97 155
62 98 154
62 98 155
62 97 154
61 97 153
61 96 142
60 95 144
61 96 152
61 96 149
61 97 153
61 96 144
61 97 156
61 95 149
61 96 153
62 97 151
60 95 139
62 98 152
61 96 149
61 96 149
61 96 149
60 95 142
61 96 143
61 96 145
63 99 157
61 97 149
61 97 144
60 95 144
61 96 139
61 96 149
62 98 154
61 97 153
62 98 156
61 96 141
61 96 147
61 96 144
61 96 148
60 95 140
61 97 145
60 96 140
60 95 141
61 96 144
60 95 142
61 96 143
61 96 141
60 95 141
61 95 140
60 95 133
61 97 148
61 95 142
60 94 137
60 94 132
60 94 137
60 95 131
60 95 141
60 95 130
59 94 127
60 95 136
61 96 142
59 93 133
60 94 129
58 92 130
60 95 141
61 95 133
60 95 139
59 92 123
60 94 137
60 94 137
59 93 133
57 89 116
66 95 103
76 102 111
99 113 77
117 129 40
106 114 18
118 130 0
130 140 0
119 127 0
117 128 0
111 119 0
115 122 0
112 120 0
128 138 0
111 116 0
121 131 0
125 134 0
116 123 0
114 121 0
112 120 0
101 106 0
107 114 0
115 122 0
115 121 0
117 123 0
109 115 0
120 126 0
114 119 0
106 110 0
114 120 0
107 114 0
112 117 0
115 119 0
122 126 0
113 118 0
114 118 0
114 121 0
114 119 0
110 115 0
112 119 0
105 109 0
110 116 0
125 130 0
114 116 0
123 129 0
116 117 0
115 121 0
120 125 0
115 119 0
112 117 0
120 124 0
119 120 0
117 121 0
119 126 0
123 128 0
119 119 0
122 123 0
121 124 0
119 123 0
132 136 0
123 128 0
128 133 0
128 133 0
125 126 0
131 136 0
129 133 0
134 139 0
130 135 0
130 135 0
124 127 0
136 143 0
139 146 0
131 136 0
131 133 0
136 142 0
132 137 0
143 150 0
136 140 0
130 131 0
150 158 0
136 144 0
132 137 0
145 150 0
139 144 0
145 152 0
146 152 0
144 149 0
138 146 0
151 160 0
144 152 0
145 151 0
147 155 0
149 157 0
149 154 0
145 152 0
148 158 0
145 153 0
150 160 0
155 164 0
151 160 0
151 161 0
152 162 0
152 164 0
150 160 0
148 159 0
153 164 0
159 172 0
153 165 0
149 160 0
161 173 0
156 168 0
160 174 0
156 168 0
158 170 0
160 176 0
156 169 0
155 168 0
153 166 0
160 174 0
153 164 0
161 176 0
160 175 0
152 167 0
160 173 0
160 174 0
159 173 0
157 173 0
163 179 0
166 184 0
153 167 0
159 175 0
165 183 0
163 178 0
164 181 0
160 178 0
164 182 0
161 177 0
165 183 0
165 184 0
162 180 0
161 176 0
167 185 0
161 179 0
162 179 0
162 180 0
161 180 0
158 177 0
176 200 95
176 199 76
175 199 62
173 197 67
174 198 72
173 196 67
173 197 88
171 194 62
177 200 76
172 196 84
173 198 88
174 198 88
172 195 62
174 198 57
175 199 80
174 198 80
171 195 57
174 198 84
171 195 72
168 192 72
171 195 84
172 195 62
175 197 76
170 193 62
172 196 72
173 198 88
170 194 72
171 195 72
174 197 57
173 197 84
172 195 67
169 193 67
169 193 80
173 196 72
171 194 62
174 198 76
170 194 72
172 196 76
174 198 67
173 198 84
171 195 62
169 193 62
170 194 76
174 197 84
174 198 99
171 195 88
170 194 57
173 198 80
173 197 76
168 191 57
172 196 84
172 196 67
171 195 72
169 192 67
173 196 80
167 191 76
177 199 92
171 195 67
171 195 51
169 193 67
172 195 76
171 194 80
170 194 84
168 192 67
171 193 76
170 193 36
170 194 76
172 195 62
171 195 84
165 189 51
170 193 72
161 184 103
153 177 114
140 164 139
124 150 153
109 136 158
102 130 167
93 122 162
90 120 164
99 127 174
94 124 172
104 132 169
93 123 173
91 120 162
94 123 156
93 123 170
94 123 161
90 120 170
84 115 167
101 129 160
106 134 168
101 128 161
112 139 166
95 124 165
94 123 168
103 130 162
84 114 168
93 121 162
85 116 165
97 125 175
87 116 166
88 118 171
92 121 174
81 111 172
84 115 170
86 116 169
100 127 176
80 112 172
79 111 171
74 107 170
81 112 170
83 113 170
66 101 171
69 103 165
66 101 167
61 97 169
76 108 166
69 102 159
65 100 166
67 102 167
67 102 168
73 105 165
60 96 159
64 98 161
69 102 157
61 98 161
65 99 158
66 100 161
61 98 162
63 99 158
62 97 154
64 100 158
65 100 158
61 97 152
61 97 154
61 96 162
61 97 157
61 97 160
63 98 151
61 97 164
61 97 153
60 95 150
61 97 161
62 97 153
62 97 157
62 98 160
62 98 161
61 98 161
60 96 153
62 98 160
61 97 154
61 97 156
61 97 157
61 97 151
62 98 156
62 98 159
61 97 152
61 96 152
61 97 152
61 97 152
62 97 155
60 95 149
62 98 160
62 97 157
62 97 153
61 96 150
61 96 152
61 96 150
61 96 154
62 98 161
60 96 143
60 96 151
61 97 150
62 97 158
62 97 155
61 95 143
60 95 140
62 97 158
61 96 151
61 96 149
61 96 142
62 98 156
61 97 151
61 96 150
60 96 141
61 97 149
62 98 156
61 97 155
62 98 158
61 97 149
61 96 149
61 96 151
61 96 140
61 96 145
62 97 151
62 97 149
61 96 147
62 97 145
61 97 151
60 96 143
61 96 150
61 96 142
60 95 142
61 96 144
61 96 144
61 96 144
60 95 145
61 96 149
62 97 148
61 96 148
60 96 148
61 96 148
61 96 147
60 95 143
60 95 143
61 96 143
61 96 142
60 95 140
61 96 141
60 96 145
61 97 150
61 96 143
62 97 150
60 95 141
61 96 142
61 97 147
59 94 133
62 97 149
60 94 139
60 95 135
61 95 136
61 95 136
60 95 144
60 95 141
61 96 140
58 93 134
60 96 144
61 95 139
60 94 126
58 92 124
60 95 135
60 95 137
60 95 144
60 94 134
59 93 128
61 96 142
60 95 135
59 93 136
59 92 130
59 93 130
59 94 126
59 94 131
59 92 120
60 92 117
70 96 98
95 114 79
111 124 54
102 112 25
112 123 8
113 122 0
116 129 0
107 116 0
118 130 0
118 127 0
113 120 0
115 124 0
114 121 0
113 120 0
122 130 0
121 132 0
118 126 0
119 126 0
105 112 0
115 123 0
123 130 0
122 134 0
119 126 0
123 131 0
123 130 0
115 119 0
114 117 0
118 125 0
119 129 0
115 118 0
125 134 0
120 124 0
119 124 0
123 129 0
111 117 0
114 117 0
114 118 0
108 112 0
110 114 0
117 122 0
113 120 0
124 130 0
122 127 0
118 120 0
133 140 0
111 114 0
126 128 0
115 120 0
115 120 0
125 128 0
122 127 0
121 124 0
125 131 0
124 129 0
127 131 0
128 132 0
124 126 0
127 133 0
126 128 0
134 141 0
126 128 0
123 128 0
135 137 0
130 134 0
125 130 0
122 128 0
121 126 0
137 143 0
132 136 0
136 141 0
133 139 0
142 149 0
128 132 0
138 143 0
124 129 0
144 151 0
145 152 0
134 138 0
143 150 0
140 144 0
142 148 0
145 150 0
133 138 0
136 142 0
142 147 0
143 149 0
144 149 0
149 156 0
145 150 0
148 156 0
146 156 0
145 154 0
147 155 0
147 153 0
150 160 0
149 157 0
146 155 0
147 159 0
158 169 0
158 169 0
148 158 0
152 161 0
142 155 0
149 160 0
154 165 0
153 163 0
152 163 0
161 175 0
158 171 0
153 164 0
156 168 0
154 167 0
155 169 0
150 162 0
165 178 0
160 174 0
155 168 0
158 173 0
157 170 0
160 174 0
162 176 0
156 172 0
159 174 0
155 170 0
164 180 0
165 179 0
165 183 0
156 172 0
159 174 0
158 176 0
161 177 0
165 182 0
163 178 0
165 183 0
165 182 0
162 180 0
167 184 0
162 179 0
162 179 0
164 182 0
166 185 0
165 183 0
165 182 0
164 181 0
169 188 0
163 182 0
176 199 84
175 198 92
174 197 57
176 199 72
176 200 80
174 197 76
171 195 44
178 201 95
175 198 76
174 199 80
172 196 80
174 197 67
174 198 76
173 196 76
175 198 67
170 194 76
172 197 80
175 198 88
173 196 72
175 199 80
175 199 84
173 197 67
172 195 67
173 196 76
170 194 72
171 196 62
171 195 76
170 193 67
174 197 72
172 195 67
174 198 76
173 196 51
172 196 57
173 197 72
174 197 62
170 195 95
168 192 67
171 195 80
169 193 51
170 193 51
170 193 62
171 195 72
171 195 72
166 190 76
169 192 92
173 197 84
171 195 84
170 194 80
164 188 84
176 199 88
170 193 44
167 190 44
173 198 92
174 198 67
168 192 62
171 196 88
168 191 72
169 193 80
172 195 80
174 198 80
168 192 92
173 197 88
170 194 76
166 190 57
168 192 57
168 190 62
174 198 92
168 192 76
171 195 80
169 193 72
169 193 62
164 188 86
149 174 110
158 182 110
124 150 133
115 142 152
94 123 161
95 124 174
84 116 173
95 123 164
103 131 172
106 134 176
84 115 163
104 132 163
97 126 168
86 116 168
100 128 169
102 130 171
95 123 168
79 110 163
98 127 172
95 124 164
99 128 166
90 120 169
91 120 170
98 126 166
83 113 159
86 116 159
91 121 168
93 122 176
81 112 165
87 117 167
91 120 161
79 111 158
85 115 172
73 105 163
81 113 175
75 108 166
74 106 168
78 110 177
77 109 172
67 102 171
75 107 169
78 110 173
72 105 169
73 106 167
68 102 169
68 102 168
79 110 168
67 101 163
64 99 160
69 103 159
70 104 166
69 102 160
64 98 161
60 96 158
70 103 159
62 97 156
61 97 161
61 96 161
62 97 159
62 97 160
60 95 159
61 96 153
61 97 156
60 96 157
63 99 160
64 99 161
61 96 149
61 96 152
61 96 153
60 95 151
62 97 158
63 99 165
62 98 159
59 94 148
61 97 159
61 97 159
62 97 155
61 97 158
61 96 154
63 99 164
61 96 145
61 97 151
62 97 151
61 97 161
61 97 152
61 97 157
62 98 158
61 96 148
60 95 148
61 97 150
62 98 155
61 96 148
61 97 158
61 97 151
62 98 159
61 97 154
62 98 156
62 97 156
61 96 150
61 96 149
60 96 152
62 98 160
62 97 152
60 94 137
61 97 154
61 97 148
62 97 150
61 97 154
61 97 153
60 95 139
62 97 155
61 97 154
61 96 150
60 96 144
61 97 152
60 96 142
61 96 147
61 96 145
61 95 140
61 96 148
61 97 151
60 95 142
62 97 152
61 96 149
61 96 143
60 95 147
61 96 144
61 97 153
60 95 133
59 95 142
63 98 154
62 97 150
61 97 153
61 96 148
61 97 147
61 95 137
61 96 149
61 96 142
60 95 139
61 96 148
62 97 148
60 95 143
60 96 145
61 96 148
61 97 152
61 96 142
61 96 143
61 96 137
61 96 147
61 96 144
60 95 137
61 96 147
61 96 139
60 94 141
60 95 137
60 95 137
60 96 147
60 95 140
61 97 148
60 95 131
60 95 142
62 97 147
59 93 134
60 95 131
57 91 127
61 96 143
59 94 130
60 94 134
61 95 138
60 95 131
61 96 143
59 94 126
59 93 130
59 94 133
60 95 136
59 94 134
59 94 127
59 92 124
59 93 124
57 91 116
58 91 120
61 91 100
91 112 96
102 118 85
114 127 47
118 128 0
123 133 0
110 119 0
110 120 0
126 138 0
101 110 0
114 123 0
120 131 0
120 129 0
112 119 0
127 136 0
113 123 0
116 124 0
120 129 0
123 132 0
119 127 0
126 135 0
123 132 0
119 128 0
113 120 0
113 121 0
111 118 0
124 133 0
111 115 0
118 124 0
107 112 0
108 115 0
120 126 0
109 115 0
120 128 0
133 139 0
130 138 0
108 114 0
119 126 0
110 114 0
118 125 0
116 121 0
125 132 0
126 129 0
126 131 0
119 124 0
125 128 0
117 122 0
128 134 0
118 124 0
130 137 0
120 123 0
127 134 0
127 132 0
120 125 0
123 125 0
125 129 0
134 138 0
127 130 0
130 133 0
139 143 0
139 146 0
129 132 0
125 129 0
130 133 0
135 141 0
133 137 0
137 143 0
127 133 0
120 121 0
138 144 0
138 145 0
129 133 0
139 144 0
140 148 0
141 148 0
144 152 0
136 141 0
137 146 0
141 144 0
138 145 0
139 143 0
141 150 0
142 150 0
141 146 0
136 140 0
143 148 0
149 158 0
145 152 0
147 155 0
142 151 0
148 159 0
146 156 0
139 144 0
147 155 0
150 162 0
148 160 0
150 160 0
156 167 0
155 165 0
152 162 0
154 165 0
149 159 0
154 166 0
149 161 0
154 166 0
149 161 0
153 165 0
154 165 0
148 158 0
155 166 0
154 166 0
151 163 0
153 166 0
156 169 0
159 174 0
159 172 0
162 177 0
157 168 0
159 177 0
161 175 0
152 166 0
159 175 0
164 180 0
159 174 0
163 179 0
162 177 0
167 184 0
157 173 0
160 175 0
157 172 0
162 178 0
167 184 0
165 181 0
164 181 0
161 179 0
161 178 0
163 179 0
163 180 0
163 180 0
166 182 0
162 181 0
162 178 0
164 183 0
163 178 0
163 181 0
165 182 0
170 188 0
172 197 72
173 197 88
177 201 84
174 198 80
175 198 67
174 198 80
172 196 84
172 197 102
172 195 67
172 195 88
173 197 84
174 198 72
173 196 51
173 197 67
174 197 67
171 195 67
171 194 72
172 196 51
175 199 67
170 193 80
174 197 76
172 196 67
173 197 44
171 195 62
174 198 76
172 195 80
168 192 67
169 193 67
171 196 72
171 195 99
170 194 67
169 192 62
170 194 80
174 198 84
172 196 84
171 195 62
171 196 72
170 193 84
173 197 92
172 196 67
171 196 88
172 196 57
171 195 84
172 195 76
170 194 72
168 193 80
172 195 72
173 196 67
170 194 51
172 196 76
171 194 72
168 191 88
170 194 84
169 193 76
168 190 62
169 193 84
173 195 72
168 192 67
169 192 84
170 193 44
165 190 80
170 193 72
170 194 80
170 193 76
168 192 88
167 192 72
168 191 88
167 190 62
171 195 57
163 186 51
166 189 76
165 188 62
159 182 107
157 181 108
138 163 131
128 154 126
110 137 157
89 119 163
96 125 173
102 131 172
94 124 174
96 124 162
92 122 165
93 122 164
97 126 164
101 129 164
92 121 177
81 111 153
95 123 170
97 125 163
98 125 154
101 129 157
100 127 163
98 126 163
103 129 154
95 124 155
89 119 166
94 122 164
102 130 166
86 116 169
86 116 168
87 117 159
92 121 166
89 119 176
102 129 169
79 110 164
86 116 173
75 106 167
86 116 170
87 117 175
85 115 173
68 102 166
70 103 169
80 111 166
66 101 170
88 117 170
77 109 174
75 107 164
64 99 161
71 103 162
75 107 164
79 110 167
62 96 151
74 106 160
68 101 163
64 99 162
66 99 157
62 98 165
65 99 155
63 99 163
62 97 154
60 95 148
63 98 144
62 98 160
60 95 152
61 96 158
61 97 155
60 95 143
63 97 149
61 96 147
61 97 160
61 96 156
62 98 161
61 96 153
61 97 157
62 98 160
62 98 157
61 97 159
62 97 150
60 96 150
60 96 154
61 97 150
61 97 157
62 98 163
60 94 143
61 97 158
60 96 148
61 97 158
61 96 151
61 97 155
62 97 162
62 97 157
60 95 144
61 96 155
61 97 151
63 98 160
62 98 156
61 97 155
62 98 163
62 97 150
62 97 148
61 96 148
62 97 151
61 96 148
62 98 154
62 97 154
61 96 150
61 96 150
61 96 149
61 97 151
61 96 143
61 96 145
61 96 148
62 98 154
62 97 152
61 96 149
63 99 162
61 97 150
60 95 147
61 97 149
62 97 150
61 96 149
60 96 145
61 96 151
62 97 151
60 96 144
61 96 144
61 97 148
62 97 148
61 97 145
61 97 152
60 94 133
61 96 148
62 97 150
60 95 140
61 96 141
61 97 144
60 95 144
62 97 151
61 96 147
60 95 141
61 96 151
59 94 133
62 98 151
60 95 139
62 97 150
60 95 140
62 97 152
61 97 145
61 96 145
59 94 133
61 96 136
61 96 142
60 95 135
60 95 140
61 96 148
59 93 133
61 96 139
62 97 143
61 96 140
61 96 139
62 97 140
60 95 131
60 94 133
59 93 129
60 95 141
60 94 133
60 94 133
61 95 139
60 94 129
60 94 133
57 91 121
60 95 126
60 95 136
60 95 133
61 95 139
59 93 130
57 90 117
58 91 116
58 92 124
58 91 126
60 94 136
57 90 111
72 98 105
89 111 94
98 114 51
114 126 25
113 125 0
124 136 0
110 120 0
118 127 0
124 136 0
120 132 0
116 125 0
109 117 0
113 123 0
114 124 0
125 134 0
121 131 0
118 128 0
121 129 0
129 139 0
116 124 0
114 121 0
121 128 0
116 120 0
128 138 0
112 118 0
102 111 0
108 117 0
118 126 0
115 122 0
112 121 0
107 113 0
101 106 0
117 123 0
112 119 0
120 128 0
123 128 0
114 119 0
124 132 0
121 127 0
118 125 0
116 121 0
124 129 0
118 125 0
126 133 0
113 120 0
123 128 0
116 121 0
122 128 0
135 144 0
120 128 0
127 131 0
113 116 0
128 134 0
121 127 0
127 133 0
129 135 0
130 135 0
128 133 0
125 128 0
124 129 0
126 133 0
138 143 0
120 123 0
128 134 0
133 136 0
138 144 0
136 141 0
135 141 0
133 137 0
139 143 0
126 131 0
141 148 0
146 154 0
138 143 0
127 132 0
136 144 0
135 141 0
133 138 0
136 139 0
140 147 0
136 141 0
136 142 0
140 147 0
147 154 0
146 154 0
144 153 0
152 161 0
145 154 0
148 157 0
147 154 0
155 163 0
145 153 0
146 155 0
152 164 0
141 148 0
147 156 0
152 162 0
145 153 0
150 160 0
154 166 0
159 172 0
150 161 0
157 168 0
157 173 0
154 168 0
153 166 0
158 170 0
159 171 0
154 165 0
158 174 0
157 172 0
155 168 0
155 169 0
156 170 0
153 166 0
156 171 0
159 171 0
163 178 0
161 174 0
160 176 0
159 173 0
162 178 0
163 178 0
159 172 0
159 173 0
163 180 0
161 176 0
161 177 0
164 182 0
162 178 0
163 178 0
159 175 0
166 183 0
163 180 0
160 175 0
163 179 0
162 179 0
163 181 0
164 181 0
166 184 0
164 182 0
167 186 0
163 182 0
165 183 0
167 186 0
163 181 0
164 180 0
172 195 51
174 198 62
175 199 84
177 200 67
175 198 72
173 196 57
176 200 92
175 198 88
171 194 51
175 198 72
173 197 88
174 199 92
172 195 72
175 198 84
173 197 95
170 193 57
173 197 62
174 198 84
173 196 62
168 192 72
173 197 84
173 197 76
174 197 67
170 193 80
171 196 84
173 197 80
168 191 72
172 195 76
175 199 80
166 190 72
169 193 57
175 198 67
170 194 76
168 192 62
172 196 95
171 195 80
169 193 84
169 193 51
171 194 76
172 196 72
169 192 51
168 192 72
174 198 95
169 193 72
172 195 80
173 196 72
167 191 62
174 197 76
170 194 76
167 191 92
171 195 80
162 185 76
169 193 88
169 193 76
168 192 67
170 193 80
171 194 62
166 190 72
167 190 67
167 191 67
167 190 44
164 188 76
170 194 80
165 187 62
166 190 62
166 190 72
167 191 80
166 189 57
164 187 51
168 191 80
168 191 62
165 188 76
164 187 86
159 182 95
140 165 121
140 165 122
100 128 145
90 120 162
97 126 165
88 117 159
99 128 160
88 118 163
94 123 172
91 121 164
106 133 171
100 128 167
100 128 167
107 134 164
93 123 161
101 129 163
93 122 162
93 122 163
99 127 156
91 120 157
102 129 158
107 134 165
98 126 175
102 131 175
92 121 159
92 122 164
95 124 166
85 116 162
86 116 170
82 112 164
85 115 163
78 109 165
101 128 164
82 113 171
93 121 175
86 116 173
86 116 172
80 111 168
79 110 173
70 104 175
74 107 175
82 112 164
71 104 169
64 99 162
69 102 166
77 108 169
71 104 170
69 103 157
67 101 165
62 97 151
66 100 160
61 97 160
67 100 161
65 99 161
61 96 156
66 100 156
63 97 155
64 98 150
61 96 144
62 96 152
60 95 152
61 96 154
61 96 150
61 97 152
61 97 157
61 96 150
62 97 157
62 98 161
62 97 153
60 95 145
60 95 143
61 96 149
61 97 153
62 98 158
61 96 151
61 97 157
62 98 153
61 96 148
63 99 165
61 97 148
61 97 151
61 97 154
61 96 143
61 96 156
61 96 145
62 97 156
62 98 158
62 98 154
61 97 149
61 97 152
61 96 148
61 97 151
60 96 143
61 96 148
62 97 160
61 96 148
61 96 150
61 96 147
61 96 149
61 96 144
61 96 152
61 96 148
60 95 142
62 97 150
62 98 156
62 97 152
61 96 141
61 96 151
61 96 147
62 97 148
61 96 145
62 97 154
61 96 150
61 96 144
61 96 150
61 97 151
62 97 155
60 96 135
61 97 153
61 96 143
61 96 145
60 95 136
60 96 147
61 96 145
61 96 145
61 97 152
62 97 149
61 97 155
61 97 151
61 96 136
61 96 142
61 96 147
61 96 145
61 96 147
61 96 142
61 96 149
61 97 151
60 95 137
61 96 143
61 96 139
60 94 134
60 95 147
61 96 147
60 95 142
61 96 141
60 95 139
60 95 143
61 96 137
62 97 143
61 96 139
60 95 141
60 95 136
60 95 133
61 96 145
61 96 144
59 94 139
59 93 133
61 95 139
61 96 137
61 96 144
60 94 135
61 97 150
60 94 142
60 94 130
60 95 137
59 94 134
59 94 134
60 94 135
58 92 120
60 94 132
61 95 133
60 94 132
57 90 118
60 94 139
58 91 114
58 92 120
60 94 137
58 91 122
62 92 120
85 107 89
104 122 74
116 129 25
117 128 31
113 123 0
117 129 0
121 133 0
121 134 0
115 123 0
123 133 0
107 114 0
116 127 0
114 123 0
108 117 0
116 126 0
122 131 0
125 135 0
107 113 0
112 119 0
122 131 0
123 132 0
123 133 0
104 112 0
111 120 0
126 134 0
121 131 0
122 132 0
120 129 0
121 128 0
120 127 0
112 117 0
117 127 0
127 134 0
121 126 0
125 131 0
110 115 0
122 128 0
120 124 0
110 118 0
120 125 0
116 119 0
123 131 0
120 128 0
125 129 0
114 120 0
115 118 0
131 137 0
120 125 0
128 130 0
130 136 0
119 128 0
119 123 0
133 140 0
126 131 0
128 130 0
130 139 0
134 143 0
116 118 0
121 124 0
128 129 0
134 141 0
130 134 0
131 136 0
136 142 0
127 132 0
138 144 0
128 133 0
135 143 0
133 139 0
134 144 0
133 138 0
138 149 0
146 154 0
146 154 0
130 139 0
141 148 0
136 143 0
136 144 0
131 138 0
135 141 0
142 150 0
139 144 0
139 150 0
139 149 0
147 155 0
144 153 0
146 153 0
146 153 0
146 156 0
152 162 0
151 161 0
146 154 0
146 156 0
149 160 0
150 159 0
146 159 0
154 163 0
147 157 0
154 166 0
149 162 0
153 165 0
149 158 0
156 167 0
155 167 0
157 171 0
154 167 0
153 166 0
151 162 0
159 174 0
159 174 0
163 178 0
151 163 0
159 172 0
156 169 0
160 174 0
150 163 0
155 169 0
159 175 0
156 168 0
158 172 0
157 173 0
163 179 0
164 181 0
161 175 0
162 177 0
157 170 0
162 176 0
164 182 0
164 179 0
160 177 0
162 179 0
165 184 0
160 176 0
162 178 0
162 180 0
163 180 0
163 179 0
155 171 0
162 179 0
161 179 0
164 181 0
166 183 0
162 178 0
168 187 0
169 188 0
162 180 0
167 188 0
175 198 102
173 196 67
170 194 67
175 199 88
174 198 92
169 193 67
174 198 76
175 198 84
171 195 67
168 192 67
170 194 92
171 195 57
173 197 72
175 199 88
173 197 84
173 197 62
170 194 80
171 194 88
173 196 67
168 192 51
170 194 67
171 194 62
174 197 84
168 192 76
174 197 72
172 195 72
171 194 72
173 197 88
172 195 62
171 195 51
170 195 76
170 194 62
170 194 72
171 194 67
172 195 44
170 194 62
174 197 72
174 198 92
171 195 67
173 197 67
172 195 72
169 193 72
169 193 62
165 189 80
166 190 62
170 194 80
165 189 80
170 193 72
169 192 72
168 192 92
170 194 67
165 189 51
167 191 62
171 194 76
169 193 88
169 191 57
169 193 88
170 193 76
166 189 67
167 190 67
165 188 51
163 187 72
170 194 88
171 195 72
172 196 80
166 190 76
169 192 44
170 193 67
164 188 62
163 186 67
163 186 57
167 191 92
165 188 72
162 186 94
154 178 110
147 172 127
119 145 139
103 131 155
96 125 160
95 125 179
89 119 168
98 127 169
95 124 169
97 126 172
96 125 170
108 135 177
95 124 167
99 127 157
95 123 155
103 131 163
89 117 158
95 123 166
87 117 161
99 127 171
99 128 171
90 120 163
95 123 162
101 128 154
96 125 163
97 125 167
102 130 166
94 122 164
83 113 163
90 120 172
88 117 163
87 117 166
88 117 169
83 114 165
91 120 166
77 108 169
80 112 165
77 109 167
81 112 175
74 106 167
81 111 167
69 103 168
73 106 169
72 105 168
71 104 163
78 109 162
69 103 167
68 103 169
80 110 165
82 112 164
72 104 164
68 100 157
64 99 160
64 99 158
65 99 159
67 101 157
63 97 156
63 97 156
64 98 156
60 96 153
60 95 150
61 96 150
60 94 145
61 96 147
63 99 158
62 97 157
64 99 154
61 97 158
63 98 151
61 97 153
62 98 163
62 98 155
61 96 157
61 97 153
61 96 147
60 95 147
62 97 152
61 96 156
62 98 157
60 95 149
62 97 154
60 95 144
61 96 146
61 96 145
61 97 150
61 97 151
60 95 148
61 97 159
60 96 145
60 95 141
62 98 155
62 97 152
63 98 156
61 96 151
60 95 149
62 98 154
62 98 157
62 98 157
60 95 143
61 96 151
61 96 149
60 95 145
61 96 151
62 98 161
62 97 147
62 97 153
61 96 143
61 96 149
61 96 148
62 97 145
61 96 144
60 96 147
61 97 150
61 96 139
61 97 152
61 96 148
62 97 145
60 95 148
61 96 147
61 96 142
61 96 147
61 96 149
61 97 149
61 96 145
62 97 153
62 98 154
61 96 144
60 96 148
61 96 147
62 97 147
62 97 156
62 98 155
60 95 141
60 95 131
62 98 154
61 96 149
61 96 149
60 95 135
62 97 142
60 95 144
59 94 129
62 97 142
60 95 140
60 95 140
61 96 144
60 94 134
60 94 130
62 97 144
60 94 137
60 95 136
59 94 133
59 94 127
60 95 136
61 96 141
59 94 130
61 96 139
60 94 134
61 96 141
60 95 141
61 96 135
62 97 144
60 95 133
60 95 140
60 94 132
59 94 126
60 94 131
60 94 128
59 93 130
60 94 130
59 93 128
59 93 131
58 91 121
58 93 129
59 93 125
60 94 131
57 90 119
59 93 130
66 96 121
82 108 110
92 110 68
105 122 62
118 130 25
116 126 0
130 141 0
110 120 0
119 133 0
132 145 0
123 134 0
107 116 0
119 128 0
107 115 0
118 127 0
121 133 0
110 119 0
104 115 0
116 126 0
122 131 0
119 129 0
115 125 0
123 132 0
115 121 0
117 125 0
133 142 0
122 130 0
124 130 0
120 125 0
123 133 0
115 124 0
120 126 0
125 132 0
119 126 0
114 122 0
119 127 0
124 130 0
115 123 0
120 130 0
123 129 0
118 125 0
126 133 0
120 126 0
113 118 0
130 137 0
129 137 0
118 124 0
118 122 0
122 128 0
130 134 0
129 135 0
123 128 0
124 131 0
119 124 0
132 139 0
137 144 0
130 134 0
132 139 0
129 136 0
128 133 0
139 143 0
133 138 0
123 128 0
130 135 0
135 142 0
124 130 0
129 137 0
140 146 0
127 131 0
135 139 0
137 143 0
142 149 0
139 145 0
135 143 0
135 141 0
140 147 0
136 143 0
141 151 0
155 162 0
132 138 0
149 161 0
140 147 0
145 152 0
138 146 0
149 158 0
138 147 0
142 151 0
140 150 0
145 155 0
157 167 0
146 153 0
152 162 0
147 156 0
143 154 0
147 157 0
149 159 0
141 148 0
157 169 0
154 163 0
154 166 0
157 170 0
148 156 0
147 158 0
151 161 0
155 166 0
153 165 0
155 169 0
157 170 0
155 168 0
152 162 0
159 173 0
155 168 0
164 180 0
160 174 0
153 166 0
156 169 0
156 168 0
155 168 0
161 177 0
157 173 0
163 178 0
156 170 0
157 173 0
162 179 0
164 181 0
159 174 0
159 175 0
165 181 0
159 174 0
164 178 0
158 172 0
164 182 0
164 180 0
163 181 0
165 184 0
162 180 0
164 182 0
164 178 0
167 184 0
166 184 0
163 181 0
164 182 0
166 183 0
166 184 0
162 180 0
157 175 0
168 188 0
166 184 0
165 182 0
170 193 57
173 197 88
174 197 44
174 198 62
172 195 62
171 195 72
175 199 80
173 197 72
172 196 80
171 195 72
173 197 84
172 196 84
172 195 62
167 192 57
173 196 84
172 195 62
169 192 62
170 194 84
172 197 72
173 196 92
170 194 76
173 196 67
173 197 72
172 197 84
173 197 88
173 197 80
169 192 51
171 193 51
171 195 80
168 192 67
172 196 84
171 195 76
172 196 88
169 192 76
169 193 88
170 195 92
168 192 88
170 194 51
174 196 72
172 197 88
171 195 72
173 196 67
168 191 76
171 195 76
168 193 80
170 194 62
169 193 72
167 191 84
168 191 72
168 191 72
167 190 57
172 195 67
170 194 95
164 188 76
170 194 84
169 193 76
169 192 76
169 192 80
169 193 57
168 192 84
171 195 62
173 196 92
169 193 84
169 192 84
170 194 92
167 191 67
170 192 67
166 190 80
167 191 84
165 188 88
168 190 72
170 193 72
167 190 72
164 188 88
158 181 95
145 170 103
130 154 126
106 133 149
98 127 168
92 122 164
90 119 159
82 113 164
99 128 167
94 123 169
91 121 159
94 123 162
97 125 168
99 127 159
96 123 160
98 126 166
99 127 166
95 122 167
94 123 156
95 123 160
104 131 171
96 125 170
93 122 161
92 120 154
94 122 167
99 127 163
89 119 171
90 119 156
89 118 171
98 125 164
83 113 161
90 120 175
85 115 163
81 111 167
87 117 166
82 113 169
88 117 178
84 115 166
74 106 166
81 111 170
75 108 163
68 102 164
78 109 167
68 102 173
73 105 167
71 104 168
64 98 159
66 100 158
76 107 167
70 103 158
67 99 147
69 103 169
70 103 157
70 103 155
66 100 156
66 100 159
67 101 161
64 99 160
61 97 159
63 97 155
64 98 148
64 99 155
63 98 150
64 99 162
62 96 141
60 95 149
60 96 150
59 94 156
63 98 153
61 96 149
61 96 149
61 96 156
60 95 145
61 97 154
61 97 150
60 96 153
62 98 156
61 96 149
63 98 160
61 97 156
61 96 149
62 97 154
61 96 151
62 98 154
61 96 149
61 97 150
61 96 150
61 97 152
61 96 151
62 97 152
61 97 154
61 97 152
62 97 154
60 95 142
61 97 149
60 95 149
61 96 149
61 97 150
62 98 155
61 96 148
61 96 149
61 96 144
61 97 152
61 96 142
61 96 152
60 95 148
62 97 153
61 97 150
60 95 150
62 98 153
61 96 152
62 97 141
62 98 157
61 97 150
61 96 145
60 95 145
60 94 136
61 96 148
60 95 142
62 98 153
61 96 144
60 95 139
61 96 144
61 96 150
59 95 141
61 96 139
62 97 152
60 96 148
61 97 148
61 96 149
60 95 140
61 96 144
60 95 145
61 96 147
60 95 137
61 96 143
60 95 145
61 96 142
60 95 141
61 96 136
61 96 142
60 95 137
60 95 142
59 93 130
60 96 140
61 97 144
60 94 127
61 96 136
61 96 141
61 96 145
61 96 137
61 96 148
60 95 137
61 96 144
61 96 140
59 93 120
60 95 135
59 93 131
60 95 142
59 93 134
60 94 131
59 93 125
61 96 137
60 94 137
60 95 136
59 93 133
60 94 134
61 95 133
59 94 128
59 93 135
58 91 120
59 93 121
58 92 120
59 93 129
59 92 124
57 91 118
58 91 125
63 93 105
85 106 84
101 117 54
113 126 47
117 130 18
114 123 0
131 144 0
131 144 0
121 133 0
124 136 0
111 121 0
117 127 0
113 124 0
110 120 0
110 121 0
116 128 0
123 134 0
126 138 0
129 140 0
128 139 0
117 126 0
119 126 0
127 138 0
129 140 0
114 125 0
116 128 0
117 127 0
128 137 0
126 138 0
117 125 0
129 139 0
119 124 0
122 131 0
132 140 0
124 128 0
111 116 0
116 124 0
121 128 0
128 136 0
111 117 0
122 129 0
123 132 0
114 117 0
124 133 0
123 131 0
125 132 0
132 140 0
119 126 0
131 139 0
129 136 0
137 143 0
132 140 0
134 142 0
121 128 0
133 140 0
131 137 0
133 141 0
131 134 0
131 136 0
137 142 0
127 132 0
131 138 0
136 144 0
131 138 0
134 140 0
132 139 0
135 142 0
128 132 0
132 139 0
142 150 0
143 153 0
134 141 0
135 143 0
130 135 0
138 145 0
135 142 0
145 156 0
145 155 0
138 144 0
143 153 0
148 155 0
144 152 0
145 154 0
145 150 0
143 155 0
145 156 0
143 152 0
147 158 0
145 154 0
146 156 0
148 157 0
149 158 0
154 167 0
147 157 0
150 162 0
149 158 0
145 153 0
155 165 0
145 156 0
146 156 0
153 164 0
154 165 0
157 168 0
156 170 0
157 169 0
158 169 0
156 170 0
154 165 0
152 163 0
160 173 0
159 174 0
156 169 0
152 163 0
157 170 0
153 167 0
160 172 0
159 174 0
155 169 0
158 172 0
161 177 0
157 172 0
164 181 0
162 178 0
158 173 0
158 171 0
158 172 0
155 170 0
159 176 0
163 180 0
160 174 0
165 182 0
164 182 0
160 175 0
164 180 0
162 178 0
163 183 0
159 177 0
163 180 0
161 178 0
164 183 0
162 179 0
161 178 0
165 181 0
165 183 0
161 179 0
161 179 0
168 187 0
166 184 0
164 183 0
170 195 67
175 198 88
172 196 76
178 201 99
174 198 76
175 198 72
173 197 80
170 195 88
173 197 80
174 198 76
173 197 80
173 197 80
175 199 95
171 195 76
174 197 72
175 198 95
170 194 67
172 196 67
169 194 72
170 194 76
172 195 72
171 195 80
168 191 57
172 196 80
168 191 57
171 195 72
166 189 72
172 196 67
172 197 76
172 196 72
173 197 88
169 193 57
172 196 51
170 194 80
169 192 57
168 192 76
170 193 67
172 197 95
170 194 62
169 193 76
167 191 57
171 195 84
170 194 80
172 196 67
169 192 51
166 190 67
170 194 67
169 193 76
170 193 57
164 188 57
170 194 67
170 193 92
170 194 76
168 191 44
172 196 95
172 195 88
174 197 84
166 190 80
168 192 67
170 193 88
174 197 72
167 192 72
166 189 67
168 192 88
164 188 44
162 186 72
168 190 51
164 188 67
169 192 76
165 188 80
172 196 67
165 189 62
171 194 95
169 192 76
157 180 100
154 177 90
142 167 133
118 144 125
108 135 141
97 125 161
97 126 163
85 116 162
96 125 172
95 123 161
93 122 164
95 124 172
92 121 166
99 126 161
93 122 167
98 126 170
79 110 158
98 127 169
98 125 158
95 124 161
97 125 157
89 119 157
94 122 157
94 123 160
84 114 161
98 125 156
88 118 156
88 117 166
95 124 160
103 129 167
82 112 161
82 112 165
96 124 170
80 111 166
94 121 162
86 116 160
91 120 164
82 112 162
77 108 161
72 105 166
66 101 167
78 109 170
78 110 168
67 102 170
64 99 159
67 101 165
71 104 163
68 102 166
73 105 163
72 105 167
66 100 160
71 105 169
64 99 162
61 96 149
63 98 159
65 100 158
62 97 155
66 99 154
65 99 154
63 98 154
63 97 149
61 96 141
63 98 157
63 97 151
63 98 149
62 98 159
60 95 141
61 97 151
61 97 154
61 96 150
60 96 150
60 96 154
61 96 154
61 96 149
61 96 143
61 97 157
63 98 158
61 96 148
62 98 156
61 96 154
62 97 156
61 96 154
60 96 148
61 96 141
62 98 151
62 98 156
61 96 144
61 97 158
61 96 155
61 96 145
61 96 147
63 98 155
61 96 154
61 96 145
62 97 148
63 98 158
61 96 143
62 98 159
61 96 142
62 97 148
61 96 149
62 97 153
61 97 148
61 96 148
60 95 144
61 96 140
60 95 139
63 99 158
60 95 142
62 98 155
61 96 154
62 97 150
60 95 150
61 96 147
61 97 152
61 97 150
61 96 148
60 94 139
61 96 148
60 95 148
60 95 142
61 96 142
62 97 143
60 96 143
61 96 144
60 95 140
62 97 147
62 97 150
61 97 150
61 97 150
59 94 126
60 95 140
60 95 139
62 98 154
61 96 141
60 95 144
61 96 142
61 97 149
60 94 144
61 97 152
61 96 145
60 94 137
61 95 144
61 95 140
61 96 143
61 96 143
60 95 144
61 96 140
61 96 142
61 96 144
62 97 140
61 96 145
60 95 134
60 94 134
60 94 125
59 94 133
61 95 141
60 95 139
60 95 133
59 93 130
61 96 142
60 95 135
61 96 140
60 95 131
60 94 131
60 95 139
60 94 133
58 92 117
61 95 135
59 93 124
60 94 131
58 91 120
60 94 127
57 89 118
59 92 126
58 91 122
63 93 107
83 106 101
88 105 60
104 121 62
123 136 36
116 128 18
111 122 0
118 128 0
114 125 0
129 141 0
128 140 0
123 134 0
116 129 0
124 136 0
129 141 0
117 126 0
125 134 0
127 138 0
134 145 0
127 137 0
126 135 0
130 139 0
118 127 0
120 129 0
121 130 0
127 137 0
127 136 0
120 130 0
124 132 0
127 138 0
128 138 0
121 130 0
122 131 0
124 132 0
133 142 0
131 140 0
122 129 0
128 136 0
130 138 0
135 145 0
118 122 0
128 137 0
126 133 0
120 126 0
130 138 0
125 134 0
127 134 0
131 137 0
118 124 0
129 139 0
132 140 0
123 129 0
129 139 0
119 124 0
128 134 0
124 133 0
117 120 0
125 133 0
114 122 0
131 139 0
131 141 0
135 140 0
133 138 0
137 144 0
135 139 0
139 150 0
134 139 0
134 139 0
131 141 0
142 149 0
130 136 0
139 146 0
131 138 0
141 150 0
131 138 0
145 154 0
137 148 0
143 153 0
139 147 0
140 147 0
133 143 0
132 141 0
137 142 0
133 139 0
145 155 0
142 154 0
143 148 0
141 149 0
153 161 0
144 155 0
144 154 0
152 162 0
149 158 0
152 163 0
149 160 0
139 149 0
150 163 0
154 167 0
145 156 0
150 161 0
151 161 0
148 160 0
154 162 0
154 169 0
155 167 0
156 168 0
152 162 0
157 170 0
152 166 0
156 168 0
153 166 0
158 170 0
159 172 0
159 171 0
154 166 0
149 159 0
158 174 0
160 177 0
159 174 0
153 167 0
163 181 0
158 170 0
159 177 0
163 178 0
159 173 0
164 182 0
155 169 0
156 170 0
163 181 0
160 176 0
159 176 0
159 173 0
159 175 0
162 176 0
160 176 0
159 176 0
160 174 0
160 178 0
163 180 0
157 172 0
160 175 0
165 183 0
165 183 0
164 181 0
162 179 0
166 184 0
169 187 0
165 184 0
162 179 0
167 185 0
175 199 80
174 198 84
174 197 84
173 197 62
174 198 76
173 197 57
170 193 51
173 197 80
173 197 67
173 197 84
170 193 72
170 194 80
171 194 76
174 199 80
169 193 62
170 194 76
170 193 62
172 196 80
173 198 99
171 195 76
166 189 44
172 196 72
171 195 72
172 196 44
171 196 67
174 198 92
170 193 80
169 193 76
171 195 72
169 193 62
170 193 62
169 193 72
171 196 88
166 191 51
173 197 88
171 195 99
169 193 80
166 190 51
169 194 80
165 189 62
170 193 67
171 194 88
171 195 62
169 193 51
168 191 80
162 186 76
169 193 95
173 197 76
169 193 76
168 193 62
165 188 51
168 192 72
166 189 67
166 190 80
166 190 57
168 192 67
168 192 67
168 191 88
165 189 57
166 189 92
167 191 84
170 194 76
166 189 72
165 188 80
170 193 72
164 188 80
168 190 67
168 191 76
165 189 72
167 191 84
163 187 88
168 190 44
164 188 67
161 185 57
158 182 67
157 179 94
145 170 114
129 154 125
108 134 144
86 115 145
93 122 162
88 117 152
89 119 170
93 122 166
97 126 171
91 120 161
90 119 157
84 114 163
101 128 164
89 118 170
101 128 160
98 125 165
93 122 170
98 126 161
91 121 156
96 123 163
89 119 162
103 130 163
105 132 164
100 128 165
94 122 160
89 119 163
102 129 168
87 117 173
89 118 151
85 114 156
89 119 150
97 124 168
81 112 169
80 111 158
92 121 168
83 113 168
85 115 162
78 109 162
79 110 174
78 109 166
80 111 162
72 105 165
67 102 166
66 101 162
70 103 158
64 99 160
71 104 161
65 100 162
76 107 167
70 102 158
63 97 157
65 100 166
72 103 159
65 99 154
68 102 154
62 96 149
61 96 156
64 98 150
65 100 155
60 95 149
62 97 156
60 96 145
63 98 154
62 97 151
64 98 145
61 96 150
61 97 150
63 98 152
61 96 146
62 97 156
61 97 154
62 97 151
62 97 157
59 94 148
61 96 149
62 98 159
60 96 147
61 97 148
60 96 148
62 97 151
61 96 153
62 97 149
61 96 144
61 96 149
62 98 156
61 96 150
62 98 157
60 95 141
61 95 147
61 96 149
61 96 145
61 96 145
61 95 147
61 97 150
60 95 134
60 95 142
61 97 145
62 97 150
62 97 151
60 95 142
61 96 147
62 97 150
60 95 139
61 96 145
61 97 151
61 97 152
61 97 151
61 96 145
60 95 140
60 95 142
61 96 142
62 97 150
61 97 148
62 97 151
60 95 135
60 95 142
61 96 140
62 97 149
61 96 149
62 97 150
60 95 140
58 93 127
61 95 144
61 96 137
60 95 139
61 97 144
61 96 145
60 95 141
61 96 140
60 96 140
61 96 150
61 96 144
62 97 148
61 96 141
60 95 145
61 96 140
61 96 143
60 95 134
60 95 139
59 94 135
59 93 126
58 92 124
60 95 136
60 95 135
61 95 141
59 93 136
61 95 137
60 95 133
61 96 149
59 94 135
59 93 133
60 94 135
61 96 139
60 94 130
60 95 136
60 95 140
59 93 125
62 97 153
60 94 133
61 95 141
60 95 140
61 95 137
60 94 130
58 92 117
58 93 120
58 92 120
59 93 131
59 93 127
58 91 120
60 94 128
57 91 117
58 91 121
58 91 114
58 91 118
74 102 114
92 113 96
100 117 72
116 128 26
113 126 0
123 135 0
130 141 0
118 128 0
121 132 0
124 136 0
125 136 0
122 132 0
112 123 0
116 127 0
116 124 0
120 132 0
128 140 0
131 144 0
122 132 0
119 128 0
120 129 0
137 148 0
125 137 0
125 136 0
116 123 0
125 137 0
114 123 0
125 132 0
117 127 0
122 130 0
121 131 0
129 140 0
118 126 0
123 131 0
123 133 0
118 125 0
132 141 0
122 133 0
125 134 0
125 134 0
135 147 0
122 130 0
131 139 0
125 135 0
135 143 0
124 133 0
127 135 0
126 136 0
128 136 0
130 137 0
127 133 0
130 136 0
125 133 0
134 143 0
127 137 0
123 129 0
128 137 0
145 155 0
134 143 0
127 134 0
133 141 0
121 128 0
130 136 0
133 142 0
136 143 0
145 153 0
143 151 0
130 136 0
131 138 0
133 142 0
135 144 0
138 144 0
129 133 0
142 151 0
141 150 0
143 151 0
136 145 0
140 151 0
134 141 0
134 143 0
141 150 0
149 158 0
140 148 0
149 159 0
141 153 0
148 156 0
148 157 0
152 164 0
158 167 0
150 161 0
148 159 0
153 164 0
157 168 0
154 163 0
149 162 0
147 159 0
153 164 0
157 167 0
151 165 0
152 165 0
154 167 0
152 161 0
145 156 0
149 158 0
154 166 0
149 161 0
156 168 0
153 169 0
154 167 0
157 171 0
156 171 0
155 171 0
161 174 0
156 169 0
159 174 0
155 170 0
150 163 0
159 171 0
161 175 0
156 170 0
157 173 0
159 173 0
157 172 0
157 174 0
155 170 0
162 179 0
160 175 0
163 179 0
165 181 0
161 176 0
160 176 0
155 168 0
163 180 0
165 180 0
165 182 0
163 180 0
165 183 0
166 183 0
163 181 0
158 173 0
161 177 0
163 181 0
165 184 0
163 181 0
170 189 0
162 180 0
161 177 0
165 182 0
167 188 0
166 183 0
170 193 44
173 197 62
174 197 72
170 194 67
173 196 57
170 193 51
171 195 84
172 196 80
172 196 80
173 196 62
173 197 62
173 196 67
166 190 67
169 193 67
168 192 72
173 196 72
172 195 76
173 195 80
170 194 72
173 196 57
169 192 76
170 195 72
172 197 80
172 197 84
169 193 80
173 197 95
173 197 80
171 196 76
169 192 72
171 195 72
175 198 84
171 195 80
166 190 57
169 192 80
167 190 44
170 194 84
166 190 92
164 188 84
170 194 72
164 188 62
169 193 57
167 192 76
167 190 57
172 196 76
170 195 88
167 192 72
165 188 62
168 193 88
167 192 67
168 191 72
169 193 57
170 192 67
167 191 57
166 190 72
168 192 88
164 188 80
167 191 57
164 188 62
171 195 72
169 192 80
162 185 44
164 187 36
166 191 76
172 196 67
168 191 62
169 193 67
163 188 57
163 186 57
168 191 57
167 190 57
160 184 57
163 187 62
165 188 72
168 191 76
161 185 76
163 186 78
152 176 84
132 157 108
112 138 118
100 127 137
92 121 155
91 121 161
94 122 154
94 122 150
87 117 153
86 115 158
87 117 162
89 119 159
92 121 165
88 117 160
91 120 154
94 123 159
103 129 161
88 117 159
88 117 160
93 121 150
100 127 154
92 121 171
98 125 145
101 129 163
102 129 143
86 116 161
109 135 162
91 119 162
98 125 159
106 132 158
94 122 168
92 120 161
100 128 170
84 114 159
80 112 161
83 113 171
80 111 161
79 110 163
83 113 169
80 111 158
72 105 168
81 111 164
89 117 170
76 107 162
65 100 157
65 99 160
71 104 166
65 98 152
69 103 170
73 105 163
61 96 152
64 98 149
67 100 148
72 103 150
63 98 150
64 99 154
65 99 155
68 102 164
61 95 144
61 96 152
61 96 146
62 96 150
60 95 149
63 97 149
61 96 148
62 97 153
61 97 154
61 96 149
61 97 151
60 95 152
62 97 148
61 96 144
60 96 140
59 94 149
61 96 150
61 96 150
62 97 152
62 97 153
60 95 139
62 97 157
61 96 151
62 97 157
61 96 145
61 97 154
62 97 153
62 97 156
59 94 137
61 96 143
60 95 143
61 96 150
60 95 142
62 97 154
61 96 148
61 96 143
62 98 157
60 95 140
61 96 148
61 96 140
61 97 150
60 95 147
61 96 145
61 97 149
61 96 149
60 95 141
60 96 139
61 96 143
60 96 149
62 97 154
60 95 136
60 95 140
60 95 144
61 96 140
60 95 139
61 96 144
61 96 142
60 95 142
62 97 150
62 97 151
61 96 143
61 96 145
60 96 141
60 95 137
61 96 142
60 95 134
61 96 140
61 96 142
60 95 143
62 97 145
60 94 134
61 95 140
61 96 144
61 96 143
59 94 135
60 95 142
61 96 144
60 95 136
61 96 136
62 97 148
61 96 145
61 95 137
60 95 141
60 95 143
60 95 140
59 94 131
61 96 142
60 95 143
61 96 145
61 96 140
60 95 133
60 94 136
60 95 130
61 96 143
60 94 133
59 94 129
60 94 134
61 95 139
60 94 142
60 94 124
61 95 142
59 93 127
60 95 122
60 94 130
59 93 126
60 95 137
58 91 117
61 96 137
59 92 124
59 92 129
57 91 123
57 90 118
59 92 121
58 92 130
56 88 109
64 93 107
77 103 107
94 113 72
99 116 47
101 114 19
131 143 0
120 132 0
119 133 0
119 130 0
112 125 0
132 145 0
112 124 0
116 127 0
119 131 0
122 131 0
118 131 0
122 134 0
122 133 0
122 134 0
121 135 0
113 126 0
117 127 0
108 118 0
112 124 0
120 130 0
123 134 0
115 125 0
127 139 0
125 134 0
116 125 0
124 135 0
127 137 0
129 142 0
124 134 0
124 135 0
115 124 0
128 137 0
123 134 0
126 137 0
115 122 0
131 140 0
114 123 0
128 135 0
120 131 0
130 138 0
121 127 0
138 150 0
127 132 0
130 139 0
122 129 0
129 141 0
119 126 0
133 140 0
140 151 0
123 130 0
132 141 0
122 130 0
120 128 0
119 126 0
138 147 0
138 147 0
134 141 0
126 136 0
127 134 0
135 142 0
131 139 0
135 144 0
140 148 0
147 156 0
135 144 0
138 148 0
139 147 0
139 145 0
138 143 0
146 156 0
142 152 0
138 148 0
146 156 0
141 153 0
141 149 0
147 157 0
144 153 0
153 164 0
146 155 0
144 155 0
147 158 0
146 154 0
143 154 0
143 153 0
146 157 0
149 159 0
152 161 0
144 154 0
146 159 0
146 157 0
153 166 0
143 154 0
151 161 0
150 162 0
155 167 0
152 163 0
154 167 0
156 169 0
150 164 0
154 169 0
159 174 0
158 170 0
150 162 0
159 174 0
155 168 0
152 167 0
153 166 0
158 172 0
162 178 0
156 169 0
159 175 0
159 175 0
159 172 0
160 177 0
160 174 0
157 172 0
161 176 0
158 172 0
153 167 0
155 167 0
160 175 0
159 172 0
151 165 0
162 179 0
157 173 0
163 180 0
165 181 0
160 171 0
159 176 0
160 178 0
161 179 0
159 177 0
162 178 0
166 183 0
159 175 0
166 184 0
165 182 0
168 186 0
163 181 0
165 184 0
163 181 0
162 180 0
164 181 0
164 179 0
160 176 0
164 184 0
170 194 76
173 197 57
172 197 80
172 195 67
171 195 67
175 199 92
174 199 84
171 195 67
170 195 72
170 194 67
171 195 62
170 194 72
170 193 80
173 196 62
174 198 76
173 198 92
170 194 72
171 194 62
173 198 72
172 196 72
169 193 62
171 195 62
172 196 80
170 194 67
170 195 99
171 195 72
169 193 62
167 191 51
172 196 67
171 195 57
170 194 72
174 198 76
172 196 44
173 196 84
171 194 57
170 194 95
171 195 67
170 194 88
170 194 92
169 193 84
166 190 80
163 187 57
170 194 67
168 193 36
171 194 62
170 194 67
170 194 84
165 189 72
169 193 76
170 193 62
166 189 44
167 190 80
173 196 84
167 191 84
166 190 72
169 191 76
167 192 72
169 193 72
167 190 67
164 189 88
168 191 62
167 191 67
172 196 92
166 190 62
167 192 84
165 189 76
167 191 62
164 187 84
162 185 57
167 191 76
169 192 84
164 187 62
164 187 72
164 187 62
163 186 95
169 193 84
157 180 94
141 165 88
136 160 118
112 137 124
98 126 154
88 118 142
97 125 155
89 118 156
93 122 158
94 121 161
102 130 168
102 130 167
91 119 164
81 112 157
87 116 161
102 130 161
87 116 154
87 116 163
107 133 175
99 127 155
92 120 141
108 134 170
105 131 163
100 127 155
113 139 172
109 135 153
92 120 150
89 118 155
92 121 157
94 122 159
86 116 159
92 121 153
98 126 167
86 116 156
89 117 162
88 117 160
89 118 169
79 111 169
81 111 160
72 105 159
80 110 162
87 116 168
83 112 169
83 113 169
76 108 169
71 103 161
66 100 160
68 101 159
68 101 160
71 104 165
65 98 144
68 102 158
66 100 156
64 99 153
63 98 155
68 100 154
62 97 148
67 101 148
67 101 157
61 96 154
61 97 151
61 96 151
61 95 148
63 97 139
63 97 153
62 97 155
60 95 144
61 96 155
63 98 159
61 96 148
62 97 158
61 96 152
62 98 154
60 95 140
62 97 158
60 96 150
62 97 153
62 97 150
61 97 154
61 96 149
60 95 144
61 97 153
61 97 153
62 97 155
60 96 149
60 96 149
62 98 150
61 96 148
61 95 147
61 95 145
62 98 159
61 97 148
60 95 143
60 96 143
61 96 149
61 97 151
61 96 148
60 95 142
62 97 153
61 96 141
62 97 150
61 96 140
62 97 149
61 96 147
60 96 147
61 96 152
61 96 145
60 94 140
60 95 137
62 97 154
61 97 148
60 95 137
61 96 145
61 95 137
60 95 144
60 95 136
61 97 148
62 97 150
60 95 139
60 95 143
61 96 144
61 95 139
62 97 145
61 96 142
60 95 140
61 95 136
61 96 141
61 97 150
60 94 134
61 96 145
60 95 137
60 95 144
61 96 143
61 95 139
61 96 142
60 95 139
60 95 140
60 95 136
60 95 140
60 95 139
60 95 139
61 96 140
61 96 148
59 94 129
62 97 145
59 94 133
60 96 142
61 96 137
62 97 143
59 93 127
61 95 140
59 94 129
59 93 141
60 94 136
61 95 136
59 94 125
60 94 134
57 91 117
60 94 133
60 94 126
60 94 129
60 94 126
60 95 131
60 95 140
58 92 124
58 91 133
59 93 128
59 92 116
59 93 120
57 90 118
57 91 113
57 89 127
58 92 121
78 102 100
82 101 77
110 126 60
120 132 25
122 136 0
113 126 0
126 138 0
123 134 0
117 130 0
112 124 0
115 124 0
121 133 0
121 132 0
124 136 0
117 129 0
110 121 0
113 125 0
113 122 0
129 141 0
112 126 0
108 119 0
118 127 0
126 139 0
120 130 0
118 128 0
134 148 0
126 135 0
107 115 0
120 129 0
114 127 0
122 133 0
129 138 0
113 122 0
124 132 0
126 135 0
126 135 0
129 140 0
140 149 0
122 129 0
131 142 0
127 137 0
129 141 0
120 129 0
129 138 0
125 135 0
124 137 0
134 142 0
123 132 0
131 140 0
130 139 0
141 152 0
134 143 0
123 133 0
131 137 0
143 153 0
125 133 0
131 140 0
131 137 0
134 143 0
138 147 0
132 140 0
133 142 0
141 151 0
137 147 0
140 151 0
145 156 0
134 145 0
137 145 0
134 142 0
146 153 0
134 142 0
138 147 0
139 148 0
140 147 0
133 141 0
137 147 0
140 151 0
139 148 0
141 150 0
144 152 0
148 159 0
148 159 0
138 145 0
144 156 0
150 160 0
146 154 0
144 153 0
145 156 0
152 162 0
150 159 0
152 167 0
146 157 0
152 163 0
143 155 0
149 161 0
151 161 0
144 157 0
142 152 0
156 169 0
146 157 0
149 162 0
155 168 0
150 161 0
154 166 0
153 167 0
156 170 0
158 172 0
148 160 0
158 172 0
161 175 0
158 173 0
152 164 0
155 169 0
150 163 0
161 176 0
159 174 0
159 172 0
152 165 0
159 176 0
157 169 0
162 179 0
156 172 0
157 173 0
162 178 0
160 175 0
165 182 0
162 178 0
161 178 0
161 176 0
153 170 0
167 184 0
162 179 0
161 180 0
162 180 0
158 175 0
156 173 0
162 179 0
154 170 0
164 183 0
158 175 0
161 178 0
162 179 0
160 176 0
161 180 0
158 175 0
163 183 0
169 186 0
161 178 0
160 178 0
164 182 0
168 188 0
175 198 80
174 198 72
171 194 62
173 197 67
172 196 62
169 193 84
172 195 62
172 195 84
169 192 62
172 197 76
173 196 72
174 198 76
171 195 80
172 196 67
175 198 95
169 193 80
168 192 80
171 194 62
167 191 76
172 196 88
172 196 84
169 193 76
169 193 57
172 196 76
168 193 92
166 191 51
173 197 57
168 192 76
174 197 67
170 194 84
171 195 92
171 195 95
173 197 62
167 191 67
170 193 51
169 193 95
167 190 44
171 195 88
169 193 80
171 195 88
166 190 62
170 195 62
172 196 92
168 193 76
167 192 84
169 192 44
171 195 76
171 196 72
166 191 67
169 193 76
164 187 80
170 194 67
171 195 57
169 193 62
169 193 76
169 192 80
163 188 84
166 190 72
170 195 92
171 194 72
170 193 80
168 192 80
165 190 88
163 186 51
167 190 72
167 191 76
166 190 80
170 194 57
164 188 72
166 189 95
165 188 57
164 188 80
164 188 51
164 187 62
165 188 72
161 184 78
164 188 72
144 167 82
132 155 95
122 147 117
92 120 133
91 120 148
94 122 136
96 124 147
82 112 145
90 119 164
99 127 159
99 125 156
87 117 160
99 128 166
95 122 152
99 125 149
98 126 170
90 119 155
99 126 162
93 120 154
107 131 148
88 117 161
101 129 166
99 127 162
87 117 164
91 119 157
100 127 150
99 126 163
98 125 155
94 122 159
90 118 154
99 126 159
95 123 166
93 121 163
73 105 157
82 112 165
83 112 164
67 101 162
81 111 157
80 112 165
68 102 157
70 103 161
75 107 167
64 98 163
76 107 169
72 103 160
71 104 166
63 98 158
66 100 151
70 103 162
63 98 155
70 103 158
62 97 160
64 98 159
67 100 152
63 97 150
64 99 157
63 97 149
60 96 153
65 98 151
62 97 153
62 96 140
64 99 159
62 96 142
65 99 144
62 97 150
61 97 154
65 100 145
62 98 152
60 95 148
63 98 147
62 98 158
60 95 141
62 97 156
62 97 153
62 98 153
62 97 152
62 98 153
61 96 147
61 96 146
60 95 141
61 96 145
62 97 150
60 95 141
61 96 143
60 95 149
61 95 143
60 95 147
62 98 154
61 96 145
62 97 151
61 96 151
61 97 152
60 95 139
61 96 154
61 96 142
59 94 131
61 96 151
62 98 155
61 96 143
61 96 149
61 96 151
62 96 141
62 97 152
61 96 145
61 96 141
61 96 149
62 97 150
61 96 152
61 96 145
60 94 135
61 96 143
61 95 142
61 97 147
61 96 136
60 95 136
61 96 148
61 97 145
61 97 147
61 96 145
60 95 140
60 95 142
61 97 149
62 97 149
60 95 139
60 94 133
61 96 142
61 96 147
59 94 131
61 96 145
61 97 143
62 97 149
59 94 131
62 97 149
60 95 145
60 95 139
61 96 148
60 95 136
61 96 142
61 97 149
60 94 135
60 95 141
61 96 136
60 94 131
60 94 133
61 96 139
61 95 142
61 95 137
61 96 134
59 93 133
60 95 135
59 93 131
59 93 127
60 94 131
60 95 133
60 95 135
60 95 134
61 95 133
59 93 129
60 94 135
59 93 126
61 96 139
57 91 124
57 89 121
61 95 135
58 91 111
59 93 121
60 93 131
57 91 118
58 92 118
58 92 117
57 89 110
66 94 99
84 106 82
98 116 80
118 131 32
116 129 25
128 141 0
117 132 0
121 135 0
114 124 0
130 145 0
129 143 0
126 140 0
125 136 0
118 127 0
126 139 0
120 130 0
122 134 0
133 145 0
112 121 0
121 135 0
119 129 0
126 139 0
122 134 0
126 139 0
124 136 0
132 145 0
125 137 0
136 148 0
123 133 0
112 121 0
124 137 0
130 142 0
122 130 0
125 132 0
129 141 0
130 143 0
115 128 0
127 139 0
127 137 0
125 139 0
132 143 0
133 141 0
129 138 0
127 134 0
131 139 0
136 143 0
130 137 0
130 139 0
124 135 0
132 143 0
136 143 0
136 147 0
128 136 0
133 143 0
126 132 0
128 139 0
128 137 0
136 146 0
130 139 0
126 135 0
141 150 0
128 138 0
134 142 0
136 146 0
136 145 0
151 161 0
140 151 0
135 143 0
131 141 0
146 157 0
143 152 0
143 152 0
137 145 0
140 150 0
146 158 0
141 150 0
146 156 0
146 156 0
139 149 0
145 153 0
148 157 0
136 145 0
146 157 0
149 160 0
147 158 0
147 159 0
151 161 0
142 152 0
151 163 0
142 153 0
145 157 0
147 159 0
151 162 0
151 163 0
151 163 0
151 160 0
150 162 0
155 169 0
154 167 0
150 163 0
152 165 0
152 163 0
148 159 0
162 177 0
152 163 0
159 175 0
153 168 0
151 165 0
157 169 0
159 174 0
158 173 0
158 171 0
158 173 0
158 173 0
157 170 0
154 168 0
159 174 0
162 177 0
155 167 0
161 178 0
159 174 0
162 180 0
158 173 0
154 171 0
162 178 0
163 180 0
153 168 0
152 167 0
155 169 0
158 173 0
160 175 0
158 175 0
166 183 0
159 178 0
163 180 0
160 176 0
164 180 0
162 178 0
162 180 0
160 174 0
161 179 0
162 178 0
163 181 0
167 183 0
161 178 0
161 179 0
165 184 0
166 183 0
165 184 0
165 185 0
163 183 0
161 181 0
173 196 57
169 193 80
169 192 36
171 194 80
172 196 80
175 199 84
172 196 62
170 194 84
171 194 80
171 194 80
173 197 67
173 197 57
172 196 72
175 198 84
172 196 92
171 195 72
174 197 80
174 198 99
171 195 62
171 196 95
172 197 92
174 198 72
169 193 67
170 194 72
170 194 57
166 189 62
174 198 95
171 195 57
168 191 72
174 197 80
170 194 84
170 195 84
168 192 44
167 191 72
165 189 57
171 195 62
167 191 84
167 192 92
172 196 51
172 196 62
173 197 76
170 193 62
167 190 80
170 193 51
165 189 62
166 190 44
167 191 80
165 189 67
164 188 57
169 193 84
168 192 62
167 191 76
163 187 72
168 192 84
166 191 92
162 187 92
169 193 84
160 184 67
163 186 44
165 188 62
165 190 80
162 186 57
163 188 67
167 191 72
168 192 84
166 190 80
166 190 62
167 190 67
166 189 67
156 179 44
166 190 92
162 185 67
165 187 62
164 188 76
161 185 76
163 187 88
160 182 62
160 183 92
152 177 100
131 156 108
122 148 140
85 115 131
86 116 145
87 116 126
88 117 145
98 124 148
95 123 156
75 107 155
98 126 160
96 125 158
87 116 159
93 121 155
91 120 154
98 125 165
88 117 158
100 128 160
96 124 159
93 121 166
98 125 153
93 122 158
91 120 158
106 133 161
97 125 160
90 118 157
98 124 154
103 130 150
94 122 150
96 124 157
96 123 159
95 122 161
89 118 158
89 118 149
97 124 166
93 121 177
92 121 163
91 120 168
72 105 154
79 110 165
74 106 168
78 108 163
66 101 164
75 106 164
79 109 161
74 106 161
65 99 164
70 103 156
61 97 153
73 104 161
71 102 159
70 103 163
71 103 154
64 99 151
69 102 150
61 97 155
62 95 145
68 102 150
66 100 149
60 95 151
62 96 149
61 97 154
65 99 154
60 95 141
62 97 154
61 96 143
62 96 142
61 96 145
59 94 141
61 96 149
61 96 152
61 95 153
61 97 148
60 95 141
62 97 155
60 95 144
61 97 148
60 96 145
60 95 145
62 97 149
60 95 149
61 97 153
62 98 153
61 95 142
60 95 143
61 97 149
62 97 154
62 98 150
61 96 144
62 97 154
61 96 142
61 96 145
62 97 149
60 95 140
60 95 140
60 95 136
61 97 150
60 95 147
61 96 152
60 94 141
61 96 143
60 94 134
61 96 143
61 97 151
61 97 151
59 94 140
62 97 147
60 95 145
62 97 150
61 96 144
61 97 148
61 96 144
61 96 141
62 97 149
61 96 140
60 95 139
61 96 147
60 95 143
61 97 153
60 95 142
59 94 134
59 94 134
61 96 149
60 95 137
60 95 143
62 98 154
58 92 130
61 97 145
61 96 139
61 96 134
60 95 139
60 95 135
61 97 151
61 97 150
59 93 130
60 94 141
58 93 134
60 95 139
61 96 145
61 96 139
60 95 137
59 93 124
60 95 140
60 95 130
59 93 126
61 96 139
59 94 129
59 93 129
60 94 135
59 94 129
60 94 122
61 96 139
59 93 129
59 94 133
58 91 117
59 93 122
60 94 130
59 93 120
58 91 111
58 92 125
59 93 125
59 93 120
57 91 118
59 93 127
59 92 127
57 91 114
60 93 127
57 91 110
57 90 114
60 92 114
70 97 108
96 113 66
100 113 48
124 137 31
123 135 18
122 136 0
126 136 0
123 137 0
125 139 0
108 121 0
122 134 0
120 131 0
123 135 0
126 139 0
112 127 0
120 129 0
127 140 0
118 131 0
132 144 0
121 133 0
116 126 0
124 136 0
119 133 0
121 132 0
125 136 0
133 146 0
125 137 0
118 129 0
122 135 0
124 134 0
130 141 0
137 150 0
122 132 0
123 132 0
123 133 0
121 129 0
134 146 0
126 134 0
131 140 0
137 149 0
130 142 0
128 138 0
123 133 0
128 137 0
138 149 0
129 138 0
123 133 0
132 142 0
126 136 0
128 136 0
134 142 0
127 139 0
138 148 0
128 137 0
133 143 0
132 142 0
126 136 0
132 140 0
132 142 0
138 146 0
136 144 0
122 130 0
137 144 0
134 143 0
137 148 0
134 142 0
145 157 0
132 142 0
141 152 0
136 145 0
138 147 0
140 151 0
140 148 0
144 156 0
139 149 0
142 152 0
137 147 0
143 151 0
139 149 0
150 162 0
135 144 0
143 155 0
142 151 0
141 151 0
148 160 0
151 163 0
143 155 0
154 166 0
144 157 0
153 165 0
142 149 0
141 152 0
149 162 0
152 162 0
150 159 0
153 165 0
154 164 0
151 163 0
149 159 0
151 161 0
157 172 0
147 159 0
156 170 0
157 171 0
157 170 0
158 171 0
152 162 0
156 169 0
154 167 0
155 169 0
154 169 0
153 166 0
162 177 0
156 170 0
155 170 0
163 178 0
155 171 0
153 169 0
160 177 0
150 165 0
152 168 0
158 173 0
157 171 0
158 174 0
156 172 0
158 175 0
160 176 0
164 181 0
163 178 0
160 178 0
157 174 0
159 177 0
159 177 0
163 180 0
156 174 0
151 167 0
161 178 0
164 179 0
164 181 0
169 189 0
162 179 0
166 184 0
165 183 0
160 176 0
161 179 0
164 182 0
166 184 0
163 183 0
166 182 0
164 182 0
162 178 0
169 190 0
171 194 72
172 195 67
173 197 84
172 196 67
170 194 62
169 193 76
171 194 62
171 195 62
171 194 67
174 199 88
167 190 57
175 197 51
172 196 62
169 192 44
171 195 95
171 195 57
173 197 62
170 194 72
173 197 88
167 192 51
174 198 80
172 195 67
167 191 80
171 194 76
168 191 72
173 197 80
166 191 76
173 197 76
171 195 80
171 194 57
168 192 57
169 193 67
169 194 76
171 194 62
169 193 67
168 193 95
165 189 0
166 190 67
168 192 67
167 191 76
167 192 72
167 191 72
166 190 76
167 191 76
168 191 76
172 195 62
167 192 62
167 190 80
166 191 84
166 189 57
167 191 57
167 191 76
172 196 72
165 188 51
169 192 57
169 193 72
162 186 67
167 190 57
163 187 99
168 192 76
169 193 95
169 193 84
164 187 51
171 195 88
166 190 57
162 186 76
164 188 62
165 189 67
161 184 62
167 189 76
164 187 80
157 180 80
165 188 76
160 182 76
162 184 67
161 183 72
161 184 67
164 187 78
162 186 90
140 164 107
124 148 121
113 139 122
81 111 130
95 123 155
98 126 158
91 119 139
83 113 144
95 124 151
93 122 162
102 129 150
95 124 158
97 124 150
90 119 164
96 123 163
95 123 163
99 127 175
86 116 158
91 119 156
106 133 169
104 129 159
91 120 150
104 130 162
92 119 159
97 124 162
92 120 159
95 123 160
99 127 162
92 120 146
102 129 162
91 120 159
99 126 153
90 118 154
96 123 163
72 105 167
84 114 165
80 111 163
80 110 158
73 105 160
81 111 159
76 107 158
70 103 160
71 104 163
74 106 162
63 97 149
68 102 164
70 104 157
69 103 167
63 98 157
69 102 151
67 101 152
65 99 159
69 101 152
73 104 151
68 99 157
63 97 149
65 99 150
68 101 149
63 98 147
67 100 151
64 98 148
60 95 150
62 96 149
63 98 152
64 99 155
61 96 145
60 95 148
63 98 149
63 97 140
61 96 145
61 96 140
61 95 147
62 98 152
62 97 150
62 97 151
62 98 153
59 94 145
59 94 140
62 98 157
60 95 143
62 97 149
62 97 148
62 97 153
61 96 150
61 97 148
62 97 155
62 96 148
60 94 137
60 95 141
60 95 142
61 96 136
62 97 151
61 96 141
61 96 144
60 95 142
62 98 157
61 96 143
62 97 154
61 96 145
60 95 134
60 95 139
60 95 140
61 96 145
61 97 144
61 96 151
62 98 150
61 96 147
61 96 141
61 97 143
61 96 145
62 97 155
60 94 133
61 95 142
60 95 142
59 94 126
60 95 145
61 95 143
61 95 142
60 95 134
61 96 137
60 94 136
60 95 145
59 94 136
61 95 139
59 94 136
61 96 142
60 95 143
60 95 139
60 95 140
61 96 135
61 96 140
60 95 134
60 94 133
61 96 141
59 93 130
60 94 134
61 95 136
61 96 141
59 94 133
61 97 150
60 94 131
61 95 140
60 94 131
60 95 127
61 95 139
60 94 137
59 93 127
59 93 130
61 95 141
60 94 125
57 91 120
59 94 130
60 93 135
59 94 125
60 94 134
58 92 124
60 95 133
60 94 125
59 93 124
58 91 122
59 94 121
57 90 114
56 89 90
59 92 120
58 92 117
58 91 115
58 92 118
58 90 121
67 94 102
87 106 68
99 115 57
121 136 36
120 135 0
111 126 0
115 126 0
114 125 0
131 144 0
109 121 0
125 138 0
123 133 0
124 135 0
107 121 0
122 134 0
126 137 0
119 132 0
140 155 0
123 135 0
120 132 0
118 128 0
114 124 0
131 144 0
123 136 0
124 135 0
120 129 0
122 131 0
123 134 0
128 137 0
131 139 0
124 135 0
127 139 0
124 133 0
123 136 0
122 135 0
135 149 0
129 138 0
138 149 0
134 147 0
121 129 0
134 143 0
125 137 0
127 138 0
122 131 0
134 143 0
129 141 0
132 143 0
131 143 0
132 142 0
130 142 0
138 150 0
137 146 0
136 148 0
135 144 0
135 144 0
136 147 0
137 150 0
136 143 0
137 143 0
137 148 0
136 145 0
132 141 0
133 140 0
135 144 0
142 152 0
135 143 0
139 150 0
144 152 0
144 151 0
134 146 0
147 157 0
136 146 0
122 133 0
138 150 0
142 149 0
149 160 0
137 145 0
141 151 0
135 145 0
148 158 0
141 151 0
132 142 0
142 152 0
143 154 0
144 154 0
144 155 0
142 155 0
146 160 0
149 161 0
149 158 0
149 162 0
137 148 0
154 166 0
155 169 0
146 158 0
148 159 0
144 153 0
147 155 0
149 163 0
153 163 0
152 167 0
153 168 0
152 167 0
149 163 0
155 166 0
151 165 0
154 169 0
153 167 0
152 166 0
161 178 0
156 172 0
157 171 0
159 173 0
159 175 0
154 168 0
156 168 0
157 171 0
157 174 0
154 169 0
158 174 0
161 177 0
158 174 0
155 171 0
154 167 0
158 173 0
158 173 0
165 182 0
163 182 0
162 178 0
159 176 0
155 172 0
159 176 0
164 181 0
160 178 0
163 182 0
160 178 0
158 173 0
162 182 0
160 178 0
167 185 0
162 181 0
159 176 0
158 174 0
160 178 0
166 185 0
159 176 0
165 182 0
164 183 0
166 185 0
162 183 0
166 184 0
164 182 0
166 185 0
169 193 72
170 192 62
174 198 84
171 194 72
175 199 80
172 196 76
170 194 84
173 196 36
172 196 62
171 195 57
174 198 72
171 196 102
169 192 62
172 195 51
173 196 67
172 197 80
170 195 84
170 194 51
171 194 88
170 195 84
165 189 67
171 195 72
170 194 67
170 194 92
170 194 67
168 192 80
172 195 92
165 190 80
171 195 67
168 192 25
170 194 76
164 188 76
167 191 92
164 188 72
166 190 62
168 191 72
169 193 67
166 190 57
168 192 62
164 189 67
173 196 57
166 191 62
167 191 84
170 193 67
169 193 57
166 190 80
165 189 72
171 193 76
165 190 95
167 191 62
167 191 57
167 192 95
159 183 80
166 191 88
165 190 88
164 189 80
165 189 80
166 190 67
162 186 88
168 191 84
164 187 80
167 192 72
161 186 92
163 187 80
167 191 84
162 185 57
161 185 76
166 189 67
160 183 72
164 188 92
168 190 62
165 187 62
161 185 67
167 191 92
154 176 57
156 179 57
156 180 62
158 181 72
166 190 92
139 163 90
129 153 100
116 142 127
98 125 124
100 127 150
71 102 121
94 121 143
102 129 154
91 120 153
90 119 144
100 127 158
105 133 166
77 108 148
95 123 161
104 130 151
100 128 166
95 123 151
86 116 157
97 124 162
98 127 163
101 128 166
93 121 156
94 122 154
94 121 156
92 120 155
97 124 159
84 113 156
94 120 152
90 119 153
95 121 149
108 134 154
83 113 158
102 129 158
85 114 152
80 111 157
84 113 159
85 114 151
80 111 158
76 107 166
91 120 171
75 107 156
85 115 167
81 111 167
77 107 159
74 106 162
74 105 164
68 101 159
82 111 162
76 106 155
65 100 160
69 101 152
66 101 155
69 101 149
65 99 157
65 98 156
63 97 148
61 96 147
65 99 148
60 95 153
66 99 154
61 96 150
63 96 140
60 95 150
61 95 147
62 97 154
62 97 149
61 96 155
62 97 144
61 96 151
64 98 149
61 96 149
61 96 155
61 96 147
62 97 153
61 96 144
61 96 152
61 95 139
62 97 156
62 97 151
62 97 149
60 95 143
62 97 155
61 96 143
61 96 142
61 96 149
61 96 144
61 96 139
61 96 145
63 98 157
61 96 149
61 96 145
61 96 143
60 95 137
61 97 149
62 97 152
61 96 145
62 97 149
61 95 136
61 97 147
62 97 149
60 95 139
61 96 144
62 97 150
61 96 148
62 97 148
61 96 143
61 96 143
60 96 149
60 95 139
62 97 157
60 94 137
61 96 142
60 95 136
60 95 136
61 96 144
61 95 137
60 95 142
60 95 133
59 93 129
62 97 154
60 95 133
60 94 134
60 94 136
61 96 141
61 96 144
61 96 147
59 93 124
61 96 145
60 94 134
61 96 137
60 95 131
60 95 140
60 95 139
60 95 147
61 96 135
60 94 134
60 94 130
61 96 137
60 95 136
60 94 134
61 96 141
60 94 134
60 94 130
60 94 133
60 94 126
59 94 131
59 94 124
59 93 136
60 94 133
61 95 137
60 94 130
60 94 127
61 95 136
58 92 120
59 94 131
59 94 130
59 93 124
59 94 131
58 92 122
58 92 125
60 95 137
58 92 115
58 92 127
57 91 115
57 90 113
56 89 114
57 89 111
71 99 111
82 106 79
98 116 57
104 118 45
121 135 25
125 138 0
118 132 0
118 131 0
120 134 0
114 129 0
112 126 0
119 132 0
123 138 0
122 137 0
117 128 0
108 123 0
117 130 0
119 132 0
127 139 0
114 126 0
124 136 0
117 130 0
127 139 0
127 137 0
124 137 0
125 135 0
128 139 0
113 126 0
126 138 0
126 138 0
130 143 0
125 134 0
132 145 0
129 144 0
129 141 0
128 138 0
134 147 0
130 141 0
128 141 0
127 136 0
122 133 0
124 134 0
132 146 0
137 149 0
137 149 0
130 140 0
125 137 0
137 148 0
135 146 0
127 139 0
132 138 0
131 140 0
131 144 0
129 138 0
132 143 0
133 145 0
134 145 0
134 145 0
142 154 0
148 163 0
145 157 0
131 142 0
138 148 0
134 143 0
129 136 0
139 149 0
139 150 0
144 154 0
132 144 0
136 147 0
139 149 0
141 152 0
142 153 0
148 161 0
137 147 0
142 153 0
139 146 0
131 142 0
149 159 0
144 155 0
141 153 0
146 158 0
140 152 0
147 157 0
149 161 0
141 150 0
145 157 0
148 159 0
148 160 0
144 156 0
145 157 0
148 157 0
151 163 0
148 159 0
154 166 0
152 164 0
146 157 0
158 172 0
147 161 0
152 166 0
152 165 0
161 174 0
149 163 0
155 171 0
154 169 0
147 158 0
151 164 0
147 160 0
153 168 0
150 165 0
154 169 0
151 165 0
164 178 0
159 174 0
151 165 0
158 173 0
159 175 0
153 168 0
153 168 0
156 169 0
164 180 0
154 170 0
157 172 0
159 174 0
159 176 0
158 172 0
159 176 0
157 172 0
165 182 0
159 177 0
161 179 0
160 176 0
158 175 0
160 176 0
161 177 0
159 175 0
167 184 0
158 176 0
162 179 0
159 177 0
165 184 0
163 181 0
159 175 0
164 183 0
158 174 0
161 180 0
164 183 0
161 178 0
163 181 0
161 179 0
168 187 0
162 179 0
166 183 0
164 183 0
173 196 67
173 197 76
172 195 72
172 197 80
166 189 67
171 196 80
170 194 76
171 195 67
173 196 62
167 190 67
173 197 88
173 197 62
172 195 76
170 194 57
173 196 76
171 195 88
172 196 76
168 193 84
172 195 62
168 193 80
168 192 67
170 194 62
169 193 51
170 194 80
171 195 67
169 194 84
171 195 62
171 195 92
170 194 62
172 197 88
167 191 76
165 189 57
166 190 62
166 189 51
163 187 67
168 192 62
171 195 72
171 196 76
168 193 72
165 190 88
173 197 67
166 191 88
169 193 80
166 190 99
165 190 72
170 192 62
168 191 57
167 191 80
168 191 62
161 185 44
169 193 88
164 189 72
170 195 95
168 193 72
167 191 76
168 190 80
165 188 67
165 189 57
168 192 62
166 190 67
165 189 67
167 192 84
164 188 76
159 182 62
162 185 62
171 194 62
154 179 62
166 189 67
167 190 62
157 180 51
166 189 67
159 182 67
165 188 67
160 184 62
160 183 72
162 186 67
162 186 76
164 187 62
158 181 74
154 175 54
146 170 95
120 145 117
101 128 127
92 120 134
89 117 131
94 122 145
96 124 134
93 121 145
97 125 155
92 121 148
97 125 145
91 118 148
97 124 164
100 127 157
88 118 166
112 138 173
97 125 162
91 119 154
88 117 153
105 130 148
98 125 153
90 119 154
101 128 162
89 117 150
101 127 150
94 121 162
103 130 169
91 119 153
98 126 158
91 119 155
84 113 151
95 123 159
89 118 153
79 110 157
81 112 164
86 116 162
90 119 158
71 104 161
80 111 163
74 106 170
67 101 165
83 112 162
75 106 165
71 102 151
71 105 167
66 99 153
64 99 152
66 101 164
68 100 151
66 99 152
65 98 147
68 101 156
77 107 165
68 99 140
67 101 150
63 96 146
63 97 140
63 97 145
61 97 148
63 98 156
63 97 137
59 94 143
60 95 141
61 96 147
61 95 138
64 98 137
61 96 143
61 96 143
60 95 147
61 95 141
61 96 147
61 96 144
62 97 155
61 96 149
61 97 145
60 95 142
61 96 144
61 96 148
62 96 141
60 95 139
60 95 144
60 95 145
59 94 139
62 98 152
62 97 147
61 96 137
61 96 139
61 97 151
60 95 145
61 96 149
61 96 139
60 95 145
60 96 139
61 96 153
62 97 153
61 96 144
61 96 149
60 95 137
62 97 145
62 97 148
61 95 145
61 96 142
62 97 144
61 96 140
61 96 143
60 94 136
61 97 149
61 95 131
60 95 134
61 96 145
61 96 141
61 96 147
61 96 145
60 95 127
61 96 144
60 94 133
61 96 145
59 93 129
61 97 143
60 95 137
60 95 133
59 93 133
61 97 145
60 95 129
60 94 131
59 94 136
60 94 143
60 94 125
61 96 136
60 95 141
60 95 133
60 94 127
60 95 133
60 94 131
59 94 130
62 97 148
59 94 124
59 93 131
61 95 136
59 93 134
60 95 136
61 96 136
59 93 125
60 94 131
60 95 136
59 94 135
60 94 125
60 94 137
60 94 133
59 93 121
58 92 114
59 93 122
60 95 134
61 96 142
58 91 113
60 95 142
56 90 108
59 93 120
58 92 114
57 91 114
57 90 110
59 92 120
58 91 130
59 92 120
57 89 112
69 99 120
73 97 95
96 115 70
106 121 51
105 117 44
113 126 0
119 132 0
120 134 0
102 114 0
113 127 0
129 145 0
129 142 0
107 120 0
127 141 0
129 141 0
125 136 0
115 129 0
133 146 0
126 141 0
120 132 0
118 129 0
128 142 0
131 143 0
128 143 0
113 124 0
123 136 0
125 138 0
133 145 0
138 151 0
128 141 0
129 138 0
127 140 0
125 139 0
125 138 0
130 144 0
134 147 0
126 139 0
132 146 0
127 140 0
126 142 0
135 147 0
135 148 0
138 149 0
134 144 0
134 147 0
136 150 0
128 137 0
133 145 0
142 153 0
133 145 0
128 138 0
132 144 0
134 144 0
126 139 0
134 144 0
137 149 0
142 154 0
139 148 0
139 151 0
132 142 0
134 143 0
141 151 0
125 134 0
135 146 0
141 151 0
134 146 0
143 157 0
142 157 0
146 158 0
138 146 0
138 151 0
135 146 0
137 148 0
133 144 0
151 164 0
141 155 0
148 158 0
139 151 0
136 147 0
137 147 0
142 153 0
149 161 0
142 153 0
146 157 0
155 167 0
148 159 0
145 154 0
148 159 0
150 160 0
147 159 0
150 163 0
152 165 0
155 167 0
143 156 0
145 158 0
151 164 0
156 169 0
145 158 0
154 164 0
156 171 0
142 152 0
147 162 0
154 171 0
152 167 0
156 169 0
157 170 0
149 163 0
154 168 0
149 163 0
155 167 0
152 164 0
156 171 0
160 175 0
157 171 0
156 171 0
154 166 0
151 164 0
157 173 0
152 168 0
161 174 0
152 167 0
156 171 0
158 176 0
159 175 0
160 176 0
162 180 0
155 169 0
157 173 0
160 176 0
161 176 0
164 181 0
164 180 0
159 175 0
162 177 0
161 179 0
163 181 0
163 181 0
158 175 0
163 179 0
158 175 0
164 182 0
164 183 0
165 183 0
166 185 0
166 185 0
162 180 0
166 185 0
162 179 0
158 174 0
163 183 0
164 181 0
162 179 0
168 187 0
161 179 0
167 184 0
171 195 57
169 193 84
174 198 62
169 193 72
173 198 76
172 196 57
172 196 76
174 197 80
170 194 67
172 195 72
173 196 84
171 196 62
172 195 80
169 194 62
173 197 72
170 194 76
167 192 62
171 195 76
171 196 102
171 195 72
168 192 76
173 196 44
169 193 80
165 188 44
169 193 76
168 191 62
170 194 72
173 196 80
169 194 80
172 197 95
172 196 57
169 194 72
170 194 67
163 187 44
171 195 57
168 192 72
166 191 88
170 194 67
168 192 88
170 194 67
168 191 80
164 188 67
172 196 67
166 189 51
163 187 72
166 190 72
161 186 76
169 194 80
165 189 57
165 190 88
162 186 76
164 188 67
169 193 76
165 189 76
157 180 51
167 191 67
165 189 88
164 187 88
170 193 51
162 185 67
167 190 57
167 191 72
167 190 51
163 187 67
159 183 62
164 188 67
164 188 92
162 184 67
165 188 72
166 190 72
162 185 76
166 189 95
161 185 72
165 188 67
162 186 67
156 180 62
162 185 72
158 181 72
164 187 95
153 175 62
148 171 80
142 165 102
113 138 103
92 120 122
98 125 133
88 117 137
86 115 139
98 125 147
94 123 150
80 110 141
87 115 139
99 126 161
86 115 159
78 107 137
99 125 155
92 120 167
95 122 153
98 125 173
100 127 158
95 123 161
95 123 148
91 119 160
102 128 160
110 136 162
94 121 154
94 121 158
97 124 145
98 125 147
99 127 154
100 127 164
96 122 150
87 116 164
84 114 155
95 122 158
102 128 162
97 124 155
84 114 161
82 113 152
78 109 162
82 112 157
80 110 156
79 109 156
76 107 158
77 108 166
73 105 167
75 106 159
71 103 161
66 99 151
67 100 160
67 100 150
64 99 158
64 98 151
65 99 149
68 102 152
65 97 140
69 102 140
69 102 154
65 98 150
67 100 147
67 101 151
64 99 152
63 97 139
62 98 156
66 100 142
64 98 149
65 98 141
62 96 147
62 96 145
60 94 141
60 95 143
62 97 155
60 95 141
61 95 138
61 96 145
62 97 145
61 96 149
61 96 144
61 96 151
60 95 140
62 97 147
61 97 152
60 95 143
61 96 145
61 95 139
62 97 149
60 95 134
59 94 141
60 95 139
59 94 133
60 94 142
62 98 156
60 95 140
61 96 150
60 94 137
61 96 145
60 95 137
61 96 140
61 96 141
61 96 143
60 95 142
61 96 143
60 94 137
60 94 135
60 94 139
60 95 141
62 97 147
62 97 151
60 96 139
60 95 134
60 94 135
61 96 139
60 95 140
60 95 141
61 96 142
61 95 142
60 95 139
61 95 136
61 96 145
59 94 135
59 94 125
62 97 145
60 95 134
60 95 133
60 95 137
61 96 147
61 96 142
61 96 143
61 96 141
61 95 130
58 92 125
60 94 131
60 95 140
59 93 126
60 95 142
60 95 134
60 95 134
58 93 121
62 98 152
60 94 136
61 96 137
60 94 136
61 95 137
59 93 129
60 94 129
59 94 124
58 91 121
61 96 136
60 95 134
60 94 131
59 93 124
58 92 122
59 92 131
59 93 127
59 93 123
59 92 117
57 90 110
59 93 126
57 90 110
57 91 111
59 93 124
59 93 125
59 94 126
57 90 107
57 91 110
59 91 110
71 97 94
89 109 94
99 116 60
108 120 18
128 144 0
122 138 0
116 130 0
121 137 0
125 139 0
111 124 0
129 143 0
125 138 0
118 132 0
127 140 0
129 141 0
125 140 0
126 139 0
118 131 0
130 141 0
120 131 0
114 126 0
116 129 0
131 143 0
124 136 0
134 148 0
130 141 0
128 140 0
117 130 0
127 143 0
129 141 0
127 141 0
125 135 0
129 141 0
132 143 0
124 136 0
128 140 0
132 145 0
133 146 0
126 139 0
125 137 0
123 136 0
128 142 0
136 149 0
132 141 0
132 143 0
126 140 0
132 146 0
125 135 0
131 141 0
140 150 0
126 137 0
133 146 0
122 136 0
129 138 0
135 148 0
133 145 0
135 144 0
141 153 0
137 150 0
139 152 0
132 141 0
134 147 0
144 155 0
146 157 0
136 150 0
140 152 0
136 145 0
142 154 0
147 160 0
148 161 0
138 151 0
145 160 0
138 148 0
140 153 0
134 142 0
142 153 0
147 160 0
149 161 0
147 156 0
143 154 0
142 155 0
140 149 0
144 156 0
148 161 0
147 158 0
150 162 0
144 156 0
155 168 0
145 158 0
147 158 0
150 162 0
149 165 0
154 168 0
152 161 0
144 157 0
158 171 0
148 163 0
154 168 0
149 161 0
156 171 0
151 161 0
155 167 0
157 173 0
150 164 0
152 166 0
151 164 0
154 169 0
153 167 0
155 168 0
163 178 0
150 165 0
155 169 0
152 163 0
155 169 0
160 176 0
152 165 0
161 179 0
161 178 0
161 177 0
157 173 0
162 179 0
163 178 0
157 173 0
156 172 0
156 170 0
161 176 0
157 172 0
157 174 0
158 175 0
162 180 0
159 179 0
162 179 0
161 176 0
160 177 0
152 167 0
160 178 0
157 175 0
162 180 0
157 173 0
163 181 0
168 187 0
162 178 0
164 182 0
168 187 0
161 180 0
159 179 0
168 186 0
162 178 0
164 182 0
164 183 0
160 177 0
166 184 0
162 182 0
158 175 0
163 184 0
169 194 72
173 197 72
172 197 84
171 195 95
173 197 72
168 193 88
170 194 76
170 194 76
174 197 57
168 192 36
173 197 76
170 195 72
166 191 62
170 194 57
171 195 76
170 195 84
169 193 62
167 191 72
170 194 76
168 193 88
170 194 44
169 194 80
168 192 51
170 194 57
166 190 67
170 194 80
171 194 44
166 190 84
170 194 92
171 195 80
167 192 62
168 193 80
167 192 72
169 193 80
167 192 51
169 193 67
164 188 72
172 197 99
168 192 62
169 193 76
169 192 67
170 195 80
160 185 92
167 191 80
165 189 62
169 194 76
165 190 72
168 193 95
165 188 67
170 193 62
169 193 76
166 190 95
166 190 62
160 185 80
165 189 72
161 186 95
166 190 62
166 190 67
167 191 88
164 187 62
162 186 88
166 189 57
160 184 51
167 191 67
163 187 80
163 187 84
164 189 95
162 185 51
166 190 84
162 186 62
166 190 88
165 189 84
159 182 67
159 183 76
158 181 76
164 187 67
161 183 80
156 179 67
159 181 62
161 183 72
158 181 94
145 168 70
128 152 108
113 138 126
87 114 113
89 117 124
85 114 132
88 116 139
101 127 145
105 130 137
92 120 148
99 126 147
100 127 153
92 120 153
87 116 147
86 114 157
99 126 165
87 115 156
103 129 160
92 120 156
106 132 155
95 123 158
111 136 164
95 122 148
99 126 162
89 116 154
95 122 149
98 126 155
89 118 160
100 127 153
91 120 151
99 126 150
88 117 156
94 122 144
101 126 150
86 115 145
90 118 171
81 111 154
82 111 147
91 120 154
82 112 154
83 113 165
77 108 157
69 102 158
70 103 158
72 105 156
67 100 153
71 102 150
72 104 155
68 99 149
63 97 151
67 99 155
66 100 154
68 101 144
63 96 145
65 99 153
65 100 149
67 100 151
67 99 140
64 98 139
64 98 147
62 97 148
64 97 139
62 96 141
62 97 153
68 101 140
60 95 138
61 96 145
62 97 149
61 96 145
61 96 145
61 96 145
62 97 151
63 98 152
61 96 143
60 95 145
62 97 148
60 95 143
60 95 137
61 96 137
62 97 147
60 94 136
62 97 148
61 96 148
62 97 148
62 97 145
60 94 130
62 97 152
62 98 151
61 96 145
61 95 136
61 96 147
60 95 145
61 96 143
62 97 149
60 94 141
61 96 148
59 93 133
61 96 142
62 97 147
60 95 139
61 96 143
61 96 137
59 93 134
60 95 139
61 96 140
61 96 142
62 97 154
61 95 142
59 94 135
60 94 139
61 96 140
61 96 142
60 95 136
60 94 131
60 95 139
60 95 143
60 95 131
60 94 134
60 94 135
61 96 141
60 95 137
61 96 141
61 96 137
59 94 137
59 94 129
58 92 120
61 96 144
60 94 133
61 96 143
60 95 137
60 95 133
61 96 136
60 94 130
60 95 136
60 94 130
59 94 124
59 93 129
58 93 127
61 95 143
61 95 139
59 93 122
60 95 135
58 93 130
59 93 130
59 94 124
58 91 117
58 92 117
60 95 135
58 92 122
59 94 130
58 92 124
59 93 124
59 92 118
58 91 124
57 91 114
59 92 122
58 91 117
58 91 124
58 92 114
59 93 133
56 89 100
57 90 117
56 89 99
74 99 88
90 113 84
96 115 70
109 125 40
120 134 0
115 131 0
111 122 0
110 121 0
113 126 0
121 135 0
108 123 0
126 140 0
113 124 0
117 131 0
118 130 0
124 140 0
130 145 0
130 142 0
118 132 0
127 140 0
125 140 0
118 131 0
129 145 0
130 142 0
124 139 0
128 143 0
123 136 0
124 137 0
128 140 0
128 141 0
123 136 0
130 144 0
135 148 0
132 146 0
131 144 0
133 146 0
123 132 0
128 140 0
136 149 0
123 135 0
132 146 0
135 147 0
132 142 0
144 159 0
140 155 0
131 145 0
139 151 0
133 146 0
132 145 0
138 149 0
134 145 0
131 143 0
140 156 0
139 154 0
137 150 0
135 147 0
145 157 0
139 151 0
135 147 0
133 144 0
137 149 0
137 149 0
137 145 0
147 159 0
138 151 0
139 152 0
146 157 0
136 148 0
141 155 0
144 156 0
147 159 0
138 150 0
143 154 0
143 154 0
148 161 0
137 148 0
149 162 0
145 157 0
149 161 0
145 154 0
145 158 0
147 158 0
143 154 0
148 162 0
148 162 0
134 146 0
150 163 0
154 165 0
149 163 0
151 164 0
150 162 0
152 163 0
146 160 0
150 161 0
151 165 0
155 169 0
150 162 0
145 158 0
152 165 0
147 163 0
146 158 0
156 172 0
148 162 0
156 169 0
152 167 0
151 165 0
155 169 0
154 170 0
159 175 0
157 173 0
153 167 0
158 172 0
156 171 0
153 168 0
158 174 0
154 168 0
153 167 0
161 176 0
161 175 0
158 177 0
153 169 0
154 171 0
154 169 0
157 172 0
158 173 0
164 181 0
161 178 0
153 169 0
156 173 0
159 176 0
156 172 0
158 174 0
162 181 0
162 176 0
167 183 0
162 180 0
160 176 0
162 178 0
159 175 0
161 178 0
162 179 0
160 177 0
165 183 0
167 186 0
164 183 0
166 184 0
164 183 0
163 181 0
162 181 0
165 184 0
163 181 0
165 185 0
162 179 0
166 184 0
164 183 0
164 183 0
175 198 92
173 197 67
174 197 92
170 193 80
170 193 57
174 197 72
168 192 80
169 194 67
171 195 84
170 194 67
168 191 57
171 196 95
171 195 72
166 190 62
174 199 99
171 195 62
173 197 67
170 194 51
166 190 76
171 195 88
170 194 57
172 196 76
167 192 72
169 193 88
172 196 95
168 192 72
171 195 72
167 191 80
166 190 72
173 198 102
166 190 57
164 188 67
167 191 84
166 190 72
164 189 72
166 190 44
170 195 72
170 194 76
166 189 67
170 194 84
165 190 76
168 192 76
165 189 67
172 196 80
168 192 62
168 191 67
163 187 57
163 187 76
168 192 80
160 184 88
164 187 84
166 191 62
163 187 62
165 189 67
162 186 88
170 193 72
164 188 62
168 192 88
165 189 72
159 182 57
164 188 57
158 182 72
160 183 72
161 184 57
160 184 67
158 182 57
163 186 62
159 183 67
161 185 80
157 181 44
163 186 67
158 180 25
162 186 76
157 180 57
160 183 88
160 183 80
164 187 88
160 183 84
158 182 84
155 178 80
150 173 40
150 174 72
140 164 97
122 146 118
113 139 136
80 109 118
86 115 132
97 124 136
85 114 131
89 117 134
88 116 141
95 122 145
86 115 150
96 123 151
95 122 153
88 117 143
83 112 154
100 127 154
90 119 151
107 132 154
99 125 160
87 116 146
85 114 154
96 123 151
90 118 151
96 124 171
84 112 150
96 124 150
99 126 154
106 132 160
93 121 154
102 128 154
105 130 157
89 117 159
91 119 144
86 115 160
87 116 161
86 115 157
93 119 158
74 105 154
84 114 154
68 102 153
73 104 155
73 105 160
76 106 158
75 107 168
78 109 164
68 102 161
70 102 160
76 108 169
64 98 152
68 101 159
68 101 151
69 102 156
63 97 151
69 101 146
65 99 155
71 102 135
66 99 151
68 101 148
67 99 142
59 93 140
62 97 147
64 98 137
61 96 145
62 97 144
60 95 144
64 98 137
60 95 140
64 99 154
61 96 140
61 97 151
59 94 134
62 97 149
60 94 136
61 97 145
60 94 135
61 95 142
61 96 144
61 96 145
62 96 139
61 95 137
62 97 147
61 96 142
61 96 148
62 97 149
62 97 150
61 96 143
62 97 144
62 97 155
61 96 141
60 94 141
61 96 141
61 96 148
60 94 136
60 95 136
62 97 152
60 95 145
61 96 144
60 94 141
62 97 147
61 95 140
63 98 154
60 95 147
60 95 143
60 95 140
60 95 137
61 95 136
61 96 143
60 96 136
60 95 140
61 95 136
62 96 153
60 94 131
61 96 140
59 93 126
60 95 139
60 95 141
61 96 143
61 96 136
61 96 143
59 94 134
60 95 131
61 96 141
59 94 125
59 92 135
59 92 127
60 94 131
59 94 129
59 94 129
59 94 134
59 93 122
62 97 144
60 95 129
59 94 129
61 96 139
61 95 131
61 95 134
60 95 130
60 95 140
59 94 133
60 95 133
59 93 121
61 95 139
59 94 121
59 93 125
60 94 133
60 94 126
58 92 121
58 93 120
60 95 134
58 92 113
60 94 126
60 94 124
60 94 130
60 94 120
60 94 129
57 90 114
59 92 118
57 90 107
57 90 113
57 90 105
59 93 129
70 98 105
80 102 99
101 119 79
111 126 40
120 132 0
125 138 0
118 132 0
121 138 0
109 122 0
121 135 0
111 124 0
116 128 0
122 136 0
114 128 0
120 134 0
127 142 0
135 150 0
124 136 0
123 138 0
130 145 0
119 134 0
132 146 0
117 130 0
134 149 0
129 142 0
137 153 0
124 139 0
130 146 0
129 142 0
128 143 0
129 143 0
121 136 0
129 142 0
130 140 0
127 140 0
124 135 0
133 146 0
120 133 0
133 146 0
126 140 0
128 143 0
132 146 0
129 143 0
133 145 0
131 140 0
128 142 0
126 137 0
135 147 0
137 150 0
138 149 0
134 149 0
129 140 0
129 142 0
131 143 0
142 154 0
144 155 0
131 142 0
128 136 0
132 144 0
125 138 0
142 155 0
135 147 0
138 151 0
138 153 0
139 151 0
147 159 0
143 156 0
147 158 0
138 151 0
138 150 0
135 146 0
143 157 0
153 166 0
146 159 0
138 149 0
145 160 0
139 150 0
146 157 0
140 151 0
147 158 0
143 157 0
140 154 0
140 151 0
146 158 0
151 162 0
147 161 0
147 159 0
148 161 0
151 164 0
143 156 0
147 158 0
153 165 0
148 160 0
153 165 0
148 161 0
154 170 0
151 163 0
150 164 0
155 169 0
156 171 0
148 162 0
153 168 0
152 166 0
143 154 0
155 168 0
151 165 0
151 164 0
151 164 0
155 168 0
150 166 0
156 171 0
154 170 0
159 174 0
157 168 0
156 174 0
162 179 0
155 169 0
157 174 0
157 171 0
154 170 0
154 169 0
162 179 0
161 176 0
159 173 0
153 169 0
154 171 0
161 180 0
163 179 0
161 180 0
158 175 0
160 176 0
152 169 0
157 174 0
162 178 0
160 176 0
162 178 0
161 179 0
163 182 0
159 178 0
159 176 0
155 174 0
160 180 0
161 177 0
165 185 0
158 174 0
159 177 0
161 177 0
165 184 0
164 182 0
163 181 0
163 181 0
159 177 0
161 179 0
164 183 0
165 185 0
164 183 0
166 186 0
173 197 51
172 195 51
166 190 57
172 196 62
169 193 62
169 193 62
173 197 62
170 193 44
173 197 67
173 197 80
174 196 51
172 196 51
174 198 67
173 198 92
171 194 57
169 194 62
169 192 44
165 189 72
172 195 62
170 194 88
169 193 62
170 194 88
169 192 51
168 192 67
172 197 92
170 195 72
172 196 72
166 190 67
169 193 72
171 196 80
166 190 99
169 193 51
172 196 76
170 194 88
164 189 80
168 191 76
169 193 76
168 192 72
166 190 67
168 193 67
167 191 62
171 194 62
168 192 57
167 191 76
169 193 92
166 190 84
170 195 67
169 193 67
163 187 62
166 190 67
166 189 57
159 183 67
165 188 67
167 190 67
165 188 57
158 183 88
166 189 80
162 186 51
162 187 88
169 193 72
163 186 36
167 192 80
160 184 80
165 188 72
164 188 72
164 186 51
158 182 62
156 179 57
158 182 51
153 177 67
151 175 67
162 185 57
159 182 86
163 187 72
158 180 51
155 177 51
160 182 70
161 184 76
153 176 62
150 173 80
157 180 62
153 176 67
157 180 84
136 159 111
116 141 118
92 119 113
92 119 127
86 114 128
94 121 144
89 118 140
101 128 145
102 127 136
84 113 143
89 117 145
94 122 144
94 122 147
91 118 143
85 114 141
96 123 158
105 131 151
86 114 151
87 116 153
96 123 150
88 115 143
80 110 155
101 128 157
103 128 148
96 123 159
92 119 134
88 117 150
84 114 151
91 119 153
101 127 154
90 118 150
103 129 159
88 116 160
80 110 150
85 114 160
88 116 153
84 114 162
89 117 163
77 109 152
80 110 154
77 109 157
72 103 158
68 101 148
65 100 166
65 99 147
85 113 162
72 104 159
68 100 158
66 99 151
72 105 151
69 101 155
67 100 142
64 96 140
68 100 141
65 98 149
64 97 136
71 102 148
65 98 143
62 95 147
65 99 144
61 94 133
59 94 136
63 96 133
63 98 150
60 95 143
65 98 136
60 94 140
60 95 142
60 95 141
59 94 140
60 95 134
62 97 149
62 97 151
60 95 148
61 96 143
60 95 139
60 95 137
62 98 158
61 96 148
61 96 141
60 95 140
61 96 136
59 93 134
60 95 137
62 97 151
61 96 145
60 94 141
60 95 138
60 96 142
60 95 147
61 95 142
61 96 144
62 97 142
61 96 148
62 97 144
60 95 135
60 94 142
62 97 156
62 97 144
59 94 135
59 94 133
62 97 149
62 97 151
60 95 130
60 95 141
62 97 147
61 95 139
61 96 144
60 94 133
61 95 140
59 94 131
60 94 135
60 95 136
60 95 140
60 95 131
60 95 134
61 95 140
59 93 134
60 94 131
59 94 129
59 93 140
59 93 131
60 94 136
60 94 135
60 95 133
60 95 136
62 97 144
59 94 139
59 93 121
60 95 139
59 94 126
59 93 125
59 94 125
60 94 126
59 93 130
58 92 115
60 95 133
58 92 120
59 93 121
60 95 136
60 94 130
60 94 133
59 93 126
58 92 115
58 91 120
60 94 131
58 92 127
59 93 127
59 93 124
58 91 113
57 90 118
58 91 121
56 89 107
58 92 117
58 91 126
56 89 113
55 88 102
58 91 121
56 89 108
72 99 102
84 107 84
97 113 66
113 127 54
111 124 25
121 136 0
108 121 0
122 138 0
110 123 0
113 127 0
128 142 0
120 133 0
115 127 0
123 136 0
124 138 0
117 132 0
133 148 0
117 128 0
131 147 0
120 133 0
135 149 0
126 141 0
122 135 0
130 143 0
120 134 0
129 142 0
122 135 0
122 135 0
140 155 0
126 141 0
124 138 0
124 134 0
127 142 0
129 143 0
139 153 0
113 127 0
131 142 0
142 160 0
130 142 0
131 142 0
125 137 0
133 146 0
130 143 0
130 142 0
124 135 0
136 148 0
130 142 0
132 144 0
143 155 0
135 146 0
134 149 0
134 149 0
142 153 0
144 158 0
127 137 0
132 146 0
143 156 0
147 160 0
141 154 0
146 159 0
140 155 0
146 161 0
138 152 0
135 149 0
132 144 0
135 148 0
144 156 0
150 161 0
143 155 0
138 152 0
134 146 0
141 154 0
148 161 0
145 156 0
137 152 0
147 160 0
149 163 0
145 160 0
149 162 0
148 163 0
137 150 0
152 167 0
145 156 0
143 155 0
148 163 0
149 163 0
142 156 0
142 155 0
151 165 0
151 162 0
150 163 0
149 160 0
153 167 0
150 165 0
150 159 0
151 166 0
147 161 0
146 159 0
148 163 0
152 169 0
149 162 0
147 158 0
148 162 0
151 164 0
154 165 0
158 171 0
156 173 0
156 170 0
151 168 0
154 166 0
149 164 0
160 177 0
157 174 0
157 173 0
152 168 0
153 168 0
155 172 0
160 177 0
159 174 0
161 179 0
159 176 0
155 169 0
161 177 0
154 170 0
157 171 0
158 175 0
163 182 0
157 173 0
162 178 0
157 173 0
166 184 0
158 174 0
158 171 0
165 182 0
159 177 0
158 176 0
162 181 0
161 177 0
160 173 0
160 177 0
159 177 0
163 180 0
159 177 0
159 177 0
163 180 0
162 179 0
158 177 0
164 182 0
158 177 0
162 180 0
160 178 0
164 185 0
166 188 0
165 183 0
165 183 0
165 184 0
163 182 0
166 181 0
173 197 92
174 197 84
173 197 67
170 194 80
169 193 76
172 196 84
169 192 67
171 195 62
167 190 25
167 192 57
168 193 51
171 195 76
172 197 67
171 196 44
173 197 80
166 189 51
167 190 67
172 197 99
173 198 92
172 196 67
167 191 62
170 194 80
167 192 76
171 195 67
171 195 88
169 193 80
170 194 62
167 191 80
166 191 95
166 189 51
165 190 76
170 194 62
170 195 88
164 188 67
170 194 80
167 190 44
167 192 80
167 191 84
169 192 80
164 188 80
170 195 88
168 192 88
165 189 62
168 192 72
166 191 92
164 189 80
168 192 62
162 186 44
163 188 102
162 187 62
168 192 76
165 189 72
163 187 80
165 189 76
165 189 51
168 192 76
163 186 57
164 188 84
160 184 67
165 189 76
164 188 84
162 186 67
158 182 80
161 184 57
161 185 51
159 183 51
160 184 44
156 180 76
166 189 57
160 183 72
155 178 51
158 182 84
161 184 80
159 182 62
158 181 84
155 179 57
153 177 67
167 190 88
154 177 80
155 177 88
151 175 76
155 178 51
152 175 86
142 165 76
126 150 99
105 131 125
87 115 120
84 113 125
97 123 115
79 109 129
92 119 129
104 130 143
97 123 139
103 129 131
98 125 142
96 123 149
94 122 147
78 108 144
101 128 161
100 126 150
88 117 155
91 118 149
101 126 147
88 116 144
89 117 145
104 130 158
94 120 153
81 110 147
96 123 159
94 121 135
95 122 150
97 124 148
100 128 154
89 117 160
100 127 162
96 123 151
93 120 159
72 104 147
91 119 145
81 111 150
94 120 158
72 104 154
80 110 157
72 104 157
64 99 161
74 105 155
72 104 157
73 104 151
73 104 151
64 99 158
72 103 153
66 100 155
68 100 153
72 102 148
70 102 152
67 99 145
67 99 136
67 101 152
61 95 140
65 99 143
70 101 144
67 100 142
64 98 145
62 95 139
65 97 139
62 96 135
59 93 132
68 101 140
59 93 139
59 93 129
62 95 135
59 93 129
62 97 150
61 96 140
62 97 151
61 96 148
61 96 148
62 97 145
60 95 141
59 94 124
61 97 150
61 96 151
61 95 142
59 94 135
61 96 136
61 96 149
62 96 149
61 96 141
62 98 149
61 96 143
60 95 138
62 97 144
61 96 140
61 97 151
60 95 137
61 97 147
58 92 125
61 96 141
60 95 143
63 98 153
62 97 147
61 95 141
60 94 134
60 95 143
61 96 139
59 93 134
60 95 139
60 96 143
61 95 136
60 94 131
60 95 136
60 94 140
62 97 147
61 96 139
60 95 133
60 95 142
60 95 141
60 95 134
60 95 127
61 95 140
60 95 141
59 93 131
60 95 137
61 97 144
60 95 134
60 94 133
62 97 143
59 93 124
61 95 133
60 95 139
62 97 144
59 93 131
59 94 125
61 96 145
60 95 127
59 93 133
60 95 137
58 92 121
60 95 129
60 95 127
60 95 130
60 94 130
60 94 131
59 94 131
58 92 120
58 92 127
59 93 126
61 95 134
60 95 133
59 93 124
58 91 121
58 91 121
59 93 127
57 90 118
59 92 120
58 91 117
57 91 111
58 91 121
57 90 111
57 89 105
57 90 105
60 91 103
86 108 80
92 112 70
95 112 60
120 135 25
106 120 0
113 128 0
110 125 0
121 136 0
125 137 0
123 135 0
128 142 0
133 147 0
113 128 0
130 143 0
116 131 0
121 133 0
116 128 0
122 134 0
125 140 0
126 141 0
134 151 0
127 143 0
132 146 0
138 154 0
120 135 0
127 141 0
124 137 0
135 149 0
127 144 0
129 141 0
131 146 0
129 143 0
124 139 0
133 145 0
133 148 0
119 132 0
129 140 0
135 148 0
128 142 0
134 146 0
140 154 0
124 137 0
139 152 0
129 143 0
127 139 0
122 133 0
132 147 0
144 158 0
130 145 0
131 145 0
136 149 0
134 149 0
135 148 0
137 150 0
134 149 0
138 151 0
142 153 0
141 154 0
142 154 0
133 145 0
141 153 0
139 151 0
147 159 0
134 147 0
139 153 0
137 151 0
142 156 0
138 150 0
145 157 0
144 158 0
140 153 0
142 156 0
139 151 0
142 156 0
152 167 0
142 156 0
145 158 0
140 153 0
149 162 0
144 159 0
139 150 0
149 163 0
151 164 0
145 159 0
146 159 0
143 156 0
144 155 0
151 163 0
157 172 0
147 160 0
148 162 0
155 171 0
144 157 0
154 169 0
157 170 0
153 167 0
153 170 0
154 170 0
152 169 0
151 166 0
149 165 0
143 157 0
153 167 0
152 167 0
151 165 0
151 166 0
162 181 0
152 168 0
159 175 0
163 180 0
158 173 0
150 163 0
158 174 0
152 169 0
147 162 0
160 176 0
153 167 0
157 174 0
155 171 0
155 170 0
160 173 0
157 172 0
156 172 0
162 180 0
155 172 0
157 173 0
158 174 0
164 182 0
165 181 0
161 179 0
165 182 0
155 170 0
165 183 0
156 174 0
159 177 0
158 173 0
163 182 0
162 179 0
164 184 0
159 175 0
159 176 0
162 180 0
162 177 0
161 179 0
166 185 0
162 180 0
156 174 0
165 183 0
165 184 0
165 182 0
162 179 0
166 183 0
161 179 0
167 186 0
166 184 0
162 181 0
165 183 0
167 184 0
173 197 80
170 195 99
172 195 62
171 195 76
173 197 67
169 194 76
168 193 62
169 194 67
174 198 76
172 195 67
171 195 84
171 196 76
169 193 67
168 193 88
174 197 76
168 192 72
173 197 95
170 194 76
171 195 88
169 193 76
171 195 51
169 193 76
172 196 76
171 194 67
167 191 62
170 193 51
172 196 76
166 190 57
169 194 67
168 192 62
171 195 76
167 191 44
168 192 62
167 191 62
169 192 57
169 193 51
169 192 67
167 191 99
163 188 80
167 191 84
165 189 62
167 190 62
167 190 62
169 193 76
167 191 80
166 190 67
167 191 84
163 188 80
162 186 62
166 192 80
165 189 62
163 186 67
165 190 72
166 191 88
157 180 76
161 185 72
165 188 51
161 184 62
164 189 76
162 184 76
163 188 76
160 183 62
167 191 76
164 187 72
161 185 62
161 185 84
160 185 67
159 182 67
160 183 72
163 186 84
158 181 57
162 186 72
158 182 84
160 183 67
160 182 62
163 186 80
151 174 62
148 172 51
160 184 88
153 174 44
155 178 67
157 180 76
157 180 62
151 174 74
124 147 80
122 146 115
98 125 126
91 118 120
95 122 121
99 126 144
90 117 135
106 132 153
87 114 134
90 118 139
86 115 139
93 120 131
91 119 147
90 117 147
103 130 154
85 114 146
91 118 127
98 124 142
99 126 163
102 128 148
91 119 159
92 119 154
90 117 159
99 125 141
81 111 149
96 123 150
92 119 154
103 129 165
83 112 145
91 120 151
90 118 148
104 130 158
89 117 160
94 122 158
84 113 148
80 111 156
95 122 147
77 109 159
76 107 153
67 99 149
75 107 156
73 105 155
68 100 149
77 108 159
69 101 147
66 99 150
74 104 149
79 108 156
66 99 144
71 103 151
66 99 146
65 99 142
62 94 131
68 101 141
65 96 129
61 96 148
71 102 145
62 96 133
60 95 134
62 96 138
60 95 136
59 93 139
61 96 153
63 97 144
62 97 144
62 96 137
63 96 139
60 94 132
61 95 131
61 95 139
61 96 137
60 95 135
61 95 136
59 94 131
60 94 141
60 95 141
61 96 142
60 95 140
61 96 145
60 95 136
61 96 147
61 97 142
60 95 135
60 94 127
60 94 143
61 97 144
60 95 145
60 95 139
60 95 141
60 95 139
59 94 130
60 95 147
60 95 145
62 97 142
61 96 137
60 95 147
62 97 145
60 95 136
61 96 143
61 95 135
59 93 126
60 95 140
60 95 142
60 95 134
60 94 129
59 93 131
61 96 145
59 93 132
62 96 144
61 95 135
59 93 127
60 95 140
60 94 133
61 95 135
61 96 137
62 97 144
59 93 125
60 95 130
59 93 131
60 95 129
59 94 133
59 94 130
59 93 125
60 95 142
61 96 144
60 95 133
61 95 135
61 95 134
60 94 134
60 94 127
61 95 131
60 95 142
59 93 134
60 94 133
60 94 131
59 93 124
60 95 133
58 92 118
58 92 118
61 95 143
59 94 131
58 92 124
58 91 115
58 92 121
59 93 122
58 91 111
58 92 121
59 94 126
58 92 121
58 91 113
59 93 126
57 91 114
58 92 111
59 92 115
56 89 113
56 89 103
65 96 115
73 98 88
81 101 77
96 112 60
118 135 36
117 131 0
113 126 0
119 135 0
115 130 0
108 122 0
112 126 0
122 138 0
126 140 0
125 139 0
132 145 0
119 135 0
124 138 0
125 139 0
122 138 0
131 146 0
124 140 0
123 135 0
118 132 0
129 143 0
121 136 0
127 142 0
124 137 0
119 133 0
123 135 0
136 151 0
125 138 0
127 143 0
113 126 0
134 147 0
124 137 0
131 146 0
137 152 0
136 149 0
137 149 0
136 152 0
126 139 0
131 143 0
130 145 0
134 148 0
131 146 0
131 144 0
133 147 0
138 152 0
135 150 0
137 150 0
141 153 0
134 145 0
143 157 0
130 145 0
141 153 0
138 150 0
147 163 0
139 154 0
136 148 0
129 141 0
133 146 0
138 151 0
134 148 0
139 153 0
152 167 0
149 164 0
138 148 0
135 148 0
147 160 0
131 145 0
149 165 0
143 155 0
136 148 0
140 151 0
149 162 0
142 155 0
148 164 0
149 161 0
139 149 0
148 163 0
139 150 0
146 159 0
146 160 0
144 155 0
143 157 0
151 166 0
144 157 0
149 165 0
153 165 0
148 161 0
144 155 0
147 161 0
151 164 0
146 160 0
153 169 0
159 175 0
150 163 0
143 157 0
148 161 0
147 162 0
150 164 0
155 171 0
144 156 0
153 167 0
156 170 0
163 179 0
154 170 0
157 173 0
158 174 0
153 167 0
158 177 0
156 172 0
158 173 0
153 167 0
157 173 0
156 169 0
159 177 0
158 176 0
152 170 0
156 174 0
158 175 0
154 170 0
157 173 0
155 172 0
161 180 0
159 176 0
156 172 0
161 177 0
156 175 0
160 177 0
162 179 0
157 173 0
163 181 0
157 174 0
158 176 0
162 178 0
158 174 0
167 185 0
160 177 0
163 181 0
165 185 0
162 180 0
159 177 0
164 184 0
156 173 0
164 181 0
164 182 0
165 184 0
161 182 0
163 179 0
164 183 0
165 184 0
162 180 0
162 180 0
166 187 0
159 177 0
164 185 0
162 179 0
163 180 0
160 180 0
171 195 80
170 194 84
170 194 80
171 195 88
171 195 67
169 193 88
170 193 62
169 193 57
171 195 84
171 196 102
169 193 51
173 198 80
170 194 62
169 192 72
172 196 84
167 191 51
170 194 62
167 191 44
170 194 88
169 193 76
174 198 72
166 191 72
167 191 76
169 193 67
162 186 67
168 192 88
165 189 51
168 191 76
166 191 80
169 194 51
170 194 80
167 191 62
170 194 62
168 192 84
162 185 67
166 190 62
169 195 92
166 190 76
164 187 44
165 190 72
168 192 72
162 186 72
170 193 67
160 185 62
163 188 72
160 185 72
169 194 84
169 192 72
164 188 80
165 189 80
167 192 80
167 191 76
166 190 72
165 189 72
161 184 72
162 185 51
163 188 80
163 188 88
162 186 72
159 183 80
159 183 76
158 182 62
152 176 76
161 186 76
161 185 25
160 184 67
150 173 67
159 182 67
161 185 72
164 188 80
160 184 67
163 187 88
160 182 67
160 183 67
157 181 72
152 175 62
162 185 72
153 175 70
158 180 62
157 180 76
153 176 67
161 184 88
159 182 67
159 182 86
141 163 65
137 159 88
105 129 92
83 111 107
93 119 133
94 121 122
94 120 137
96 122 137
108 133 140
83 111 126
104 129 148
104 130 133
80 109 137
94 121 148
82 110 134
93 119 137
100 127 157
74 104 144
94 121 149
93 119 141
93 120 151
102 128 152
91 119 152
90 118 153
103 130 165
97 124 154
91 118 148
91 118 138
105 131 151
86 115 148
90 118 150
97 124 152
88 117 160
92 120 150
86 115 156
80 108 149
91 117 159
81 111 150
84 114 157
74 106 157
72 104 152
70 104 163
66 99 157
79 108 153
84 111 155
78 107 157
70 101 151
74 104 153
74 105 150
67 101 159
65 98 146
64 98 148
74 105 149
70 102 149
65 98 134
69 102 141
71 102 141
61 96 152
65 99 142
65 98 133
66 98 129
64 98 131
61 94 127
61 95 136
65 99 136
60 95 139
58 92 131
59 93 131
60 94 130
60 94 137
60 95 140
60 94 139
60 95 135
60 95 143
62 97 141
60 94 136
61 96 144
61 95 140
60 95 136
60 95 134
61 96 148
60 94 131
61 96 147
61 96 150
61 96 140
60 94 134
62 97 148
61 96 143
60 94 129
60 95 140
61 95 143
61 96 142
60 95 134
61 96 140
62 98 156
60 95 140
59 93 125
60 95 136
60 94 133
61 95 134
60 95 139
60 95 141
61 96 141
60 94 134
60 95 131
58 92 127
60 95 131
59 94 131
61 96 135
61 96 133
58 92 121
61 95 135
59 93 130
60 95 136
60 94 142
59 93 129
61 97 140
60 95 135
59 94 135
60 94 126
61 96 137
59 94 136
61 95 135
58 92 134
60 94 134
59 93 126
58 92 129
60 94 136
61 96 136
59 93 130
59 93 115
60 94 129
59 93 133
60 95 135
59 94 131
59 93 129
60 94 126
59 93 127
59 92 124
59 93 124
59 93 121
57 91 108
59 92 126
58 91 114
59 93 121
59 93 121
58 91 113
59 93 121
57 90 110
57 90 107
59 92 122
55 88 94
57 90 97
57 90 113
58 92 115
55 86 100
76 100 88
77 100 78
99 115 47
104 120 40
112 127 0
114 127 0
119 135 0
123 137 0
123 139 0
117 133 0
117 131 0
126 140 0
126 138 0
123 138 0
128 143 0
130 143 0
131 144 0
122 136 0
125 139 0
122 136 0
128 142 0
125 140 0
120 130 0
123 139 0
125 140 0
127 141 0
130 145 0
133 147 0
130 147 0
134 150 0
129 144 0
128 141 0
131 146 0
130 144 0
133 148 0
130 145 0
125 140 0
134 149 0
136 151 0
125 139 0
127 137 0
133 147 0
130 144 0
131 146 0
136 149 0
135 150 0
129 142 0
136 148 0
125 139 0
137 150 0
132 144 0
140 153 0
133 148 0
144 159 0
135 149 0
133 145 0
138 153 0
139 151 0
140 152 0
133 146 0
135 149 0
133 146 0
133 146 0
133 147 0
137 150 0
146 161 0
130 143 0
152 166 0
147 162 0
133 148 0
142 156 0
146 160 0
148 164 0
147 161 0
144 160 0
140 152 0
134 149 0
147 159 0
147 160 0
147 161 0
150 166 0
152 166 0
148 162 0
147 160 0
142 155 0
145 158 0
150 163 0
152 165 0
146 161 0
150 163 0
152 167 0
150 164 0
149 162 0
154 169 0
146 159 0
146 161 0
151 165 0
152 166 0
149 163 0
153 170 0
160 176 0
154 170 0
149 163 0
160 176 0
150 166 0
163 178 0
155 171 0
158 171 0
152 168 0
153 168 0
158 174 0
148 161 0
153 169 0
150 166 0
161 174 0
161 177 0
157 174 0
159 175 0
165 182 0
156 171 0
159 176 0
156 173 0
157 175 0
158 175 0
158 174 0
155 168 0
161 178 0
156 174 0
163 180 0
161 176 0
164 182 0
160 176 0
160 177 0
162 178 0
159 177 0
151 163 0
159 176 0
161 179 0
158 175 0
162 180 0
165 184 0
161 180 0
164 182 0
163 181 0
161 180 0
167 188 0
160 180 0
166 185 0
164 181 0
161 180 0
163 182 0
157 176 0
159 177 0
167 186 0
166 185 0
160 179 0
163 183 0
162 182 0
165 185 0
164 183 0
170 194 62
171 195 67
177 200 62
173 197 76
172 196 80
172 195 57
170 193 51
165 190 76
173 197 44
169 194 76
168 193 62
169 194 80
169 194 67
166 190 72
166 191 76
167 191 62
171 196 95
168 192 72
168 192 51
168 194 105
167 192 72
168 192 72
171 195 92
166 191 72
168 192 80
167 191 67
165 188 44
169 194 92
166 190 76
173 196 84
171 195 95
171 195 67
161 185 76
168 192 67
164 187 57
169 194 80
163 187 62
162 186 72
164 189 80
163 187 105
168 192 72
170 193 57
166 190 84
169 193 51
167 190 67
167 191 76
165 189 67
167 191 57
164 188 57
165 189 80
164 188 67
161 186 57
164 188 62
162 185 51
167 191 72
163 187 62
160 183 72
160 183 57
158 182 62
165 187 80
157 180 44
158 182 84
159 182 72
168 193 99
162 186 67
158 182 92
156 179 57
167 190 76
162 185 62
150 174 88
157 180 86
161 185 92
165 188 84
159 183 84
160 184 72
157 181 84
161 184 72
155 178 51
159 182 72
157 180 57
153 176 80
153 176 84
158 181 84
153 175 92
144 166 62
146 169 93
129 153 95
110 135 114
87 113 124
85 114 126
91 119 130
93 119 137
90 118 137
97 123 137
87 114 133
92 118 132
92 119 147
101 127 153
98 123 138
96 121 139
94 121 148
84 111 133
94 120 140
92 119 142
108 132 149
83 111 141
96 122 148
88 116 149
102 128 151
105 131 143
100 127 158
92 120 140
92 120 134
103 129 153
79 109 143
101 127 161
96 123 143
94 121 142
83 113 153
97 123 158
92 119 163
86 114 153
80 109 152
85 113 158
70 104 157
71 104 154
83 111 153
76 105 160
70 101 147
70 101 145
74 103 149
78 106 153
69 100 146
66 99 155
72 104 164
63 97 137
69 102 158
73 102 133
65 98 145
73 105 140
62 96 140
69 99 125
74 103 132
63 96 135
60 95 141
64 98 133
67 99 129
62 96 136
63 97 140
62 96 132
60 94 135
59 94 134
60 95 136
61 95 140
61 95 136
59 93 129
60 95 135
60 94 131
61 95 140
60 95 139
60 94 133
59 93 132
61 95 139
61 96 148
60 95 136
61 95 134
60 94 136
61 95 140
60 94 135
60 94 139
60 95 140
61 95 136
60 95 135
60 94 136
61 96 141
59 93 128
60 95 143
61 95 145
60 95 134
61 95 143
60 95 131
59 93 130
59 92 120
61 95 133
61 96 141
60 95 137
61 96 144
60 95 142
60 95 143
61 96 134
59 93 127
60 94 141
60 95 135
60 95 141
60 94 130
60 95 135
60 94 127
60 95 137
61 96 130
61 95 140
58 92 135
60 95 133
60 94 130
59 93 127
60 95 136
59 93 127
58 93 115
59 94 124
59 93 125
58 93 117
59 93 125
60 94 127
60 94 134
59 93 125
59 93 118
58 92 117
59 93 127
60 94 135
59 93 115
59 94 135
58 92 126
59 93 126
60 95 133
60 94 129
57 91 117
59 93 122
59 93 126
55 88 103
59 93 131
58 93 124
57 91 111
60 94 131
57 90 110
58 91 117
57 90 111
57 91 111
58 91 115
55 88 107
59 89 95
79 104 97
85 105 60
100 117 54
101 117 40
109 124 18
118 134 0
114 128 0
113 125 0
123 137 0
118 134 0
120 135 0
113 129 0
123 139 0
124 139 0
108 122 0
122 135 0
120 135 0
121 135 0
131 146 0
124 137 0
130 144 0
129 144 0
126 142 0
128 143 0
121 132 0
136 152 0
128 143 0
125 140 0
130 146 0
124 139 0
134 149 0
119 134 0
137 154 0
134 147 0
127 143 0
127 143 0
127 142 0
133 148 0
132 146 0
135 149 0
136 150 0
132 146 0
133 146 0
128 144 0
135 147 0
134 147 0
133 148 0
132 145 0
140 153 0
137 154 0
139 153 0
142 156 0
144 161 0
144 159 0
147 162 0
150 163 0
134 147 0
147 162 0
145 161 0
140 152 0
137 149 0
148 162 0
141 154 0
129 142 0
134 146 0
138 153 0
142 157 0
137 151 0
147 161 0
144 157 0
139 154 0
145 160 0
147 159 0
138 152 0
150 164 0
138 153 0
138 154 0
151 167 0
143 156 0
145 156 0
144 158 0
149 161 0
133 147 0
149 164 0
153 168 0
145 157 0
146 159 0
148 159 0
143 155 0
145 162 0
145 160 0
152 168 0
149 162 0
144 158 0
146 161 0
151 165 0
153 168 0
150 168 0
149 162 0
152 169 0
155 172 0
155 167 0
152 167 0
149 164 0
144 160 0
153 169 0
152 164 0
155 171 0
153 167 0
157 172 0
154 168 0
156 172 0
156 173 0
160 176 0
163 178 0
160 176 0
155 173 0
156 173 0
158 176 0
161 178 0
154 168 0
158 173 0
163 180 0
159 175 0
157 173 0
159 175 0
162 177 0
155 170 0
160 177 0
159 174 0
157 173 0
160 177 0
159 175 0
165 183 0
160 177 0
160 177 0
158 176 0
165 184 0
158 173 0
163 181 0
162 181 0
164 181 0
164 183 0
163 182 0
160 180 0
166 185 0
161 179 0
169 187 0
164 184 0
164 185 0
165 183 0
160 180 0
163 184 0
166 185 0
163 182 0
160 180 0
159 180 0
166 186 0
166 188 0
163 183 0
165 184 0
169 193 72
167 191 84
168 192 72
171 194 67
170 194 57
171 194 51
169 192 72
169 193 76
168 191 67
168 192 67
174 198 92
172 197 80
172 197 76
171 195 72
174 197 76
171 195 72
168 192 62
171 196 92
166 191 88
168 192 76
167 191 57
169 193 67
168 193 84
165 189 76
169 195 84
167 191 72
170 193 80
172 196 88
166 190 62
165 189 51
169 193 92
168 193 72
169 194 92
169 193 76
168 193 80
165 189 51
165 190 80
164 188 67
169 193 72
163 187 76
169 194 76
169 194 102
166 191 88
165 190 67
164 188 51
164 189 84
168 192 80
165 189 84
163 186 67
167 191 72
167 191 84
164 188 67
168 192 95
166 190 76
171 196 80
164 189 80
160 183 57
158 182 51
159 181 62
159 183 25
160 184 72
167 192 76
163 186 72
164 188 84
161 185 67
162 185 84
160 183 62
162 186 92
158 181 62
159 182 84
161 184 72
158 181 99
158 183 84
161 184 51
160 184 84
157 181 82
157 180 62
153 176 67
160 184 72
153 175 57
162 184 80
154 176 72
148 169 72
157 180 67
142 164 51
153 175 80
147 170 86
124 148 111
99 125 129
97 124 134
104 130 139
83 111 124
85 113 120
85 113 115
90 119 137
90 117 132
100 125 130
91 118 141
88 116 141
92 118 134
87 115 135
82 110 142
98 124 149
109 135 150
95 122 163
100 125 147
96 122 144
84 112 142
94 122 152
108 132 158
101 127 148
107 132 146
100 126 130
107 131 155
102 128 153
92 120 155
97 123 145
87 115 144
83 113 154
95 122 151
88 117 153
81 111 155
92 119 151
79 109 149
80 109 155
77 107 155
78 107 153
81 108 154
69 101 145
77 108 163
73 104 154
67 99 143
66 99 150
71 103 150
77 107 150
61 95 140
67 100 148
68 102 149
69 101 120
70 101 146
67 99 136
63 97 139
63 97 132
63 95 115
58 92 126
68 101 133
59 94 143
64 97 130
58 92 117
59 92 126
60 93 124
61 95 118
60 95 131
61 94 129
61 96 143
59 93 130
58 92 121
58 92 124
61 96 137
59 93 130
60 95 136
60 95 134
61 95 137
60 96 140
61 96 135
60 94 135
61 95 135
60 95 143
61 95 133
60 94 135
61 95 133
60 95 133
60 95 137
60 94 134
60 95 127
61 95 139
61 96 145
60 94 139
61 96 137
62 97 148
61 95 137
59 93 129
60 95 134
62 96 137
59 94 133
59 94 124
60 94 139
61 96 144
59 93 129
60 95 134
60 94 135
60 95 137
60 94 133
60 95 129
60 95 136
60 94 131
60 95 135
60 94 131
61 96 141
60 94 127
60 94 124
59 93 127
59 94 129
58 91 130
61 96 142
58 92 114
59 93 125
59 93 131
60 95 134
59 93 121
60 95 139
60 95 131
58 92 124
60 95 136
58 93 122
59 93 126
59 93 129
58 91 117
59 94 127
58 92 113
57 91 122
58 91 120
60 94 124
57 90 115
57 90 111
58 91 122
58 92 115
58 91 117
57 90 107
57 91 116
57 90 117
58 92 120
54 86 100
56 89 113
57 90 103
59 93 124
57 90 113
59 91 105
72 99 99
82 105 86
104 122 72
106 121 36
111 129 31
100 112 0
117 132 0
113 127 0
107 121 0
108 120 0
119 133 0
117 132 0
116 132 0
128 143 0
129 144 0
119 133 0
128 144 0
127 143 0
117 133 0
126 142 0
134 149 0
123 137 0
131 147 0
128 143 0
127 142 0
121 135 0
136 152 0
136 151 0
130 142 0
130 146 0
124 138 0
121 137 0
129 143 0
130 144 0
128 141 0
121 136 0
111 125 0
133 147 0
139 154 0
123 138 0
134 147 0
129 145 0
136 150 0
133 148 0
135 151 0
141 157 0
136 149 0
133 148 0
136 152 0
142 155 0
143 154 0
141 158 0
132 145 0
138 152 0
140 154 0
137 149 0
140 153 0
147 163 0
136 148 0
137 151 0
136 148 0
146 160 0
144 155 0
142 156 0
139 154 0
144 161 0
149 165 0
145 161 0
142 156 0
150 165 0
144 157 0
142 157 0
137 150 0
138 151 0
148 163 0
142 155 0
149 164 0
148 162 0
141 156 0
138 152 0
145 158 0
143 157 0
154 169 0
147 163 0
145 160 0
141 155 0
150 162 0
150 166 0
151 163 0
142 156 0
149 163 0
147 162 0
153 168 0
148 163 0
154 169 0
149 163 0
148 163 0
146 159 0
146 159 0
151 167 0
150 164 0
151 167 0
154 171 0
154 168 0
157 173 0
154 169 0
158 176 0
154 171 0
147 164 0
151 166 0
155 172 0
159 177 0
148 163 0
156 174 0
157 172 0
160 176 0
157 174 0
157 174 0
155 172 0
157 174 0
161 176 0
155 169 0
149 164 0
156 175 0
155 171 0
158 174 0
156 174 0
159 176 0
158 174 0
159 174 0
159 175 0
160 179 0
159 176 0
162 180 0
162 180 0
157 173 0
161 180 0
165 182 0
160 178 0
158 175 0
162 181 0
161 179 0
165 183 0
168 187 0
156 173 0
165 183 0
162 181 0
166 185 0
166 185 0
165 185 0
159 179 0
159 178 0
165 184 0
164 184 0
160 178 0
165 184 0
170 190 0
164 182 0
162 183 0
162 183 0
165 184 0
162 183 0
175 198 57
172 196 80
170 194 80
170 194 76
170 194 72
170 194 67
167 191 72
168 193 99
171 194 62
172 197 88
172 197 76
170 194 72
169 192 62
166 190 57
171 196 80
167 192 88
167 190 51
167 191 72
167 191 51
171 196 76
168 192 88
166 190 44
173 196 80
169 193 57
169 194 80
168 193 80
167 191 80
166 191 80
168 192 57
169 193 62
166 190 72
169 192 67
169 194 57
163 188 84
169 194 80
169 194 80
166 191 62
167 191 67
165 189 72
171 196 84
160 184 62
165 187 62
162 186 72
162 186 84
160 184 67
166 190 92
163 187 72
165 190 76
163 186 57
168 192 67
160 184 76
164 187 84
168 193 67
164 188 72
156 180 76
161 185 80
158 181 67
164 188 57
156 180 67
161 185 51
156 180 67
165 188 99
161 185 67
169 194 57
159 182 67
161 184 72
157 181 62
161 185 72
162 186 88
166 190 72
165 189 88
154 176 72
157 180 76
155 178 67
162 185 72
158 181 44
160 183 72
154 177 72
151 173 80
157 179 51
155 177 76
153 176 57
158 180 84
155 178 84
160 182 62
145 167 54
137 159 72
150 173 103
111 135 86
100 127 122
82 111 123
98 124 132
95 122 141
81 110 129
89 116 134
98 123 130
82 110 120
90 117 124
86 114 133
93 119 134
109 134 145
94 120 131
99 126 151
88 115 129
86 114 143
91 118 139
89 117 150
102 128 157
88 116 143
110 134 151
98 125 146
101 128 156
87 115 148
96 123 145
83 112 139
94 121 148
83 112 137
87 114 142
102 127 161
90 117 149
92 120 147
95 123 164
83 113 152
82 111 147
80 110 150
86 114 161
68 102 155
76 105 139
71 103 148
75 105 149
80 108 148
79 107 150
70 100 138
76 105 155
67 100 147
68 101 154
79 107 150
62 97 136
64 98 139
70 101 137
69 101 136
60 95 145
63 98 136
61 95 125
62 95 131
62 96 126
60 93 120
57 91 122
63 96 120
61 95 140
59 94 133
60 94 121
58 93 125
59 93 129
59 94 129
59 93 131
60 95 126
60 94 125
59 94 135
59 93 123
60 95 131
60 95 127
61 95 135
59 94 131
60 94 134
62 97 145
61 96 141
60 94 134
60 94 126
59 93 132
61 95 136
60 94 134
61 96 144
59 93 129
60 95 134
61 95 134
60 95 136
62 97 142
60 95 136
61 96 137
60 95 137
60 94 134
59 93 134
60 94 135
59 93 127
60 95 129
60 95 133
58 92 127
60 94 133
61 96 141
60 94 130
61 96 137
60 94 135
59 93 127
60 95 137
59 94 129
60 94 130
59 94 127
59 93 129
58 92 121
59 92 127
60 95 134
62 97 140
60 94 124
59 93 129
60 94 134
58 92 120
58 91 115
59 93 126
60 94 122
57 90 114
58 92 113
60 94 117
59 93 118
57 91 114
59 94 130
59 93 126
58 92 111
59 93 125
59 93 127
56 90 108
57 90 113
58 92 121
59 93 118
59 93 125
57 90 113
59 92 120
58 92 120
59 92 120
58 92 117
57 90 117
57 91 114
57 90 117
56 89 100
57 90 111
57 90 110
60 89 94
70 95 100
84 107 80
105 123 65
111 128 51
115 131 0
120 136 0
115 129 0
117 130 0
113 128 0
108 122 0
116 129 0
115 129 0
125 141 0
105 119 0
119 133 0
128 142 0
116 132 0
120 134 0
127 140 0
122 137 0
125 141 0
130 143 0
134 148 0
129 143 0
132 148 0
139 154 0
121 135 0
119 134 0
135 150 0
125 140 0
131 147 0
129 143 0
127 143 0
138 152 0
127 143 0
136 149 0
125 142 0
135 150 0
136 151 0
139 154 0
125 140 0
137 153 0
134 150 0
136 148 0
132 148 0
132 147 0
138 153 0
143 159 0
133 146 0
133 147 0
136 151 0
130 145 0
133 146 0
139 154 0
131 145 0
122 135 0
137 151 0
144 162 0
140 156 0
139 154 0
144 155 0
151 168 0
141 156 0
137 150 0
145 163 0
144 159 0
142 157 0
144 159 0
138 154 0
150 167 0
141 154 0
140 155 0
145 158 0
144 158 0
147 162 0
141 157 0
147 162 0
145 161 0
145 159 0
151 165 0
150 164 0
140 154 0
139 154 0
143 157 0
145 162 0
146 161 0
150 163 0
150 164 0
145 161 0
145 161 0
159 171 0
150 163 0
148 165 0
146 160 0
148 163 0
155 169 0
150 166 0
150 164 0
159 175 0
158 173 0
149 165 0
155 170 0
148 162 0
157 174 0
151 168 0
147 160 0
153 169 0
153 167 0
156 171 0
154 170 0
156 172 0
145 160 0
147 162 0
156 173 0
153 169 0
151 168 0
158 174 0
149 166 0
154 171 0
151 170 0
152 165 0
159 173 0
159 176 0
161 178 0
160 178 0
154 171 0
160 177 0
162 178 0
153 168 0
154 170 0
163 180 0
162 181 0
159 176 0
158 174 0
160 177 0
164 181 0
158 177 0
166 187 0
161 180 0
159 176 0
164 183 0
164 181 0
156 173 0
160 176 0
160 177 0
166 183 0
162 181 0
168 190 0
165 183 0
162 180 0
166 186 0
163 182 0
165 185 0
165 186 0
169 189 0
163 182 0
162 182 0
162 181 0
165 184 0
165 185 0
161 179 0
163 183 0
165 182 0
173 197 84
172 195 84
169 195 102
170 194 84
170 194 62
171 195 80
174 199 76
171 195 72
170 195 67
172 195 44
166 191 84
169 193 80
172 196 102
170 194 76
171 195 72
165 189 51
172 196 80
167 192 72
171 195 62
167 191 57
170 194 80
168 193 72
168 191 67
171 195 84
168 191 51
165 189 72
170 194 76
164 188 84
164 188 67
167 192 72
172 196 76
167 192 57
164 188 67
164 189 84
170 195 72
170 193 57
166 190 57
168 193 76
168 192 88
163 187 84
164 187 67
168 192 84
162 186 80
164 188 72
167 191 57
166 190 72
163 186 72
159 182 62
162 186 51
164 188 67
163 187 72
161 185 62
157 179 57
162 186 36
164 187 72
158 182 62
163 187 67
162 186 72
163 188 80
166 189 51
161 185 80
160 183 57
158 182 72
162 186 88
162 186 76
160 184 72
156 180 51
160 184 80
161 185 76
161 185 88
152 176 76
158 181 80
157 181 67
155 179 72
154 176 57
162 185 84
159 181 92
155 178 76
154 176 67
154 177 72
162 184 99
157 180 99
151 174 62
153 176 80
157 179 62
156 178 80
152 174 57
147 170 84
140 163 78
119 144 118
84 112 121
91 117 120
95 122 126
88 116 135
97 123 124
84 111 130
88 115 122
81 110 124
78 107 122
91 117 132
101 127 140
91 118 147
95 121 137
90 116 137
94 120 140
80 110 132
96 122 141
93 121 153
90 116 129
94 120 154
98 123 145
100 125 142
92 120 145
87 115 144
89 117 145
88 116 151
94 122 144
99 125 146
96 123 158
87 114 148
91 119 155
80 109 148
82 110 142
86 115 157
84 113 146
76 106 145
81 110 141
71 102 145
77 105 148
69 101 156
82 109 151
74 103 145
68 100 145
69 100 144
71 102 151
74 105 154
66 99 145
71 101 139
66 98 134
63 97 140
65 98 135
67 99 138
64 98 141
68 100 123
63 95 131
64 96 126
63 96 124
65 98 134
63 96 127
65 98 125
63 96 113
59 93 127
56 89 117
59 92 113
58 92 122
60 95 136
59 93 123
57 91 117
59 93 136
59 93 127
61 96 133
59 93 130
57 91 113
59 94 136
59 94 134
59 93 124
59 94 126
59 93 121
60 95 139
60 95 134
60 95 131
61 96 140
59 93 126
58 92 124
59 93 129
61 95 137
59 93 124
59 93 127
60 94 129
59 93 129
59 94 127
59 94 129
58 92 120
59 94 124
59 93 136
61 96 139
60 95 126
59 93 125
58 92 126
59 93 124
60 95 129
59 93 114
59 93 125
59 93 122
59 94 124
59 94 125
60 95 137
59 93 118
59 93 129
59 93 122
60 95 133
59 93 118
60 95 135
60 94 125
58 92 122
59 93 129
60 94 125
59 94 124
57 91 118
59 93 121
59 93 130
59 92 124
58 92 114
58 92 129
60 94 131
59 93 121
59 93 137
59 93 126
59 93 126
58 92 117
58 92 118
57 90 111
56 90 110
57 91 117
59 93 124
56 89 107
58 92 121
58 91 118
58 92 122
57 90 107
58 91 110
58 92 120
57 91 120
56 89 102
54 86 103
55 85 94
65 93 100
79 101 80
89 109 65
109 126 36
100 114 41
111 126 0
104 119 0
115 128 0
117 130 0
125 140 0
120 133 0
114 129 0
110 126 0
114 130 0
116 129 0
133 148 0
128 144 0
137 154 0
117 133 0
120 134 0
122 136 0
124 138 0
129 146 0
118 132 0
137 153 0
140 157 0
125 139 0
129 144 0
120 137 0
129 146 0
133 149 0
130 144 0
130 145 0
138 154 0
134 148 0
127 141 0
138 153 0
129 145 0
134 148 0
137 153 0
144 160 0
129 145 0
136 152 0
138 151 0
138 155 0
137 153 0
133 147 0
126 140 0
141 156 0
135 150 0
137 151 0
132 147 0
135 151 0
140 155 0
130 143 0
145 159 0
147 163 0
138 152 0
138 151 0
151 166 0
135 152 0
138 155 0
137 153 0
143 158 0
140 156 0
138 153 0
145 161 0
140 153 0
134 150 0
136 150 0
143 158 0
138 151 0
143 159 0
145 161 0
153 168 0
141 155 0
146 161 0
152 166 0
143 159 0
139 155 0
153 169 0
145 161 0
148 164 0
151 165 0
154 171 0
145 158 0
153 168 0
151 168 0
148 165 0
145 159 0
151 164 0
151 166 0
143 159 0
146 160 0
153 170 0
157 174 0
153 167 0
155 173 0
158 175 0
144 159 0
154 169 0
155 170 0
153 168 0
159 178 0
156 171 0
153 169 0
149 164 0
156 174 0
160 177 0
154 173 0
152 168 0
156 173 0
161 178 0
150 166 0
157 174 0
155 171 0
155 171 0
152 169 0
157 173 0
151 166 0
158 174 0
160 174 0
158 173 0
164 180 0
158 175 0
158 176 0
157 174 0
157 174 0
152 170 0
157 173 0
157 174 0
156 173 0
163 181 0
158 176 0
159 176 0
157 176 0
164 182 0
156 174 0
161 177 0
165 186 0
160 179 0
161 176 0
163 180 0
161 180 0
157 176 0
161 178 0
162 181 0
153 170 0
161 179 0
164 183 0
164 183 0
161 180 0
158 176 0
164 185 0
162 182 0
162 180 0
158 179 0
168 186 0
163 180 0
167 187 0
164 183 0
163 183 0
167 188 0
167 187 0
169 193 72
173 197 80
170 194 57
175 198 67
173 197 99
171 194 62
173 197 95
169 193 62
173 197 76
167 191 44
168 192 67
168 192 51
171 195 72
171 196 84
168 192 105
172 195 76
165 190 80
170 193 62
171 195 76
165 188 88
171 195 62
170 195 80
168 194 88
170 195 76
170 195 92
169 194 80
170 195 92
169 193 51
168 192 80
169 194 88
171 195 80
168 191 44
167 191 62
164 188 72
167 192 62
159 183 76
164 189 76
167 192 72
166 191 88
166 191 67
166 190 67
165 189 67
160 184 57
166 189 92
168 191 76
168 191 88
164 189 84
169 193 88
166 190 62
162 187 99
166 191 76
159 183 72
169 193 76
158 182 62
162 186 67
161 186 67
166 189 84
163 188 88
160 184 57
157 182 72
164 187 62
158 182 62
164 188 76
162 185 62
163 186 92
165 189 76
159 182 72
157 180 76
154 177 67
158 181 76
159 183 95
155 179 80
152 176 76
157 180 57
153 176 76
147 170 57
155 178 72
158 180 80
158 181 67
151 175 80
148 171 72
149 170 0
152 174 80
152 175 80
147 170 62
152 174 67
147 169 62
146 168 67
131 153 80
119 142 72
106 131 110
101 126 125
95 121 111
85 113 118
93 120 127
90 117 137
92 119 132
89 116 119
98 124 136
90 117 124
95 121 124
77 106 128
90 117 141
85 113 131
96 123 146
105 130 137
99 125 143
104 129 146
84 110 126
96 122 137
92 119 152
91 118 144
106 131 149
93 119 137
95 122 152
89 118 154
103 128 151
91 119 151
92 120 129
97 123 139
83 111 143
90 117 143
81 110 149
80 109 139
81 112 151
86 114 147
77 107 156
75 105 149
77 107 150
74 104 155
79 106 141
82 109 152
71 100 135
78 107 158
76 105 142
78 107 147
67 98 138
68 100 139
68 98 130
62 95 130
63 97 138
58 93 131
63 95 121
68 98 134
65 98 128
59 94 136
60 94 120
64 96 107
61 95 130
60 94 127
61 94 122
61 94 120
59 93 117
61 96 128
57 91 118
59 93 122
59 93 126
58 91 120
59 93 120
59 94 131
59 94 124
58 92 110
58 92 122
59 93 127
59 93 125
61 95 134
58 92 129
59 93 120
60 94 125
60 94 127
60 94 124
60 95 135
61 95 127
59 94 136
58 93 115
61 95 136
60 95 136
56 89 110
59 94 129
59 93 121
60 95 133
59 93 125
59 94 134
59 94 127
59 92 130
58 92 113
61 95 133
61 96 139
60 94 127
60 95 130
60 94 135
60 94 131
59 93 125
60 94 129
61 95 135
58 92 124
59 94 121
58 92 118
60 94 130
58 93 120
57 91 120
59 93 129
59 93 131
57 91 110
60 94 130
59 93 125
60 94 127
58 92 118
60 95 136
60 94 127
59 94 121
58 92 117
59 94 115
58 92 114
58 92 108
58 92 115
58 93 115
59 94 122
59 93 126
60 95 131
59 92 124
58 91 118
58 92 114
58 91 122
58 91 114
57 90 108
56 89 105
56 89 107
56 89 102
58 91 114
56 89 102
56 89 108
57 89 103
55 86 107
60 91 95
77 101 78
90 111 67
104 121 51
106 121 36
123 138 18
120 135 18
114 128 0
117 132 0
124 140 0
122 137 0
108 119 0
126 142 0
122 138 0
117 131 0
116 131 0
124 141 0
122 139 0
116 130 0
120 137 0
117 131 0
134 151 0
134 151 0
117 130 0
129 146 0
135 150 0
119 132 0
119 134 0
124 139 0
137 155 0
128 142 0
128 143 0
130 146 0
134 149 0
127 143 0
129 144 0
129 143 0
136 149 0
141 155 0
127 141 0
137 153 0
140 156 0
127 141 0
134 150 0
137 150 0
139 154 0
131 148 0
134 150 0
131 146 0
137 153 0
133 149 0
126 142 0
142 158 0
137 151 0
143 158 0
133 146 0
140 156 0
136 150 0
135 147 0
147 162 0
149 164 0
138 154 0
136 152 0
147 161 0
143 160 0
137 149 0
145 160 0
147 160 0
146 160 0
145 161 0
143 157 0
144 159 0
148 163 0
144 158 0
145 160 0
155 172 0
153 170 0
134 147 0
152 167 0
149 164 0
146 160 0
143 160 0
135 151 0
148 165 0
150 166 0
148 162 0
148 163 0
154 171 0
145 161 0
143 160 0
148 165 0
153 170 0
144 158 0
145 158 0
154 171 0
149 164 0
153 170 0
151 168 0
148 164 0
153 169 0
149 166 0
159 178 0
155 174 0
157 172 0
157 175 0
154 170 0
145 160 0
153 168 0
156 171 0
157 172 0
154 171 0
151 167 0
153 167 0
150 164 0
148 165 0
152 168 0
149 164 0
162 180 0
152 168 0
154 169 0
152 168 0
157 174 0
156 173 0
157 172 0
154 171 0
156 173 0
161 176 0
157 174 0
160 179 0
166 185 0
155 172 0
161 179 0
159 178 0
157 172 0
157 175 0
160 178 0
162 181 0
159 174 0
160 176 0
162 179 0
162 178 0
157 176 0
156 175 0
159 178 0
154 170 0
163 180 0
160 178 0
167 185 0
160 179 0
161 178 0
161 177 0
166 185 0
165 183 0
162 182 0
158 175 0
163 182 0
164 184 0
163 179 0
164 183 0
162 183 0
163 181 0
167 188 0
165 185 0
166 185 0
160 180 0
162 184 0
170 193 67
169 192 72
166 191 76
173 196 80
169 193 95
173 197 80
172 196 76
165 189 51
172 195 88
167 191 76
166 191 72
169 193 62
170 193 62
170 195 99
174 198 84
166 190 67
170 195 84
168 193 80
165 188 44
165 189 51
165 190 72
169 193 72
167 192 80
168 192 76
170 194 76
167 190 76
167 192 67
169 193 62
171 195 80
166 192 88
167 191 76
168 193 72
165 188 67
165 189 72
165 190 72
166 190 72
167 191 76
168 192 84
156 180 57
166 190 67
163 187 67
163 187 62
166 191 67
167 191 72
163 187 62
168 193 76
158 183 62
161 186 84
170 193 84
169 193 95
162 186 102
165 189 62
161 185 72
165 189 92
164 188 84
158 181 51
159 182 67
168 192 88
167 191 80
165 188 62
163 186 67
165 188 95
164 188 92
157 181 99
164 188 67
160 182 76
158 181 67
157 180 84
156 180 84
153 176 67
157 180 62
159 182 84
159 181 80
155 178 62
162 186 84
159 182 57
156 180 72
160 183 80
156 178 80
153 175 62
148 170 72
153 175 62
150 172 67
144 166 62
150 172 62
153 175 72
153 175 84
152 174 67
146 168 72
142 164 82
122 144 100
97 122 113
92 119 130
89 116 118
93 120 136
105 131 145
93 120 126
93 120 133
86 113 126
88 116 127
92 119 133
102 128 141
93 119 129
88 114 129
88 115 120
91 117 133
81 108 115
98 124 140
100 127 149
91 118 144
86 113 127
98 125 157
93 121 146
109 134 148
98 125 150
110 134 161
94 119 141
87 116 144
97 123 149
94 120 150
106 130 163
79 109 149
91 118 157
74 105 151
80 109 143
90 116 155
72 103 143
82 111 145
70 101 149
71 102 147
75 105 145
83 110 149
76 104 141
70 100 151
69 102 149
68 100 135
66 97 132
68 100 149
65 99 129
69 100 137
67 100 145
67 99 131
63 95 127
66 99 143
63 96 121
63 96 127
61 95 122
63 94 125
59 94 124
65 97 124
61 95 127
62 96 131
60 94 116
58 92 122
59 94 131
59 93 116
60 95 143
59 93 129
60 94 131
59 93 120
59 94 122
58 92 122
60 94 134
59 94 126
58 92 128
59 93 122
59 94 133
59 94 124
59 94 126
59 93 124
59 93 125
59 94 130
59 93 120
58 92 122
59 93 127
59 93 131
60 94 134
60 94 131
59 94 127
60 94 131
59 93 130
60 94 134
61 95 134
60 94 127
60 94 131
59 93 118
57 90 117
59 94 129
61 96 139
60 95 136
60 94 134
60 94 131
59 93 121
59 93 120
59 92 122
60 94 133
58 92 118
58 91 122
58 92 122
59 93 134
58 92 115
59 93 126
59 93 127
60 94 125
60 95 131
59 93 125
57 90 108
59 93 125
57 91 117
58 93 118
58 93 126
58 92 113
58 92 117
58 92 121
58 91 125
58 92 117
59 92 111
58 91 108
58 92 115
59 93 124
59 93 122
59 92 122
57 91 124
59 93 124
57 91 107
56 88 111
59 92 121
56 89 102
57 90 113
57 90 110
57 90 118
59 92 115
57 90 111
55 88 88
79 104 100
80 104 86
96 113 51
89 104 36
107 124 25
99 112 0
119 133 0
127 143 0
110 124 0
118 133 0
123 140 0
104 118 0
115 130 0
120 135 0
113 127 0
115 131 0
127 143 0
128 145 0
126 141 0
116 131 0
128 143 0
121 139 0
122 138 0
132 148 0
130 146 0
127 144 0
132 149 0
122 139 0
123 136 0
129 144 0
122 136 0
131 148 0
138 153 0
129 146 0
137 153 0
137 152 0
127 141 0
136 153 0
123 139 0
137 152 0
135 149 0
127 141 0
129 143 0
138 156 0
140 156 0
136 150 0
120 136 0
135 150 0
141 157 0
139 153 0
146 163 0
142 159 0
133 151 0
134 149 0
135 151 0
141 157 0
143 158 0
143 156 0
150 166 0
137 153 0
143 158 0
135 151 0
147 163 0
151 166 0
137 152 0
152 166 0
138 152 0
141 155 0
149 166 0
146 161 0
143 158 0
146 161 0
150 163 0
148 165 0
138 153 0
150 166 0
148 163 0
140 155 0
146 162 0
144 159 0
149 165 0
144 160 0
140 155 0
144 159 0
147 162 0
143 158 0
149 165 0
148 164 0
150 164 0
148 163 0
146 162 0
142 158 0
142 158 0
152 169 0
151 167 0
153 168 0
152 169 0
148 165 0
151 166 0
147 162 0
149 167 0
144 160 0
150 166 0
155 171 0
155 172 0
156 172 0
148 163 0
151 168 0
153 168 0
150 168 0
147 165 0
154 170 0
155 173 0
160 178 0
159 173 0
158 176 0
151 167 0
154 170 0
151 168 0
156 173 0
154 168 0
155 171 0
161 179 0
162 179 0
155 172 0
159 177 0
152 171 0
156 172 0
166 183 0
161 179 0
157 173 0
163 179 0
160 178 0
163 179 0
162 181 0
163 180 0
164 183 0
158 176 0
161 180 0
161 180 0
160 178 0
162 181 0
162 182 0
164 181 0
162 180 0
163 181 0
158 175 0
160 178 0
161 180 0
161 177 0
159 178 0
165 184 0
161 178 0
162 182 0
165 184 0
160 180 0
164 184 0
159 177 0
165 184 0
160 178 0
167 187 0
167 187 0
163 182 0
165 185 0
160 180 0
168 185 0
169 192 57
171 196 72
167 191 76
172 196 72
172 196 62
171 196 92
171 195 72
171 195 72
167 192 80
170 193 84
169 192 76
165 189 62
167 192 80
169 194 72
172 196 80
167 191 57
165 189 72
171 196 84
168 192 44
166 190 88
170 194 67
165 190 67
170 195 80
168 193 76
166 191 80
168 192 51
170 196 105
168 192 72
161 186 76
168 192 76
168 192 72
168 192 67
172 195 76
171 195 72
167 191 76
168 192 76
165 191 99
164 189 72
165 190 88
169 192 80
166 190 62
166 190 84
165 188 76
168 191 84
167 190 72
167 191 84
165 189 84
165 188 72
166 189 80
165 189 84
167 191 67
160 184 67
167 190 84
163 187 72
166 190 67
165 188 57
171 195 92
168 191 80
165 187 76
168 191 67
161 185 62
158 181 51
158 181 62
157 181 84
161 185 88
157 182 84
162 186 76
159 182 92
162 184 51
164 187 62
166 190 95
155 178 72
159 182 57
160 184 72
162 184 57
147 169 62
164 187 72
146 169 62
151 174 80
158 180 72
144 166 72
151 174 72
151 173 72
147 169 80
148 171 72
147 168 67
151 172 62
142 163 54
138 160 67
142 163 78
141 164 108
115 140 106
98 123 123
95 120 121
90 118 126
89 114 107
91 118 122
94 121 137
82 110 136
91 118 121
86 113 120
97 123 119
88 115 127
107 132 143
93 119 139
101 126 149
93 120 146
92 120 124
96 123 134
87 113 127
104 129 142
103 129 149
106 131 149
89 116 140
98 124 148
91 117 144
109 133 145
73 104 124
83 112 145
105 130 155
86 114 142
88 117 145
84 111 133
90 118 142
86 114 145
91 118 154
80 110 147
81 110 152
86 113 150
87 113 146
75 105 147
79 104 131
91 115 152
70 100 134
69 99 139
69 101 144
83 108 142
67 99 135
74 103 141
70 101 133
72 102 125
66 98 126
67 100 133
71 102 127
64 96 123
62 96 133
69 99 125
68 99 118
67 99 130
58 92 121
58 92 124
62 94 113
60 93 110
57 91 114
56 89 110
60 93 110
60 94 132
57 91 113
58 92 119
60 94 127
60 95 126
58 91 120
59 94 126
58 92 122
59 93 120
59 94 121
58 92 111
59 94 127
59 94 125
61 95 139
59 94 129
59 92 115
58 92 114
59 93 125
57 91 103
58 92 122
59 92 124
59 93 126
58 91 110
57 91 110
58 92 124
59 94 126
59 94 126
60 94 133
60 94 133
60 94 131
58 92 118
57 91 118
59 93 126
59 93 114
58 92 117
59 93 122
59 93 127
57 91 113
59 93 118
59 94 127
59 94 122
59 94 124
60 94 124
59 93 124
58 92 118
59 93 122
59 93 127
60 95 130
58 92 103
59 93 127
57 91 114
59 92 126
58 92 121
59 92 121
57 91 115
59 93 129
59 93 118
55 88 110
59 94 122
58 92 122
57 90 114
57 91 115
57 91 107
58 91 122
56 89 105
57 90 118
58 92 118
59 93 121
58 92 121
56 89 103
55 88 99
58 92 122
57 90 108
56 88 110
56 88 97
56 89 107
55 85 82
68 94 74
90 110 72
92 112 51
95 112 40
109 124 36
115 131 0
112 126 0
119 133 0
120 135 0
120 135 0
110 126 0
115 131 0
119 133 0
128 144 0
127 142 0
115 130 0
120 134 0
111 127 0
126 141 0
121 136 0
118 131 0
139 156 0
135 151 0
122 138 0
134 151 0
129 143 0
129 144 0
129 145 0
133 149 0
125 139 0
129 144 0
135 153 0
135 151 0
136 154 0
133 150 0
128 142 0
132 145 0
128 145 0
142 158 0
127 141 0
134 150 0
135 151 0
131 145 0
136 154 0
137 152 0
134 150 0
131 147 0
145 158 0
147 165 0
138 154 0
139 156 0
137 151 0
136 149 0
143 158 0
134 147 0
141 155 0
141 159 0
132 148 0
129 145 0
150 168 0
134 149 0
133 146 0
144 160 0
144 159 0
142 159 0
144 162 0
151 169 0
132 145 0
138 155 0
145 162 0
149 165 0
144 159 0
148 165 0
137 152 0
146 162 0
138 155 0
144 158 0
147 165 0
160 177 0
145 160 0
154 171 0
150 165 0
140 155 0
156 171 0
149 166 0
141 154 0
146 161 0
149 163 0
150 167 0
148 164 0
149 164 0
147 163 0
152 167 0
156 172 0
152 167 0
149 164 0
155 172 0
156 170 0
154 169 0
159 174 0
147 164 0
151 168 0
155 168 0
153 171 0
161 177 0
153 171 0
150 165 0
159 175 0
154 171 0
155 171 0
159 178 0
156 173 0
158 175 0
154 172 0
158 174 0
158 175 0
156 173 0
154 171 0
156 175 0
165 185 0
165 184 0
158 175 0
155 174 0
160 179 0
160 176 0
153 170 0
159 177 0
153 171 0
158 174 0
158 174 0
161 180 0
161 178 0
161 179 0
157 176 0
160 177 0
158 175 0
159 176 0
160 176 0
158 177 0
159 176 0
162 180 0
162 179 0
165 184 0
157 175 0
161 178 0
163 181 0
156 175 0
160 180 0
158 177 0
160 180 0
162 180 0
161 181 0
167 186 0
158 176 0
161 179 0
166 184 0
160 177 0
164 185 0
166 184 0
166 185 0
163 181 0
169 186 0
162 182 0
159 178 0
165 183 0
164 184 0
162 180 0
171 195 72
170 192 80
170 194 67
169 193 72
166 190 67
170 193 76
167 191 84
170 195 67
170 193 62
168 193 76
166 191 76
167 192 72
168 192 51
167 191 76
170 194 84
164 188 62
171 195 76
167 190 80
166 190 84
168 192 67
170 194 57
169 194 72
173 197 72
170 194 51
166 191 72
170 194 84
164 188 76
173 196 57
164 188 80
165 190 76
167 191 84
164 189 88
170 193 80
165 190 92
172 196 72
165 189 67
165 189 72
164 189 62
168 193 99
168 192 88
164 188 76
166 189 62
159 182 57
161 185 80
165 188 62
166 189 84
167 190 72
163 187 62
165 189 84
167 192 62
161 184 57
163 187 67
160 184 84
165 189 92
162 186 76
166 191 99
162 185 76
165 189 62
163 187 57
160 183 80
169 191 67
166 189 88
164 187 76
161 185 62
150 173 76
166 189 76
161 185 67
157 180 67
154 177 88
160 182 62
161 185 80
149 171 80
161 184 72
150 171 76
164 186 62
157 180 72
146 169 36
160 183 76
154 176 80
156 178 84
159 180 80
157 180 88
150 173 57
155 178 62
155 178 95
144 165 51
142 163 80
146 168 72
143 164 72
151 173 80
146 168 80
118 139 62
122 145 110
87 114 111
86 112 116
83 111 122
92 118 119
94 120 133
85 113 130
82 109 115
92 119 131
96 121 136
90 117 142
89 115 119
99 124 133
102 126 137
86 115 134
92 119 131
87 114 117
92 118 129
104 129 141
97 122 139
104 128 145
106 130 141
102 127 144
102 128 136
97 122 126
97 123 146
86 114 147
99 125 142
102 128 152
95 120 137
84 114 150
92 118 145
86 113 145
95 122 142
78 107 144
72 102 136
76 103 139
79 107 145
75 104 148
85 110 145
78 106 144
80 108 147
74 102 145
82 108 133
68 98 130
76 104 142
73 104 140
77 106 136
72 103 131
70 101 129
60 95 136
71 102 129
66 99 131
69 99 127
75 104 127
69 100 118
61 94 130
62 94 114
58 92 127
65 97 118
60 94 122
60 93 110
58 92 117
60 93 115
57 90 119
58 92 116
59 93 127
59 93 130
58 92 123
58 92 118
59 93 124
59 93 117
59 93 115
59 94 131
58 93 121
59 94 131
58 92 118
61 96 136
60 95 126
59 93 125
59 93 126
59 93 124
58 93 118
58 93 114
56 89 102
57 90 109
58 91 115
61 95 135
59 94 129
56 89 100
59 93 125
59 94 125
60 94 135
58 92 123
59 93 125
59 93 124
58 92 113
60 94 126
58 92 130
60 94 133
59 93 121
59 93 120
59 94 126
58 92 115
58 91 113
59 94 125
59 93 120
59 94 125
58 92 122
57 91 110
59 93 121
57 91 111
58 91 113
59 93 118
57 91 120
59 94 122
58 92 120
57 91 113
58 92 118
58 91 110
58 91 121
58 92 107
60 94 136
58 92 122
59 93 114
59 93 127
55 88 107
58 92 115
57 91 110
56 89 97
58 91 121
57 89 115
57 91 113
56 88 95
57 91 110
56 89 110
58 91 111
57 90 107
57 90 114
63 91 107
76 100 100
90 112 78
90 108 57
106 121 25
114 129 31
106 121 0
108 123 0
110 125 0
108 125 0
111 126 0
118 132 0
112 127 0
124 139 0
113 126 0
125 140 0
120 136 0
114 129 0
116 131 0
128 145 0
123 139 0
123 140 0
116 132 0
123 138 0
121 137 0
129 145 0
127 141 0
127 140 0
120 136 0
129 145 0
131 148 0
135 153 0
123 138 0
132 148 0
136 154 0
138 156 0
130 145 0
127 144 0
137 153 0
135 152 0
130 145 0
127 143 0
127 142 0
137 155 0
140 157 0
136 151 0
135 150 0
124 139 0
138 156 0
142 158 0
131 145 0
128 143 0
135 151 0
135 152 0
142 158 0
139 155 0
144 161 0
142 158 0
134 151 0
141 156 0
139 156 0
144 162 0
136 153 0
142 158 0
138 153 0
138 153 0
143 161 0
147 163 0
135 152 0
135 147 0
139 153 0
145 162 0
142 158 0
141 157 0
141 157 0
145 160 0
152 169 0
143 158 0
145 159 0
142 157 0
154 172 0
140 155 0
148 165 0
154 173 0
148 165 0
148 164 0
148 166 0
145 161 0
150 165 0
150 165 0
147 162 0
150 166 0
152 167 0
154 171 0
157 173 0
145 161 0
159 178 0
156 172 0
146 162 0
153 169 0
159 175 0
153 170 0
153 169 0
144 162 0
160 177 0
158 175 0
155 169 0
155 173 0
151 168 0
158 176 0
158 175 0
155 170 0
156 173 0
158 174 0
154 169 0
150 168 0
153 169 0
152 169 0
155 170 0
155 174 0
154 171 0
155 173 0
158 177 0
154 170 0
161 180 0
164 183 0
162 179 0
157 174 0
153 170 0
151 168 0
155 171 0
160 178 0
157 174 0
162 180 0
157 173 0
163 180 0
167 186 0
161 178 0
157 176 0
161 180 0
165 185 0
161 181 0
164 184 0
160 177 0
162 182 0
165 183 0
162 180 0
167 187 0
166 184 0
164 185 0
167 184 0
164 184 0
163 184 0
160 179 0
166 185 0
165 186 0
159 178 0
159 179 0
162 181 0
167 187 0
162 181 0
164 184 0
163 182 0
159 178 0
161 181 0
163 183 0
163 183 0
165 186 0
165 185 0
174 198 72
172 195 76
173 197 72
170 194 67
171 194 76
167 191 57
174 197 76
168 193 76
166 189 67
171 195 67
170 195 88
171 196 72
171 195 84
170 195 62
169 193 67
170 193 67
168 193 67
171 196 67
169 192 57
166 190 72
162 186 36
168 193 72
164 189 57
167 191 62
170 194 72
167 192 67
168 192 51
166 190 67
170 195 84
166 191 84
172 197 92
164 188 72
167 191 88
163 187 62
167 191 67
173 197 72
161 185 67
166 189 76
170 194 80
170 193 57
165 189 62
166 189 88
163 186 76
164 188 92
168 193 102
166 190 102
163 187 88
165 189 67
164 188 62
168 192 84
164 188 92
161 184 95
163 187 80
165 188 76
165 189 92
169 193 102
163 186 76
163 186 76
165 189 67
166 190 92
165 187 88
158 181 62
164 187 102
157 180 84
162 184 76
161 184 72
167 190 102
161 185 72
157 180 80
158 181 67
157 180 72
150 174 51
156 178 92
162 185 95
158 180 80
156 179 80
165 187 76
155 177 57
145 168 76
146 168 76
153 175 51
159 181 102
152 174 72
154 176 44
149 172 76
145 166 72
158 180 72
150 172 80
153 175 95
148 170 76
137 158 92
135 157 62
128 150 87
111 134 115
92 119 122
84 111 117
85 113 126
85 112 121
90 116 127
97 123 134
93 118 136
84 113 115
96 122 136
72 101 112
101 127 133
82 109 121
98 124 136
105 129 136
87 114 132
98 123 131
101 126 132
95 121 126
97 123 129
97 124 147
91 117 118
99 125 137
87 115 143
90 118 155
108 133 156
87 115 145
90 118 148
102 127 145
99 124 149
90 116 148
83 111 138
77 105 139
85 113 149
82 110 156
86 114 150
74 103 143
83 109 134
92 116 152
84 108 136
76 103 145
85 110 146
80 106 142
71 102 140
74 103 142
69 99 130
64 97 122
78 107 135
69 100 133
68 100 136
78 106 131
68 100 127
65 97 107
65 97 122
65 97 119
61 94 117
61 95 127
61 93 118
56 89 118
57 90 117
58 92 128
59 92 120
59 93 121
59 93 121
58 92 125
60 94 124
58 92 119
57 91 113
59 94 125
58 92 120
59 93 113
58 91 120
59 92 117
59 93 121
59 94 128
59 93 121
59 94 121
59 93 120
59 93 124
57 91 109
59 94 121
56 89 120
58 92 124
58 92 114
58 92 118
59 94 130
59 94 121
58 92 122
58 91 113
59 93 118
59 93 115
60 94 129
59 93 125
59 93 127
61 96 139
59 93 124
59 94 117
59 94 124
58 92 122
57 91 115
58 91 117
59 93 122
58 92 122
59 93 118
58 92 114
59 93 124
59 94 124
57 90 107
59 94 114
57 91 111
57 91 108
60 94 133
58 92 122
58 92 117
58 91 118
58 92 121
57 90 114
58 92 117
58 91 121
58 92 111
56 90 110
58 92 120
58 91 120
57 90 103
58 91 102
57 91 113
58 91 108
58 92 113
58 91 110
58 92 120
58 92 108
59 93 129
58 92 108
54 85 90
57 89 118
55 87 107
56 87 100
69 97 99
66 92 89
81 102 67
89 106 44
99 117 44
115 130 25
106 122 0
107 124 0
110 125 0
115 130 0
114 128 0
114 128 0
117 131 0
107 120 0
115 130 0
128 146 0
118 132 0
115 129 0
136 152 0
119 136 0
125 142 0
127 143 0
120 134 0
118 135 0
120 136 0
119 136 0
122 136 0
128 143 0
126 142 0
124 141 0
121 137 0
136 152 0
125 141 0
127 142 0
131 147 0
136 152 0
125 141 0
126 142 0
132 147 0
134 153 0
121 139 0
132 148 0
135 150 0
132 148 0
130 146 0
143 158 0
147 166 0
143 161 0
130 146 0
141 158 0
138 156 0
140 158 0
141 160 0
134 150 0
138 153 0
134 148 0
136 152 0
140 158 0
144 159 0
137 155 0
138 153 0
146 165 0
134 150 0
135 151 0
133 147 0
140 157 0
136 149 0
143 159 0
150 169 0
145 161 0
142 155 0
146 163 0
142 156 0
144 161 0
152 170 0
135 152 0
144 160 0
146 164 0
143 158 0
144 161 0
145 163 0
145 159 0
146 162 0
153 170 0
144 160 0
146 162 0
153 172 0
152 168 0
155 168 0
148 167 0
144 159 0
148 165 0
155 172 0
148 163 0
154 172 0
151 169 0
148 164 0
159 175 0
153 170 0
156 173 0
156 171 0
154 173 0
145 159 0
157 176 0
158 173 0
152 170 0
151 167 0
148 164 0
154 171 0
155 170 0
151 167 0
152 170 0
156 171 0
160 180 0
156 171 0
159 176 0
156 174 0
152 169 0
157 175 0
159 176 0
160 176 0
156 170 0
154 172 0
158 175 0
156 173 0
154 172 0
162 180 0
154 172 0
152 170 0
157 175 0
156 173 0
159 174 0
159 177 0
159 176 0
160 179 0
156 172 0
160 177 0
159 176 0
158 178 0
167 186 0
162 181 0
159 178 0
165 185 0
157 175 0
160 179 0
162 181 0
165 184 0
157 173 0
166 184 0
162 180 0
164 183 0
165 182 0
163 183 0
163 182 0
167 186 0
162 181 0
165 185 0
163 184 0
163 182 0
163 182 0
164 184 0
167 187 0
162 181 0
167 187 0
167 187 0
165 185 0
165 183 0
164 184 0
164 184 0
166 188 0
169 192 88
169 194 84
171 195 62
173 197 72
167 191 72
173 198 84
166 190 62
170 194 44
167 191 67
167 191 72
175 199 88
168 193 92
171 196 72
171 196 84
169 193 62
169 193 84
169 193 76
170 194 72
169 192 57
167 190 92
169 193 80
168 192 95
168 192 76
166 190 80
168 191 57
160 184 51
167 191 67
170 194 80
167 191 72
167 192 57
169 194 84
166 190 57
169 192 67
167 190 57
170 194 80
168 192 95
166 190 62
164 188 84
170 194 99
170 194 80
163 187 67
169 193 88
170 193 88
170 193 88
161 184 57
163 187 84
165 189 72
164 189 88
169 194 84
167 191 92
163 186 76
166 190 84
165 188 88
164 186 76
163 186 72
159 182 67
158 182 72
152 175 67
161 184 88
160 183 57
166 190 88
170 193 92
161 185 84
155 178 76
159 181 72
158 182 72
155 179 88
151 174 92
154 177 76
160 182 80
159 182 80
160 182 88
157 179 80
157 179 62
154 178 108
159 181 57
154 177 84
159 182 72
156 178 84
149 172 76
142 165 84
151 174 72
146 167 88
148 170 84
147 169 67
149 173 80
154 176 80
144 165 80
150 172 88
142 163 72
146 168 51
147 168 72
139 160 78
131 153 102
110 133 94
87 113 110
85 111 121
91 117 113
84 112 118
82 109 112
101 126 126
103 128 141
101 127 138
91 117 131
81 108 124
90 116 121
91 117 126
79 108 120
79 107 117
87 115 147
95 120 127
94 120 131
98 123 141
97 124 133
103 126 125
99 124 127
110 134 127
96 122 137
88 115 131
86 114 132
94 120 133
96 123 133
98 122 145
90 118 151
90 117 143
93 119 141
92 118 151
96 121 142
93 118 149
91 118 154
83 111 152
88 111 136
80 107 141
82 107 139
84 109 142
92 114 137
72 101 139
76 105 144
72 102 134
71 101 134
67 98 136
76 105 133
71 101 132
63 95 130
69 101 129
59 92 122
57 91 114
69 100 111
62 95 134
59 92 120
63 96 123
58 91 114
60 92 103
60 93 117
60 95 124
57 90 111
57 91 107
58 92 119
60 94 126
58 92 124
57 91 120
58 91 117
59 93 113
59 94 125
57 91 110
57 91 113
59 93 120
59 93 133
58 92 122
59 93 122
59 93 115
58 92 124
58 92 120
59 94 124
59 93 130
59 93 120
58 91 115
58 91 120
59 93 122
57 90 113
58 92 114
58 92 114
58 92 121
58 92 118
57 91 117
57 91 114
59 93 122
56 90 115
59 93 122
59 93 118
58 92 113
59 93 122
58 92 115
58 92 113
59 93 125
59 93 117
60 94 126
59 93 113
59 93 121
58 92 117
58 91 120
59 93 124
59 93 121
57 91 118
59 93 124
59 93 118
59 93 124
57 91 108
57 91 115
58 91 118
58 92 117
57 89 117
58 92 105
58 91 121
58 93 117
58 91 115
58 92 117
57 90 100
57 91 118
55 88 105
57 91 108
57 91 117
58 91 115
57 89 107
56 89 111
55 88 99
59 92 125
54 86 102
60 91 84
61 89 87
80 104 88
79 100 78
101 118 51
95 111 47
114 129 18
118 133 0
110 125 0
110 126 0
107 121 0
115 130 0
112 127 0
123 138 0
125 142 0
121 135 0
120 136 0
105 121 0
123 139 0
123 138 0
117 132 0
113 128 0
117 131 0
126 141 0
127 142 0
125 141 0
126 142 0
123 137 0
130 146 0
122 137 0
126 141 0
134 152 0
130 147 0
124 140 0
128 144 0
133 150 0
132 149 0
128 145 0
126 142 0
134 148 0
126 140 0
117 134 0
134 148 0
136 153 0
130 146 0
133 150 0
132 147 0
135 151 0
135 152 0
133 150 0
137 153 0
133 147 0
143 159 0
130 146 0
132 148 0
138 156 0
136 155 0
142 159 0
141 158 0
143 162 0
136 153 0
135 149 0
139 155 0
137 152 0
142 158 0
148 165 0
134 148 0
145 163 0
138 155 0
143 159 0
143 161 0
151 167 0
139 155 0
137 153 0
137 153 0
144 159 0
155 172 0
147 164 0
147 165 0
142 157 0
154 171 0
138 156 0
137 152 0
145 159 0
146 160 0
142 155 0
146 161 0
151 167 0
152 167 0
148 167 0
144 161 0
141 154 0
148 167 0
155 174 0
150 168 0
150 168 0
156 174 0
161 180 0
149 166 0
149 165 0
154 171 0
152 169 0
148 165 0
158 172 0
153 170 0
150 166 0
157 175 0
149 167 0
154 169 0
156 171 0
153 169 0
156 174 0
154 171 0
156 171 0
156 172 0
150 165 0
155 171 0
146 163 0
154 174 0
161 180 0
156 173 0
158 177 0
158 175 0
156 171 0
157 175 0
155 171 0
164 183 0
160 176 0
157 173 0
157 175 0
161 180 0
160 174 0
160 178 0
162 181 0
153 172 0
157 174 0
154 174 0
157 177 0
163 181 0
163 182 0
154 171 0
161 181 0
160 181 0
159 178 0
154 173 0
162 180 0
159 177 0
165 185 0
158 177 0
165 182 0
158 177 0
156 172 0
161 179 0
159 178 0
162 179 0
160 180 0
160 180 0
164 184 0
164 183 0
159 177 0
161 177 0
162 180 0
160 179 0
165 184 0
163 182 0
169 190 0
165 184 0
161 179 0
166 184 0
166 186 0
165 186 0
158 178 0
171 195 92
173 198 92
168 192 51
168 192 62
171 196 95
170 194 67
170 194 72
170 195 62
171 196 80
168 192 67
168 191 80
172 196 76
169 192 72
165 189 80
169 193 76
166 191 95
167 191 62
171 194 80
167 191 76
171 195 67
170 194 72
166 190 51
166 190 72
173 197 92
165 189 76
171 194 92
168 192 80
167 192 92
170 194 95
169 192 76
169 193 80
170 194 76
166 189 57
163 187 67
161 186 80
169 192 72
162 186 95
162 186 80
167 192 76
167 190 84
161 184 76
169 193 80
167 190 72
168 190 88
167 189 92
161 185 62
169 193 92
165 188 84
164 188 99
169 192 88
164 187 95
165 189 88
162 185 84
167 189 88
169 191 99
170 193 99
156 179 76
165 188 67
167 191 95
159 182 95
164 188 99
162 185 95
161 183 88
158 181 80
159 181 92
167 190 99
159 182 88
155 177 67
153 176 92
154 177 76
159 182 76
157 179 95
160 183 72
156 179 88
157 180 92
156 179 88
159 181 102
158 180 108
155 177 84
143 165 67
151 172 84
157 180 80
161 184 102
148 170 72
158 180 92
150 172 76
152 174 80
151 173 76
151 172 76
145 166 51
148 170 88
152 173 88
135 156 86
130 152 74
127 150 102
101 125 110
85 113 108
97 122 114
98 124 139
97 121 117
91 117 104
91 119 141
101 127 127
79 107 109
94 119 126
87 113 117
86 113 133
86 113 123
95 119 124
98 124 149
99 123 148
81 109 129
101 125 137
92 118 134
86 112 127
102 126 144
83 112 147
93 120 136
99 124 133
88 115 130
99 125 135
88 116 144
90 117 142
96 120 149
92 118 138
80 107 141
89 115 147
84 112 146
94 117 139
79 106 142
92 115 136
97 120 143
82 108 134
88 110 146
74 101 133
76 103 135
75 104 140
69 99 132
72 103 143
70 98 119
69 100 135
69 100 110
71 100 139
66 98 131
65 97 115
64 95 110
66 97 125
68 98 116
64 96 113
63 95 118
67 98 103
65 97 127
60 94 121
60 92 103
59 93 110
59 93 124
57 91 117
58 92 115
58 92 115
56 90 103
59 93 118
58 91 120
58 92 117
59 93 122
60 94 125
58 91 115
60 94 122
59 93 118
58 91 114
58 92 113
58 92 118
57 91 100
57 90 115
58 92 118
59 93 117
57 91 107
58 92 111
58 92 120
59 93 122
59 93 129
59 94 124
58 92 113
59 93 131
58 92 114
57 90 108
59 93 126
60 95 134
60 94 129
58 91 114
58 92 108
58 92 120
57 90 118
58 92 125
58 91 107
59 94 127
57 90 110
58 92 115
59 94 126
58 92 122
58 92 111
58 92 117
58 92 118
59 92 117
57 91 114
56 90 115
59 92 117
58 91 115
58 92 120
58 92 113
58 92 117
56 90 107
58 92 108
58 91 120
58 92 117
58 92 114
58 92 111
56 90 103
56 88 103
55 88 110
57 91 110
58 91 118
56 88 117
56 89 100
57 91 121
56 89 95
56 89 111
56 88 102
58 89 114
68 95 102
97 118 74
91 110 54
99 116 47
104 119 31
112 128 25
111 127 0
106 120 0
99 115 0
99 115 0
104 118 0
112 127 0
104 119 0
116 130 0
108 123 0
114 129 0
114 128 0
112 128 0
108 124 0
107 122 0
116 133 0
109 126 0
124 141 0
122 138 0
130 144 0
122 138 0
109 125 0
121 138 0
129 146 0
127 144 0
129 144 0
119 134 0
125 140 0
124 141 0
137 155 0
129 144 0
127 142 0
132 150 0
133 149 0
134 151 0
135 151 0
130 146 0
137 154 0
132 149 0
133 149 0
141 156 0
133 149 0
131 147 0
134 151 0
140 158 0
136 153 0
140 157 0
134 150 0
141 159 0
142 157 0
135 154 0
139 156 0
145 162 0
134 151 0
136 152 0
145 162 0
143 160 0
140 156 0
138 154 0
142 158 0
136 154 0
144 159 0
146 163 0
143 158 0
138 155 0
142 158 0
145 161 0
146 163 0
143 159 0
137 155 0
142 158 0
139 156 0
145 163 0
145 162 0
148 167 0
144 161 0
157 175 0
140 156 0
145 162 0
148 165 0
151 169 0
147 164 0
152 169 0
149 167 0
148 165 0
147 163 0
152 169 0
151 166 0
147 164 0
153 172 0
145 162 0
154 172 0
147 165 0
153 170 0
144 160 0
154 169 0
147 165 0
148 165 0
152 167 0
152 170 0
160 177 0
154 170 0
159 178 0
159 177 0
157 173 0
150 168 0
151 168 0
147 165 0
151 168 0
151 167 0
157 177 0
155 172 0
162 179 0
148 164 0
158 174 0
157 176 0
153 171 0
159 175 0
156 174 0
162 180 0
151 169 0
163 181 0
157 174 0
158 178 0
163 182 0
159 178 0
164 181 0
157 173 0
160 180 0
163 182 0
157 174 0
165 183 0
160 178 0
167 186 0
162 180 0
162 179 0
153 173 0
159 179 0
153 172 0
163 183 0
156 173 0
164 182 0
157 176 0
161 180 0
157 176 0
158 176 0
163 181 0
164 183 0
163 183 0
160 180 0
167 186 0
162 181 0
163 180 0
167 186 0
161 181 0
164 184 0
164 186 0
157 178 0
161 181 0
161 182 0
166 185 0
155 174 0
162 185 0
166 186 0
165 184 0
170 191 0
168 188 0
170 194 80
170 193 76
169 194 62
174 197 76
170 195 57
172 196 62
167 192 88
168 193 76
169 192 62
168 192 76
172 196 76
170 195 99
170 193 67
172 195 62
168 192 72
173 198 84
171 195 80
168 192 80
172 196 80
168 192 62
167 191 57
170 193 51
171 195 62
168 193 76
170 194 76
169 194 84
166 190 76
169 193 62
169 193 67
166 190 84
174 199 99
172 196 95
167 189 67
166 189 76
164 187 72
168 191 92
167 191 84
173 197 111
167 190 80
167 191 76
165 189 76
170 192 99
166 190 72
166 189 88
172 195 99
167 191 92
164 188 102
162 185 88
168 191 88
164 186 92
165 188 92
167 190 95
165 188 88
162 185 88
159 181 67
160 183 88
167 190 108
163 186 76
160 183 88
164 187 92
163 187 99
162 185 80
159 182 95
165 188 99
164 187 105
166 188 84
160 182 88
160 183 95
158 181 95
156 179 95
161 184 62
163 186 102
165 187 95
166 189 95
163 185 88
154 176 84
155 177 67
159 182 88
152 174 84
160 182 76
160 181 67
152 174 76
148 170 72
153 175 92
154 175 76
148 170 67
146 168 80
144 166 84
141 162 76
152 173 80
148 169 84
144 165 51
139 159 62
146 167 67
119 140 86
118 139 71
92 116 109
83 109 107
105 129 124
97 122 118
95 121 115
85 112 113
84 111 121
85 111 117
91 116 130
102 127 128
95 121 132
88 114 121
90 116 129
105 129 135
86 113 133
97 121 129
90 117 135
97 122 104
98 125 126
104 128 137
85 112 124
93 119 127
94 121 143
96 122 139
106 130 148
101 126 141
103 129 134
90 118 155
87 115 150
91 117 133
89 115 142
80 108 146
93 117 147
100 123 143
73 100 127
97 116 130
77 105 134
81 106 139
90 112 124
73 102 141
81 107 128
68 98 132
69 100 137
74 103 127
72 102 132
68 98 121
65 96 124
72 102 121
81 108 115
62 94 115
59 93 122
66 96 115
56 89 118
70 99 120
62 95 120
58 91 99
67 98 117
56 90 110
62 94 102
60 93 113
57 91 107
56 90 102
62 94 107
58 91 118
57 91 103
58 92 118
56 89 107
58 92 113
57 91 124
58 92 121
58 92 125
58 92 111
59 93 117
58 93 118
58 92 120
59 94 126
58 91 114
58 92 115
59 94 126
58 92 120
58 92 118
57 90 114
57 91 110
59 94 122
59 93 118
59 93 128
58 92 120
60 94 125
58 91 114
56 90 107
57 91 117
58 92 115
58 91 117
59 93 120
59 93 120
59 93 127
58 92 122
58 93 122
58 91 102
57 90 117
58 92 118
59 93 115
58 92 117
57 91 121
57 90 111
58 91 113
60 94 127
57 91 117
58 91 110
59 93 120
58 92 108
56 89 107
58 92 122
59 92 118
58 92 113
57 90 110
58 92 111
57 90 108
56 89 102
59 92 110
58 92 121
55 87 95
57 90 105
55 88 100
57 91 102
57 90 120
56 89 107
55 88 107
54 85 100
56 87 88
54 83 92
75 97 78
87 107 62
76 97 47
109 128 47
111 126 18
103 120 0
111 126 0
98 112 0
100 115 0
115 130 0
111 126 0
105 121 0
132 149 0
99 116 0
115 131 0
115 131 0
120 138 0
127 143 0
131 148 0
124 139 0
128 143 0
120 138 0
122 140 0
128 146 0
128 146 0
132 150 0
124 142 0
123 138 0
126 141 0
126 144 0
122 138 0
117 133 0
132 149 0
131 147 0
129 148 0
128 143 0
137 154 0
129 147 0
137 153 0
129 147 0
138 156 0
135 152 0
137 153 0
142 160 0
130 145 0
135 152 0
120 136 0
140 153 0
129 145 0
131 148 0
133 150 0
139 158 0
130 147 0
135 151 0
129 147 0
137 152 0
146 164 0
145 161 0
140 158 0
144 163 0
142 160 0
150 168 0
143 160 0
150 167 0
148 165 0
139 155 0
142 158 0
138 155 0
145 161 0
143 161 0
141 158 0
145 160 0
145 161 0
131 147 0
143 160 0
139 156 0
142 160 0
149 167 0
145 160 0
144 158 0
144 160 0
151 169 0
150 167 0
144 161 0
151 168 0
153 170 0
146 163 0
149 167 0
157 174 0
149 164 0
150 167 0
152 168 0
149 168 0
146 164 0
148 165 0
152 170 0
147 163 0
154 170 0
142 158 0
152 167 0
149 167 0
146 161 0
150 168 0
156 173 0
147 162 0
149 165 0
146 162 0
152 168 0
151 166 0
157 176 0
155 172 0
147 162 0
152 167 0
161 179 0
157 175 0
159 178 0
156 175 0
156 173 0
146 161 0
158 177 0
158 175 0
157 176 0
162 181 0
159 177 0
152 168 0
162 181 0
153 170 0
159 178 0
157 175 0
161 178 0
154 172 0
155 173 0
156 176 0
156 173 0
162 180 0
164 184 0
164 183 0
159 179 0
159 178 0
156 174 0
156 174 0
159 178 0
161 181 0
153 172 0
165 184 0
158 176 0
158 175 0
158 177 0
161 178 0
162 182 0
157 177 0
158 179 0
166 186 0
160 179 0
160 181 0
164 183 0
159 179 0
162 181 0
164 183 0
165 186 0
158 177 0
164 184 0
163 183 0
165 184 0
160 179 0
167 188 0
165 184 0
162 183 0
160 181 0
163 183 0
159 178 0
164 182 0
166 188 0
172 196 92
171 196 72
171 195 62
170 195 76
170 195 76
168 193 84
167 191 95
171 196 88
167 192 51
167 191 76
170 193 36
165 189 57
169 193 92
168 193 92
167 191 80
168 192 72
166 190 80
169 193 67
167 192 80
169 193 67
166 191 62
168 192 72
169 193 80
170 194 92
166 190 51
171 195 76
166 190 76
170 193 76
170 195 84
168 191 76
170 193 88
172 196 95
170 195 95
166 190 95
171 194 88
171 195 95
172 196 95
167 191 105
167 190 84
170 194 72
162 186 95
165 189 80
166 191 80
169 193 88
165 189 102
167 191 84
165 187 80
171 194 92
165 189 117
164 186 95
167 190 105
163 188 84
170 194 95
163 187 72
163 186 88
167 190 95
168 192 88
167 190 88
167 190 95
165 189 99
167 189 117
162 185 80
155 178 72
168 191 80
157 179 99
165 189 80
159 181 95
160 183 84
167 190 105
155 177 84
145 167 57
156 179 80
153 176 76
166 190 114
165 187 92
152 174 57
158 180 105
154 175 84
150 172 57
153 176 84
141 163 57
140 162 95
156 178 84
147 169 67
144 166 44
149 171 72
154 175 76
151 173 72
144 165 57
150 171 88
154 175 88
135 155 72
152 172 72
144 166 62
146 167 94
118 139 88
111 133 84
99 123 108
98 123 118
91 117 124
93 118 129
85 112 118
95 121 136
94 120 128
96 122 124
85 112 115
95 121 132
102 127 126
78 107 116
94 119 132
90 116 118
94 120 122
102 127 136
89 116 115
93 119 139
90 117 137
97 122 115
98 125 129
96 122 131
97 124 143
90 118 121
98 123 137
100 125 143
87 115 136
77 107 133
94 119 123
89 115 135
92 117 137
86 111 138
77 105 134
92 115 141
84 109 136
77 104 124
75 103 132
92 114 128
77 100 120
84 108 123
73 100 125
65 96 126
67 97 117
77 105 132
77 106 125
65 97 129
65 97 124
58 92 125
78 108 134
68 98 110
69 98 106
58 90 107
65 96 115
70 99 102
62 95 114
61 94 113
60 93 112
59 92 107
58 91 113
63 95 119
56 90 111
59 91 112
57 91 108
57 90 108
57 91 111
58 92 124
56 90 100
59 93 122
59 94 121
57 90 110
59 93 124
57 90 103
56 89 117
59 93 122
57 90 99
59 92 124
58 92 114
59 94 125
60 94 121
59 93 118
58 92 115
58 92 111
58 92 108
59 93 120
58 91 111
57 91 110
58 91 105
58 92 121
58 92 115
59 93 120
59 94 124
58 92 111
59 93 113
59 93 118
56 89 103
58 91 115
58 91 111
57 90 115
58 92 113
59 93 124
55 88 94
58 92 103
57 90 117
58 92 120
58 92 111
60 94 121
58 91 113
56 89 107
59 93 122
57 91 107
58 92 118
55 88 114
59 92 115
57 91 103
58 92 115
56 88 100
57 90 118
56 89 100
57 90 97
56 89 103
55 88 97
57 91 105
56 88 111
54 86 97
55 88 99
53 85 84
55 87 103
60 90 100
67 93 86
72 95 72
87 106 62
86 104 31
116 131 40
97 112 31
109 124 0
103 119 0
110 124 0
114 129 0
102 120 0
120 135 0
114 126 0
115 132 0
105 119 0
109 126 0
119 135 0
122 137 0
115 131 0
124 139 0
124 140 0
120 135 0
127 144 0
125 143 0
127 144 0
121 137 0
126 143 0
119 136 0
132 149 0
128 144 0
124 139 0
143 161 0
137 154 0
129 146 0
135 152 0
120 135 0
131 148 0
127 144 0
129 146 0
139 157 0
117 135 0
138 156 0
123 138 0
135 151 0
127 144 0
125 142 0
136 153 0
130 146 0
136 153 0
142 158 0
137 154 0
133 151 0
137 154 0
143 160 0
133 148 0
135 150 0
134 151 0
142 160 0
143 159 0
139 155 0
146 164 0
145 162 0
139 157 0
144 162 0
146 164 0
139 155 0
142 160 0
150 167 0
149 165 0
141 158 0
139 155 0
149 166 0
141 159 0
139 154 0
147 165 0
140 159 0
147 165 0
144 163 0
140 156 0
150 168 0
132 145 0
142 160 0
145 162 0
143 160 0
146 162 0
143 160 0
144 161 0
148 166 0
146 163 0
150 164 0
153 172 0
154 172 0
158 175 0
152 168 0
151 167 0
146 162 0
151 169 0
149 168 0
147 165 0
146 160 0
151 169 0
146 163 0
156 175 0
149 169 0
150 167 0
148 164 0
151 168 0
147 164 0
157 173 0
150 167 0
157 173 0
150 168 0
156 172 0
149 166 0
156 175 0
158 178 0
152 169 0
158 176 0
155 171 0
155 174 0
155 173 0
155 173 0
159 177 0
157 174 0
156 175 0
161 179 0
156 174 0
156 173 0
155 174 0
160 178 0
153 170 0
158 175 0
155 173 0
162 181 0
160 178 0
164 183 0
160 177 0
162 181 0
160 177 0
162 180 0
156 174 0
158 175 0
160 177 0
157 174 0
157 176 0
159 179 0
160 178 0
164 182 0
162 181 0
156 174 0
163 183 0
161 180 0
156 176 0
162 181 0
163 183 0
162 181 0
163 182 0
162 182 0
164 185 0
163 182 0
165 183 0
159 177 0
167 187 0
164 183 0
163 181 0
161 182 0
164 183 0
163 184 0
164 182 0
166 185 0
159 180 0
162 182 0
162 182 0
162 183 0
167 187 0
170 194 76
173 196 51
166 190 57
170 194 62
170 195 88
173 197 84
168 192 72
170 195 62
169 193 72
171 195 88
172 196 80
167 191 62
168 192 57
165 189 88
170 194 76
168 191 88
172 196 80
168 191 72
170 195 72
174 197 72
170 194 72
168 192 72
166 190 76
168 190 76
169 194 84
170 193 95
166 190 76
167 192 95
168 193 92
170 194 92
170 193 76
165 190 88
175 198 95
172 195 92
171 195 102
163 188 72
164 187 84
172 196 92
172 196 88
173 196 102
166 189 76
169 192 105
165 189 76
168 192 105
167 191 88
175 197 99
163 185 92
169 193 95
171 194 84
168 191 99
169 192 92
163 186 84
163 185 80
167 189 88
162 184 88
163 187 67
159 183 80
165 188 111
164 187 117
162 185 92
163 185 80
157 179 80
162 185 95
152 175 67
156 179 72
163 185 76
172 194 105
162 184 99
158 181 84
155 177 103
156 179 84
154 177 84
150 172 80
158 181 92
161 184 92
163 185 95
158 179 95
159 182 84
154 176 84
156 178 80
150 172 51
155 177 84
152 174 88
149 172 72
146 167 76
154 175 80
150 171 67
141 163 88
154 175 95
141 163 51
143 165 72
140 161 78
150 171 62
144 165 67
145 165 76
137 157 82
126 147 90
112 135 76
91 115 106
84 110 112
87 113 108
83 110 120
74 101 97
83 109 111
93 118 127
98 123 122
87 114 120
97 123 127
85 110 122
97 122 125
93 119 123
99 123 131
94 120 116
89 115 121
93 120 125
100 125 136
94 120 129
92 118 123
103 127 127
101 126 136
110 134 139
102 125 137
90 117 133
93 119 128
93 119 144
101 124 137
85 112 128
103 125 129
83 109 132
86 112 133
90 114 127
89 112 134
79 105 128
75 102 123
88 111 138
85 108 126
76 100 114
88 111 114
73 100 119
64 94 107
76 104 121
79 105 119
71 101 121
69 98 113
63 95 114
78 106 128
79 107 113
72 103 126
67 97 103
64 95 113
60 93 118
60 92 103
60 93 110
60 92 102
63 95 113
57 90 99
61 93 103
60 93 112
57 90 107
58 91 110
57 91 107
57 91 111
56 90 107
58 92 117
57 91 119
56 88 103
58 91 115
58 92 118
57 91 105
58 91 107
57 90 95
58 93 113
57 90 105
57 91 114
59 93 113
58 91 110
59 93 120
58 92 114
57 91 107
58 92 114
58 92 113
58 92 126
57 91 113
60 95 126
58 92 107
57 91 114
60 94 129
59 92 122
58 92 121
56 89 94
59 93 120
58 92 120
59 93 120
59 93 127
58 92 108
58 92 111
57 90 105
57 90 113
57 91 107
58 92 107
59 93 124
58 91 100
56 89 97
56 89 111
57 90 110
57 90 108
58 91 108
56 88 110
57 90 102
56 89 113
56 89 107
57 90 113
58 92 110
58 91 115
58 92 125
54 86 92
56 89 100
57 90 114
56 90 107
56 89 107
55 87 100
56 89 102
60 92 110
70 95 78
79 102 92
72 95 62
100 119 31
85 100 40
113 128 25
110 125 0
107 123 0
106 121 0
102 118 0
116 130 0
106 123 0
119 132 0
110 126 0
119 135 0
107 121 0
111 128 0
113 127 0
102 118 0
110 124 0
123 136 0
120 137 0
116 132 0
123 140 0
109 125 0
117 132 0
113 131 0
129 147 0
123 142 0
132 146 0
125 141 0
124 140 0
126 144 0
127 142 0
129 145 0
124 141 0
132 149 0
130 148 0
129 146 0
123 141 0
130 146 0
133 149 0
137 157 0
130 147 0
136 152 0
125 142 0
128 146 0
134 150 0
141 159 0
137 156 0
135 153 0
128 144 0
132 149 0
139 157 0
135 154 0
139 156 0
125 142 0
139 156 0
144 161 0
143 158 0
137 154 0
134 149 0
137 154 0
144 162 0
142 160 0
143 159 0
141 158 0
144 161 0
148 165 0
137 154 0
144 161 0
145 162 0
141 159 0
133 149 0
148 167 0
147 161 0
151 168 0
149 168 0
143 157 0
142 158 0
153 171 0
147 164 0
151 167 0
144 163 0
155 173 0
149 166 0
142 157 0
140 157 0
146 163 0
151 168 0
137 153 0
145 161 0
148 165 0
150 168 0
149 167 0
149 165 0
151 166 0
158 175 0
150 167 0
145 163 0
148 165 0
152 169 0
148 166 0
154 172 0
151 169 0
155 172 0
152 170 0
150 166 0
148 168 0
158 175 0
156 174 0
161 181 0
155 174 0
147 164 0
157 174 0
157 175 0
159 179 0
153 170 0
160 179 0
152 168 0
158 176 0
152 169 0
156 175 0
158 176 0
154 173 0
158 178 0
158 176 0
160 180 0
154 173 0
160 179 0
154 172 0
157 174 0
156 174 0
153 171 0
152 169 0
156 175 0
152 170 0
153 170 0
161 180 0
156 174 0
161 182 0
158 175 0
162 181 0
156 175 0
162 180 0
157 174 0
156 173 0
159 179 0
161 181 0
163 183 0
158 175 0
159 178 0
160 179 0
161 180 0
162 182 0
160 178 0
162 180 0
164 185 0
161 179 0
167 187 0
163 183 0
167 186 0
163 184 0
168 187 0
164 185 0
159 179 0
167 187 0
164 182 0
158 178 0
165 184 0
167 185 0
164 183 0
161 181 0
163 182 0
164 184 0
164 185 0
165 184 0
168 192 25
169 193 76
174 197 72
172 197 105
169 193 84
167 191 51
170 194 80
171 195 76
169 193 67
171 195 76
166 190 80
168 193 84
164 189 88
169 193 76
168 192 84
173 197 84
168 192 72
165 188 80
170 194 62
172 196 76
170 193 67
168 192 67
168 192 80
165 189 57
169 194 92
170 194 95
170 193 84
168 192 67
172 196 72
164 187 84
170 195 80
166 190 80
166 190 92
169 192 67
163 186 76
169 192 105
171 195 95
168 192 108
165 188 84
167 190 80
165 189 92
163 186 84
167 190 84
159 183 67
164 187 84
171 194 102
167 191 88
164 187 44
168 191 95
163 185 95
164 188 102
167 190 72
167 190 114
162 186 99
164 187 92
157 180 88
164 187 80
161 184 99
165 187 102
167 189 99
154 176 67
166 188 88
159 182 88
163 185 95
161 185 99
157 180 102
159 182 102
161 183 102
160 182 92
163 186 95
155 178 84
161 184 102
153 174 95
153 175 84
158 179 88
159 181 102
156 178 76
156 179 102
156 178 76
160 182 95
155 176 80
160 181 92
149 170 92
157 178 88
152 174 67
146 166 76
150 171 62
145 166 92
151 172 80
146 167 80
141 162 67
155 176 72
136 156 80
141 161 94
137 157 62
135 156 80
129 150 78
129 151 84
107 128 94
104 127 99
96 121 108
85 111 96
84 110 112
77 105 100
94 118 119
98 123 124
87 113 129
101 124 119
94 120 118
84 111 127
98 123 132
102 126 131
97 123 127
94 119 127
96 121 133
104 129 135
107 130 145
89 115 118
96 120 124
104 129 129
100 124 141
93 118 121
86 112 122
92 118 136
79 107 130
90 116 134
86 112 138
88 115 130
83 108 130
87 112 144
89 112 130
93 115 137
87 111 127
81 105 129
80 106 125
93 117 138
76 101 119
93 115 124
68 95 107
67 98 121
80 106 107
70 98 132
73 103 120
67 98 125
68 98 113
71 100 104
68 98 110
63 95 106
60 93 111
62 93 113
63 96 125
65 97 118
62 94 122
64 95 106
62 93 95
62 94 113
59 91 104
56 89 99
59 93 122
56 89 103
57 91 114
58 92 103
57 91 118
60 94 120
57 91 114
58 92 110
57 90 113
57 91 107
58 92 115
59 93 122
56 90 98
60 94 126
58 92 117
58 92 122
58 92 114
57 90 99
56 89 103
59 93 120
58 91 110
56 90 108
59 94 125
59 94 125
59 93 126
58 92 110
59 92 126
58 92 108
57 90 105
57 91 113
58 92 115
57 91 97
58 92 114
57 91 115
59 92 120
56 89 107
58 92 114
56 90 100
58 92 114
58 91 113
56 90 103
56 89 111
57 91 108
58 92 113
58 91 114
55 88 94
55 88 94
57 91 117
59 92 117
57 90 111
59 92 113
57 90 103
56 88 102
53 85 94
55 88 95
56 89 105
57 90 105
56 87 105
57 90 114
56 89 95
57 90 105
54 85 88
54 86 94
61 91 94
63 90 78
81 105 78
91 112 51
101 118 62
109 127 51
108 122 25
118 133 18
105 120 0
114 129 0
110 126 0
113 129 0
111 126 0
115 131 0
111 126 0
108 122 0
115 130 0
114 131 0
107 124 0
117 133 0
108 124 0
117 134 0
110 126 0
117 133 0
119 134 0
114 130 0
126 142 0
113 131 0
111 127 0
124 143 0
119 134 0
129 145 0
129 144 0
133 149 0
136 152 0
122 139 0
123 140 0
137 155 0
125 142 0
132 147 0
134 151 0
134 152 0
140 158 0
129 146 0
133 150 0
134 150 0
128 146 0
133 151 0
136 153 0
141 157 0
128 146 0
131 148 0
136 152 0
132 151 0
139 157 0
140 156 0
148 166 0
126 143 0
138 155 0
150 168 0
137 154 0
146 163 0
145 162 0
145 162 0
140 156 0
134 152 0
137 153 0
146 165 0
143 161 0
144 161 0
136 153 0
142 160 0
139 155 0
146 167 0
148 165 0
143 160 0
141 160 0
150 168 0
144 163 0
152 171 0
154 173 0
141 159 0
153 171 0
147 166 0
154 172 0
137 153 0
139 155 0
157 174 0
143 161 0
144 161 0
146 164 0
155 172 0
144 160 0
142 161 0
146 163 0
148 166 0
153 173 0
147 165 0
158 176 0
150 167 0
148 165 0
156 173 0
149 166 0
155 173 0
151 169 0
150 166 0
153 171 0
155 171 0
160 180 0
148 165 0
151 171 0
158 176 0
155 174 0
157 175 0
157 176 0
154 172 0
155 173 0
157 178 0
155 174 0
149 167 0
156 173 0
157 174 0
156 173 0
152 170 0
154 172 0
157 177 0
159 179 0
160 177 0
162 181 0
158 177 0
166 183 0
160 179 0
160 179 0
161 179 0
158 176 0
160 178 0
152 169 0
156 176 0
164 185 0
159 177 0
166 186 0
160 180 0
157 175 0
160 179 0
159 177 0
159 178 0
165 183 0
160 179 0
165 184 0
156 174 0
157 178 0
161 178 0
162 182 0
167 185 0
161 180 0
164 184 0
158 176 0
160 179 0
161 180 0
159 177 0
167 186 0
157 176 0
161 181 0
166 187 0
160 178 0
166 186 0
163 183 0
163 182 0
163 182 0
168 188 0
161 181 0
159 179 0
164 185 0
165 183 0
161 180 0
166 186 0
164 183 0
166 184 0
164 184 0
166 190 62
167 191 62
170 193 51
172 195 57
173 196 72
166 191 72
170 194 72
173 197 80
169 192 72
170 193 72
171 194 62
172 195 67
167 192 99
173 198 80
170 194 88
170 194 76
171 196 80
171 194 72
166 189 57
164 188 51
167 191 62
170 194 80
172 196 95
165 188 72
170 193 84
169 193 92
169 193 72
172 195 76
170 193 88
171 194 88
166 190 92
169 193 102
166 190 51
166 191 99
166 189 72
170 193 76
167 192 92
170 193 76
171 193 102
169 193 76
169 192 80
175 198 114
165 188 67
174 196 80
168 191 105
169 193 99
165 188 80
171 194 105
166 190 80
168 191 105
166 189 108
164 187 102
158 182 105
168 192 102
162 185 102
169 193 114
164 187 84
161 184 102
168 190 120
164 187 99
165 188 92
161 183 114
158 180 86
164 187 111
161 183 88
165 188 92
156 179 84
163 186 80
161 185 88
155 177 90
165 188 114
168 190 117
157 179 67
157 179 72
159 181 95
155 178 102
154 176 72
154 176 76
156 178 92
150 172 88
156 177 99
143 165 72
152 174 76
141 163 84
151 173 84
146 168 76
157 178 105
143 165 80
142 163 88
143 164 80
140 161 76
147 169 80
144 165 88
141 162 84
144 165 67
146 166 84
137 155 67
126 146 65
127 148 105
120 142 111
89 114 102
82 107 99
82 109 94
86 112 107
94 119 114
78 105 96
81 107 118
94 119 121
93 118 113
105 129 138
92 118 133
87 113 129
90 116 118
92 116 117
102 126 139
100 125 127
103 127 141
97 122 112
85 111 127
93 119 127
93 119 122
109 132 131
89 116 130
101 127 132
92 119 143
85 111 135
98 123 133
96 120 139
87 112 119
86 111 133
88 112 131
93 114 140
92 115 131
90 109 124
82 107 109
93 114 123
79 104 117
83 108 121
83 108 117
73 101 127
68 98 126
71 99 119
67 98 108
67 97 100
74 103 120
77 106 118
62 93 111
66 95 99
77 105 110
68 100 127
63 94 111
60 91 97
59 92 94
61 92 107
58 91 112
60 94 107
56 90 114
59 92 92
56 89 105
56 89 107
59 93 113
57 90 117
58 92 124
57 91 110
57 90 103
59 93 114
58 92 114
59 93 125
58 92 111
57 90 97
58 92 114
56 89 108
57 91 103
58 92 111
57 90 102
58 92 114
57 90 117
57 91 105
58 92 107
58 92 111
56 89 99
58 92 120
57 91 111
58 92 110
57 90 100
60 94 127
57 90 107
58 91 114
56 89 100
58 91 111
57 91 110
57 91 105
56 89 100
58 92 114
57 91 114
59 93 120
58 92 118
58 92 121
56 89 113
57 90 115
56 88 103
56 89 105
58 92 118
58 91 114
59 92 121
58 92 115
57 91 108
56 89 97
57 91 110
57 91 99
57 90 113
54 86 88
54 85 94
55 87 103
56 89 105
57 90 110
56 89 105
55 88 97
56 89 107
54 86 100
59 89 92
65 91 74
80 103 67
80 100 54
90 108 36
96 112 36
92 106 25
96 112 0
93 108 0
117 132 0
108 121 0
106 121 0
102 119 0
127 144 0
108 125 0
105 122 0
122 138 0
121 136 0
117 132 0
125 141 0
131 147 0
116 131 0
101 117 0
120 135 0
121 139 0
114 132 0
120 135 0
110 127 0
127 146 0
121 136 0
119 136 0
129 145 0
127 144 0
125 142 0
113 128 0
130 146 0
116 133 0
134 152 0
127 144 0
130 147 0
120 137 0
136 153 0
132 148 0
135 153 0
146 165 0
136 152 0
134 149 0
140 157 0
141 160 0
140 156 0
135 154 0
135 155 0
136 154 0
138 158 0
142 161 0
138 155 0
147 166 0
144 162 0
139 156 0
134 150 0
140 159 0
137 156 0
138 157 0
136 155 0
139 154 0
143 160 0
130 147 0
137 155 0
135 153 0
148 167 0
152 169 0
145 163 0
140 158 0
141 159 0
143 160 0
152 170 0
152 171 0
149 167 0
142 160 0
144 161 0
145 161 0
140 158 0
143 162 0
136 154 0
139 155 0
148 166 0
146 162 0
146 165 0
141 159 0
152 168 0
153 168 0
148 164 0
150 167 0
147 165 0
154 170 0
159 175 0
154 172 0
151 171 0
154 174 0
152 170 0
156 174 0
158 178 0
157 176 0
153 169 0
145 161 0
156 174 0
153 172 0
149 168 0
155 174 0
159 178 0
150 166 0
157 176 0
156 176 0
156 175 0
156 176 0
158 177 0
155 173 0
159 179 0
154 174 0
149 168 0
157 175 0
159 178 0
158 177 0
158 178 0
155 172 0
155 174 0
155 174 0
158 176 0
157 173 0
155 172 0
157 175 0
163 182 0
159 179 0
156 175 0
158 176 0
161 181 0
157 176 0
157 175 0
163 181 0
160 177 0
159 179 0
160 180 0
159 178 0
163 181 0
154 172 0
159 178 0
159 176 0
158 177 0
163 182 0
158 177 0
162 179 0
157 175 0
161 182 0
163 182 0
162 183 0
155 175 0
163 183 0
162 180 0
161 179 0
160 179 0
165 184 0
163 183 0
165 185 0
161 181 0
169 189 0
164 184 0
157 176 0
165 186 0
161 179 0
162 182 0
163 182 0
166 187 0
168 189 0
162 182 0
164 184 0
163 183 0
161 180 0
163 183 0
165 185 0
164 183 0
170 193 67
165 189 51
166 190 62
170 193 67
168 192 80
169 193 57
167 192 57
167 191 92
165 189 72
169 192 67
171 195 99
171 194 84
168 192 62
174 198 84
172 196 88
174 197 84
168 192 72
166 190 76
173 195 84
170 193 88
167 191 88
172 195 80
170 194 76
171 194 92
169 193 80
172 196 99
169 193 102
173 197 95
168 192 95
173 196 111
167 192 105
166 189 72
169 192 99
170 193 92
169 192 95
161 185 76
168 191 84
169 192 95
172 195 95
162 184 88
167 190 105
165 187 76
165 189 102
163 186 62
168 191 99
162 186 88
162 186 76
168 192 102
168 191 111
168 191 108
169 193 108
168 190 84
160 183 99
171 194 103
165 188 84
159 182 88
164 187 105
157 180 72
165 188 99
171 194 108
155 178 84
172 194 120
163 185 76
159 181 95
152 175 88
165 187 117
152 173 92
158 181 84
156 179 88
159 181 88
163 184 111
158 181 88
158 180 99
157 179 108
164 186 111
156 177 105
166 189 111
153 174 111
160 182 95
159 181 99
150 172 88
150 172 72
148 170 102
156 177 105
144 166 88
147 168 92
149 170 88
142 162 51
150 171 80
142 163 84
134 154 57
146 167 88
149 169 72
142 162 80
127 148 67
145 165 92
144 165 57
122 140 51
126 145 67
133 152 90
109 130 102
87 112 94
81 107 98
79 105 105
99 123 113
92 116 113
88 113 105
87 114 122
103 127 130
102 126 125
89 114 115
93 119 127
105 130 138
91 117 113
84 111 118
93 118 116
85 113 126
88 116 121
93 119 126
98 122 122
87 114 122
98 122 135
86 112 129
94 120 136
94 119 135
82 109 122
98 120 124
93 119 135
95 118 122
94 116 123
91 113 124
83 110 133
85 111 129
89 112 134
83 104 118
75 101 131
85 110 126
79 106 131
80 107 124
85 111 125
77 104 117
81 109 127
76 104 115
73 101 108
70 99 108
62 93 113
63 95 107
70 98 99
64 96 107
65 94 94
66 96 109
71 100 108
60 92 105
64 95 108
60 91 95
62 94 105
57 91 102
59 91 102
57 90 100
56 89 107
57 90 108
58 92 111
57 90 97
57 91 105
58 92 114
58 91 105
57 90 100
57 90 111
57 91 118
57 91 108
58 92 121
58 92 120
57 90 109
57 90 110
57 91 107
57 90 124
56 89 102
56 89 103
57 90 108
57 91 105
57 91 117
58 92 110
58 92 118
57 91 121
58 91 118
57 90 100
58 91 111
57 90 102
58 92 121
58 91 114
58 92 117
59 92 115
56 90 100
57 91 102
58 91 111
57 90 103
57 91 117
57 91 111
55 88 102
55 88 94
57 91 114
56 89 107
56 88 97
58 92 120
56 89 110
58 92 114
54 86 99
57 90 110
57 90 114
56 89 94
54 87 95
58 91 115
56 89 102
57 90 108
55 87 102
55 87 105
54 86 88
57 88 82
55 84 90
62 89 90
85 106 62
80 98 44
88 105 51
88 105 36
87 103 31
104 120 0
100 114 0
101 117 0
108 124 0
103 119 0
102 116 0
109 126 0
116 131 0
105 119 0
111 127 0
105 122 0
106 121 0
109 126 0
116 132 0
122 139 0
118 133 0
129 145 0
120 136 0
116 132 0
112 128 0
129 147 0
112 128 0
114 128 0
128 144 0
125 143 0
126 143 0
132 149 0
130 148 0
136 154 0
135 152 0
128 146 0
140 157 0
124 142 0
136 153 0
131 149 0
128 144 0
130 147 0
138 156 0
132 150 0
137 154 0
135 153 0
142 160 0
135 152 0
132 150 0
141 160 0
137 156 0
135 151 0
140 158 0
142 159 0
134 150 0
141 156 0
134 153 0
141 158 0
146 162 0
143 161 0
136 154 0
136 156 0
143 161 0
133 150 0
142 161 0
141 157 0
149 168 0
142 160 0
142 161 0
146 165 0
145 164 0
145 164 0
143 162 0
140 157 0
144 164 0
147 166 0
150 169 0
141 159 0
144 163 0
147 163 0
153 171 0
150 169 0
154 173 0
144 161 0
149 164 0
148 166 0
146 164 0
147 163 0
147 166 0
146 163 0
146 164 0
149 167 0
150 168 0
148 165 0
150 169 0
149 165 0
148 166 0
151 168 0
152 169 0
153 171 0
146 162 0
154 171 0
150 167 0
150 169 0
156 172 0
151 169 0
151 168 0
155 173 0
154 171 0
158 176 0
153 171 0
158 178 0
154 172 0
155 173 0
155 172 0
160 178 0
146 166 0
150 168 0
155 173 0
158 177 0
150 166 0
154 170 0
154 171 0
154 171 0
157 174 0
158 178 0
152 170 0
154 173 0
157 177 0
160 179 0
156 173 0
162 182 0
157 174 0
153 172 0
162 182 0
158 177 0
157 175 0
163 183 0
158 178 0
158 178 0
159 179 0
159 178 0
162 181 0
155 173 0
150 167 0
163 183 0
162 182 0
160 180 0
159 178 0
163 181 0
161 179 0
164 183 0
159 177 0
162 180 0
164 183 0
162 181 0
165 186 0
161 179 0
162 181 0
170 190 0
164 186 0
164 183 0
163 181 0
163 181 0
161 180 0
163 184 0
163 185 0
160 178 0
165 185 0
164 184 0
161 180 0
165 187 0
166 187 0
169 188 0
163 183 0
166 187 0
166 186 0
168 187 0
168 187 0
163 184 0
171 195 62
172 195 88
171 195 92
169 192 72
170 194 76
170 194 76
166 190 57
171 195 80
168 191 62
166 190 80
169 193 84
170 193 62
175 199 80
169 193 76
173 197 92
167 192 80
165 190 67
171 196 84
168 192 67
167 191 88
167 191 92
172 197 88
163 187 67
165 189 80
169 193 102
173 197 92
171 195 88
171 194 92
167 190 88
166 189 67
169 193 80
167 191 105
169 192 102
164 187 88
166 190 76
171 193 95
167 191 99
170 194 88
166 190 99
169 192 105
173 196 84
170 194 99
172 196 108
170 193 95
165 189 88
169 192 88
165 188 111
168 190 80
163 187 76
165 189 99
164 186 102
163 186 72
162 185 88
169 191 108
165 188 92
162 185 76
168 191 99
166 188 111
165 187 86
168 190 95
161 182 99
169 192 95
155 177 72
166 189 105
155 177 111
162 185 92
154 176 62
160 182 88
151 173 72
161 182 99
156 178 99
161 182 105
161 183 76
161 183 111
154 177 95
159 181 122
158 180 105
149 170 88
147 169 80
163 183 108
154 175 108
149 170 62
143 163 99
148 168 102
147 168 80
155 177 102
149 170 67
146 167 80
139 159 72
148 168 102
151 172 95
150 171 80
135 156 88
146 166 92
139 160 84
149 170 92
138 158 95
139 158 72
140 160 97
132 152 86
116 135 95
99 121 94
104 126 95
85 111 100
78 104 99
89 114 111
95 118 116
84 110 113
90 115 118
89 115 118
98 123 128
92 117 122
90 115 123
99 124 118
108 131 133
91 117 126
110 133 124
106 129 127
105 129 139
94 120 118
95 120 127
87 113 133
93 119 134
99 123 127
96 121 134
89 115 127
94 118 124
114 135 135
109 130 134
98 121 132
86 110 114
97 117 119
82 109 125
90 114 129
94 115 117
86 109 112
91 114 122
92 114 108
93 115 117
85 109 119
78 104 108
71 100 121
69 99 113
69 96 97
65 96 122
74 103 103
76 104 100
74 103 110
63 92 97
69 100 108
66 97 94
63 93 90
59 90 86
64 95 104
64 95 103
59 92 103
58 91 114
59 91 93
63 95 107
56 89 94
58 91 115
58 92 113
58 91 113
56 89 100
57 91 113
57 91 108
57 91 103
57 90 114
56 90 102
58 92 114
58 91 108
58 92 114
56 89 102
58 92 103
56 89 108
57 91 109
56 89 94
55 88 97
56 89 107
56 89 97
58 91 111
59 94 124
58 92 111
58 92 115
57 90 111
55 88 97
56 90 103
55 88 93
59 93 110
58 92 108
56 88 97
57 90 108
56 89 111
59 92 111
59 92 122
57 90 110
56 90 108
57 91 108
58 91 111
58 91 115
56 89 90
55 87 90
56 89 99
56 89 102
55 88 105
56 89 99
56 88 102
55 87 100
55 87 95
56 88 107
55 87 94
58 91 111
56 89 100
56 88 105
52 82 94
57 88 99
53 84 94
61 90 95
77 100 72
70 92 62
87 107 65
96 112 36
96 110 36
95 110 31
108 122 0
113 128 0
119 134 0
112 127 0
107 122 0
120 135 0
96 112 0
107 123 0
115 129 0
107 123 0
117 133 0
115 131 0
118 136 0
116 131 0
129 145 0
123 142 0
125 143 0
123 141 0
123 141 0
125 142 0
119 137 0
128 146 0
122 138 0
127 144 0
126 141 0
123 140 0
130 148 0
124 142 0
123 138 0
119 135 0
121 137 0
132 151 0
117 134 0
130 148 0
126 143 0
135 153 0
132 151 0
134 150 0
131 149 0
136 155 0
131 148 0
129 145 0
132 152 0
139 156 0
139 158 0
135 153 0
134 153 0
135 154 0
139 158 0
148 167 0
144 162 0
137 154 0
136 154 0
138 156 0
145 163 0
144 163 0
139 159 0
138 155 0
141 159 0
135 153 0
145 164 0
145 163 0
146 165 0
145 164 0
148 166 0
144 163 0
148 163 0
147 165 0
149 169 0
147 164 0
146 164 0
148 166 0
150 169 0
140 158 0
142 157 0
142 160 0
148 167 0
151 167 0
142 157 0
149 167 0
149 168 0
146 164 0
139 156 0
152 170 0
148 166 0
150 167 0
151 170 0
151 172 0
150 168 0
148 166 0
147 167 0
152 169 0
143 161 0
152 169 0
147 163 0
150 168 0
147 164 0
142 160 0
159 178 0
154 172 0
153 170 0
158 177 0
155 172 0
155 173 0
153 172 0
151 169 0
156 174 0
154 172 0
161 178 0
153 171 0
146 164 0
156 175 0
158 178 0
157 176 0
153 171 0
155 173 0
156 175 0
153 171 0
160 180 0
151 168 0
157 178 0
157 176 0
158 177 0
162 181 0
159 178 0
160 179 0
155 172 0
157 174 0
153 169 0
157 175 0
162 181 0
156 174 0
154 171 0
158 178 0
154 174 0
160 179 0
160 178 0
157 174 0
158 176 0
166 185 0
159 179 0
159 177 0
160 180 0
161 182 0
160 179 0
162 184 0
160 179 0
166 186 0
160 178 0
163 183 0
162 183 0
164 182 0
154 172 0
160 180 0
162 183 0
162 181 0
166 186 0
161 181 0
165 185 0
164 184 0
166 187 0
164 183 0
162 181 0
163 184 0
161 180 0
158 178 0
164 184 0
160 181 0
167 188 0
160 179 0
167 187 0
163 184 0
164 185 0
163 185 0
166 185 0
163 184 0
170 195 67
166 189 72
171 195 92
171 195 76
171 195 67
171 195 72
174 198 92
170 195 84
169 193 76
168 191 62
172 197 84
167 191 67
171 195 92
164 188 67
170 193 88
173 196 80
172 196 72
172 196 84
167 191 76
174 197 84
168 192 88
170 193 76
167 191 80
170 193 88
172 195 95
168 192 67
173 196 76
167 191 92
170 193 80
174 196 117
171 194 84
168 192 114
170 194 102
173 196 114
173 195 108
169 193 92
167 190 108
165 187 92
167 191 95
167 191 92
167 190 95
165 187 99
166 190 88
160 184 80
167 189 88
164 187 99
165 188 80
169 192 111
163 185 95
167 190 102
167 190 111
171 193 95
164 187 99
167 191 102
167 190 108
164 187 99
163 185 102
163 186 88
156 178 92
165 188 111
164 187 99
164 185 108
158 181 110
164 187 95
161 184 92
165 187 111
153 175 70
159 181 80
158 181 108
161 183 84
158 180 92
158 181 108
154 176 92
154 176 92
152 173 99
156 179 105
162 184 92
149 171 92
157 179 99
144 164 57
153 175 102
146 167 92
154 176 84
148 170 102
151 172 92
158 178 88
144 165 99
150 169 95
156 178 84
147 167 102
140 161 62
146 166 99
145 165 84
147 167 80
139 159 80
128 148 57
145 164 108
141 161 88
130 149 44
131 149 76
142 161 90
117 137 94
106 127 96
101 125 100
95 118 102
98 121 122
86 112 111
89 113 102
80 106 110
102 125 120
95 120 137
103 128 134
99 123 134
83 110 116
73 101 111
91 117 115
83 110 106
92 118 120
99 124 134
92 118 121
89 115 108
93 117 106
88 114 121
85 112 115
82 110 124
90 115 107
93 118 130
93 118 131
88 113 131
92 115 125
105 126 123
100 123 121
113 133 124
96 117 120
79 103 113
101 121 114
95 117 125
85 110 122
90 114 107
91 115 116
87 111 114
86 113 115
73 101 103
76 105 113
79 106 103
73 101 97
61 93 98
75 104 97
63 95 107
64 95 102
67 96 94
65 94 94
59 92 110
62 93 107
63 94 103
58 90 103
66 96 100
56 89 95
59 93 115
59 92 105
58 91 107
57 90 106
58 91 115
57 90 94
56 90 108
57 90 108
56 89 95
59 93 119
56 90 112
58 91 118
59 92 110
56 89 99
58 92 115
57 90 108
56 89 108
57 90 97
55 88 100
56 89 111
58 92 117
57 91 108
56 89 100
55 88 100
56 89 109
58 92 113
56 89 110
57 89 103
58 92 125
57 90 103
55 88 100
57 90 97
58 91 114
56 89 97
56 89 105
55 88 97
54 86 90
58 91 115
56 89 100
56 89 107
56 89 105
56 89 102
57 91 108
59 92 118
58 91 111
57 90 111
56 89 105
56 88 99
57 90 110
58 91 125
54 87 107
57 91 107
56 88 100
54 86 94
53 86 90
55 87 90
57 89 94
65 91 84
74 98 62
77 98 62
81 100 57
89 104 51
91 107 25
89 103 0
100 116 0
108 125 0
95 111 0
113 129 0
109 126 0
104 118 0
119 135 0
112 127 0
106 122 0
119 135 0
105 122 0
119 134 0
121 138 0
126 141 0
128 145 0
111 127 0
128 145 0
123 138 0
117 134 0
128 146 0
131 148 0
124 140 0
115 131 0
115 131 0
121 137 0
122 138 0
126 141 0
116 135 0
125 141 0
120 138 0
135 153 0
123 140 0
120 137 0
131 148 0
132 150 0
142 160 0
129 147 0
138 156 0
129 147 0
125 142 0
139 159 0
130 148 0
137 156 0
121 138 0
137 153 0
128 147 0
136 154 0
135 152 0
143 163 0
140 160 0
141 159 0
134 152 0
139 158 0
141 159 0
130 147 0
139 158 0
138 156 0
151 169 0
151 171 0
146 163 0
140 157 0
153 173 0
142 160 0
142 161 0
147 165 0
150 169 0
136 152 0
134 151 0
145 164 0
149 166 0
140 157 0
151 171 0
143 161 0
142 159 0
152 170 0
144 161 0
144 164 0
145 163 0
155 173 0
145 162 0
151 170 0
142 161 0
153 172 0
152 171 0
150 169 0
147 166 0
153 169 0
155 174 0
155 171 0
147 167 0
149 167 0
154 173 0
152 172 0
154 171 0
150 168 0
163 182 0
153 173 0
151 168 0
149 167 0
153 170 0
153 172 0
154 171 0
151 169 0
166 185 0
147 165 0
147 165 0
156 174 0
149 166 0
151 169 0
155 171 0
153 172 0
153 171 0
156 175 0
158 177 0
158 177 0
155 174 0
156 174 0
161 179 0
156 174 0
159 177 0
156 176 0
151 169 0
158 178 0
157 177 0
153 172 0
153 172 0
160 179 0
160 180 0
165 185 0
159 178 0
159 178 0
162 179 0
162 180 0
156 176 0
150 169 0
159 180 0
160 180 0
154 173 0
157 175 0
160 179 0
168 187 0
162 179 0
163 182 0
161 179 0
163 182 0
162 182 0
161 183 0
164 183 0
161 181 0
165 184 0
155 172 0
163 179 0
162 182 0
162 181 0
164 186 0
164 183 0
168 190 0
161 178 0
166 186 0
162 180 0
164 183 0
159 179 0
163 184 0
166 188 0
159 176 0
167 189 0
163 184 0
159 177 0
164 184 0
161 180 0
167 188 0
163 180 0
167 188 0
163 182 0
169 190 0
169 187 0
164 182 0
167 187 0
170 194 72
168 192 62
168 192 72
171 196 92
168 192 62
170 194 57
169 194 88
172 195 84
167 191 72
169 193 67
175 199 99
173 196 95
166 190 72
172 195 72
175 199 84
172 195 95
176 199 105
167 192 92
169 193 76
168 192 111
169 193 108
167 192 88
173 196 102
168 192 99
168 191 99
168 190 67
169 194 114
173 196 92
169 192 99
172 195 99
167 190 72
172 195 99
171 194 108
166 189 76
165 188 80
165 189 84
165 190 76
169 192 95
170 193 111
165 189 95
166 190 99
172 194 102
165 189 95
165 189 88
161 185 92
167 191 84
163 186 76
166 190 95
173 195 105
164 188 99
159 183 92
167 190 99
164 187 99
168 191 92
168 191 92
162 185 95
160 183 99
163 186 105
163 186 92
164 187 102
161 184 92
167 189 84
161 183 108
162 185 92
164 186 102
160 183 97
160 183 102
159 182 102
157 179 94
166 188 102
156 178 117
161 183 95
166 188 125
153 176 76
159 181 88
151 173 67
162 183 88
161 182 117
147 169 67
149 170 88
158 180 102
152 174 88
153 175 105
152 174 92
157 178 95
154 174 102
145 165 92
156 177 95
149 169 99
146 167 108
147 168 67
145 166 84
144 164 92
136 156 72
140 160 62
140 161 92
128 147 57
147 167 88
140 159 84
128 146 62
145 165 78
118 138 84
111 131 78
116 136 99
100 123 113
95 120 113
97 122 134
101 124 107
94 119 110
104 127 121
94 119 121
99 122 124
100 124 110
109 133 141
90 117 118
102 127 119
83 110 118
92 118 113
79 106 86
94 119 115
98 124 128
91 115 117
91 116 132
96 120 121
101 123 118
97 121 110
90 116 126
83 109 108
111 130 113
96 120 131
100 123 135
94 117 103
93 116 115
86 109 120
99 119 111
99 120 101
91 114 108
95 119 105
89 113 118
86 110 117
88 112 111
82 108 113
66 96 105
73 103 113
76 103 95
74 104 110
78 107 100
68 98 113
76 104 99
70 98 99
60 92 104
70 97 98
70 99 95
69 98 94
63 93 99
60 92 106
61 93 92
57 89 107
58 90 97
57 91 108
56 89 95
60 92 120
56 89 109
58 91 110
58 92 113
55 88 88
57 90 102
55 88 95
57 90 107
58 92 121
56 89 106
56 90 100
57 90 103
57 91 105
58 92 115
56 89 103
59 93 117
57 91 111
55 88 110
57 91 118
58 91 118
57 90 114
57 90 97
57 91 110
56 89 102
56 89 105
57 90 110
57 90 102
57 90 105
58 91 120
57 90 114
57 90 107
58 91 120
57 90 103
56 89 108
57 91 102
56 89 110
59 93 111
56 87 100
56 89 99
56 89 92
55 87 88
54 86 105
55 88 95
57 90 99
56 89 108
53 84 95
55 87 97
56 89 102
56 88 97
56 89 111
55 86 100
57 89 82
62 89 88
76 98 72
61 83 67
89 109 62
90 108 44
98 115 25
92 106 36
110 127 0
95 109 0
101 116 0
101 118 0
109 125 0
94 108 0
112 127 0
121 139 0
109 126 0
104 119 0
108 124 0
115 131 0
114 128 0
115 131 0
100 116 0
115 133 0
113 130 0
116 131 0
117 134 0
118 135 0
124 140 0
122 138 0
118 135 0
119 136 0
124 141 0
121 138 0
134 151 0
121 137 0
114 131 0
132 150 0
126 142 0
124 142 0
124 141 0
115 133 0
138 155 0
132 150 0
131 148 0
130 147 0
135 152 0
136 155 0
124 142 0
134 151 0
129 146 0
132 148 0
135 153 0
132 150 0
140 158 0
136 154 0
131 149 0
145 162 0
136 155 0
139 156 0
147 168 0
135 153 0
135 151 0
145 161 0
150 169 0
135 152 0
149 167 0
139 156 0
137 155 0
147 166 0
144 163 0
141 158 0
143 160 0
146 165 0
147 166 0
145 164 0
141 160 0
150 169 0
153 171 0
144 162 0
152 170 0
142 160 0
145 164 0
148 164 0
135 151 0
142 160 0
151 170 0
151 172 0
142 159 0
154 173 0
152 171 0
155 174 0
146 164 0
143 160 0
147 165 0
149 168 0
152 171 0
157 176 0
150 168 0
157 175 0
155 175 0
147 163 0
154 171 0
147 164 0
153 172 0
154 173 0
147 164 0
158 177 0
147 165 0
150 169 0
146 165 0
150 169 0
154 173 0
157 176 0
153 173 0
153 171 0
152 169 0
153 169 0
157 176 0
155 175 0
152 171 0
157 177 0
153 170 0
152 171 0
158 178 0
159 177 0
158 176 0
155 172 0
152 169 0
156 174 0
159 179 0
159 178 0
155 172 0
154 172 0
156 174 0
153 173 0
157 175 0
159 179 0
158 176 0
163 183 0
161 181 0
157 176 0
157 177 0
158 177 0
160 182 0
165 185 0
161 181 0
163 180 0
153 172 0
159 179 0
165 184 0
165 185 0
165 186 0
162 182 0
163 180 0
161 180 0
166 187 0
160 178 0
167 187 0
163 182 0
165 185 0
168 188 0
161 181 0
157 177 0
165 186 0
158 178 0
160 180 0
157 174 0
164 184 0
166 186 0
165 186 0
164 181 0
166 187 0
167 187 0
160 180 0
163 185 0
168 188 0
162 180 0
164 184 0
165 187 0
168 189 0
166 186 0
168 190 0
166 187 0
165 185 0
165 186 0
165 185 0
167 187 0
171 195 76
170 194 72
174 197 80
172 196 76
170 194 67
167 191 72
174 198 102
168 192 67
171 195 95
174 197 88
171 196 108
173 197 84
168 192 88
175 199 114
168 191 88
166 190 88
170 194 80
166 190 84
171 194 84
168 191 99
170 194 92
171 194 80
173 197 114
172 194 92
175 199 105
172 194 51
169 193 111
173 196 105
170 194 76
173 195 108
177 200 111
162 187 95
169 193 122
169 192 88
168 191 95
169 191 92
171 194 102
166 188 88
168 191 102
170 193 99
169 193 122
172 195 102
167 191 95
166 190 111
163 187 102
168 191 99
160 184 92
166 189 108
169 192 108
166 189 105
165 188 102
165 187 84
167 191 122
165 189 94
166 188 108
163 187 84
162 186 108
163 186 90
166 188 95
163 187 84
160 183 84
165 188 102
155 177 95
161 183 103
164 187 88
165 187 88
151 174 80
160 183 95
162 184 105
158 180 102
165 187 108
155 176 102
159 181 108
158 180 102
153 175 88
154 176 105
155 177 111
162 184 108
162 183 130
156 177 105
161 183 99
147 167 88
161 183 111
149 170 102
151 172 84
144 164 84
151 172 88
151 172 92
146 166 84
145 166 92
151 172 111
146 167 80
146 167 84
141 161 76
144 164 114
133 152 72
145 165 92
140 159 88
133 152 72
138 158 76
131 151 57
132 150 80
124 145 67
117 136 88
115 135 83
92 114 98
90 113 102
81 106 99
89 114 115
107 129 110
102 126 127
89 115 113
91 117 131
95 120 125
95 119 108
85 112 118
102 126 117
93 119 121
107 129 127
81 108 116
106 130 124
96 122 115
100 124 111
91 117 111
93 118 126
91 116 105
101 126 134
87 110 107
93 116 120
96 120 120
96 118 111
96 119 119
102 123 121
88 112 122
98 121 124
84 107 113
95 119 102
95 119 115
107 127 94
92 115 110
95 117 90
86 112 114
75 102 115
77 103 100
76 103 100
78 105 102
74 103 100
76 104 90
63 92 93
68 95 94
75 102 92
70 98 80
64 94 82
58 89 92
63 94 92
63 93 99
67 98 107
56 89 94
58 92 108
60 92 110
57 91 105
56 89 101
54 86 84
58 91 95
56 89 108
56 90 92
57 90 99
57 90 107
56 89 105
56 89 96
55 87 107
55 88 105
56 90 105
54 86 107
57 90 102
55 88 99
55 88 97
56 88 92
57 90 103
58 91 114
56 89 92
55 88 95
57 90 105
55 88 99
56 89 97
58 91 111
56 89 97
55 88 88
55 87 95
56 89 102
57 90 103
54 86 99
54 86 90
56 88 92
57 91 111
56 89 99
56 88 97
55 88 99
55 87 102
55 87 94
55 88 108
56 88 92
55 87 82
53 85 92
53 85 88
53 85 80
55 87 97
56 88 107
54 86 88
54 86 86
58 88 88
59 87 76
65 89 72
74 97 70
77 96 54
85 103 36
95 110 36
95 111 31
96 113 25
107 122 0
104 121 0
105 121 0
100 116 0
115 131 0
114 131 0
110 127 0
106 122 0
101 114 0
112 128 0
105 121 0
127 143 0
113 129 0
117 133 0
114 131 0
111 127 0
113 130 0
123 139 0
113 130 0
107 124 0
111 126 0
110 127 0
114 130 0
127 143 0
123 140 0
128 145 0
119 135 0
122 138 0
123 141 0
127 144 0
122 139 0
128 145 0
131 148 0
125 140 0
136 154 0
129 146 0
118 133 0
130 148 0
124 141 0
132 150 0
136 152 0
130 147 0
120 137 0
127 143 0
139 157 0
127 144 0
134 153 0
142 160 0
138 156 0
127 144 0
128 145 0
148 166 0
139 157 0
132 151 0
146 165 0
129 148 0
139 159 0
142 161 0
138 156 0
146 165 0
148 166 0
137 153 0
148 167 0
149 168 0
144 160 0
144 163 0
144 164 0
144 162 0
141 158 0
149 169 0
137 154 0
134 151 0
142 161 0
144 164 0
152 171 0
144 163 0
149 169 0
150 165 0
154 172 0
150 169 0
148 166 0
146 166 0
146 164 0
153 173 0
143 161 0
148 166 0
145 164 0
157 175 0
148 167 0
148 166 0
145 162 0
156 175 0
148 166 0
150 167 0
154 173 0
148 166 0
155 174 0
149 167 0
152 169 0
150 167 0
156 175 0
142 159 0
149 168 0
154 171 0
154 173 0
162 181 0
153 172 0
150 168 0
153 170 0
150 166 0
151 170 0
150 168 0
148 167 0
155 173 0
156 176 0
149 167 0
156 174 0
159 177 0
157 176 0
160 179 0
159 179 0
159 178 0
157 174 0
156 174 0
161 180 0
157 176 0
158 176 0
159 179 0
154 174 0
152 170 0
159 178 0
163 183 0
153 171 0
154 172 0
162 181 0
164 183 0
157 175 0
157 175 0
162 183 0
156 177 0
158 178 0
157 175 0
161 181 0
167 186 0
161 182 0
160 180 0
160 178 0
158 178 0
160 179 0
162 180 0
157 176 0
158 177 0
163 184 0
153 173 0
158 176 0
166 186 0
158 177 0
166 188 0
164 183 0
164 184 0
162 180 0
164 183 0
161 181 0
163 183 0
164 185 0
164 186 0
160 181 0
165 185 0
162 181 0
164 185 0
164 185 0
167 186 0
165 186 0
163 183 0
163 183 0
164 186 0
165 186 0
168 189 0
167 187 0
162 182 0
161 182 0
173 197 76
174 198 80
169 193 67
167 190 72
166 191 62
172 196 80
169 193 80
170 194 51
169 193 84
172 195 92
173 197 102
170 195 92
174 198 102
165 189 95
171 194 99
177 200 88
169 192 80
174 198 108
169 193 84
174 197 102
172 195 95
172 195 80
167 189 84
170 194 102
169 193 108
168 192 84
172 195 105
167 190 99
168 191 108
170 193 99
170 193 95
169 193 92
169 192 88
169 193 114
172 195 122
172 194 114
168 192 114
175 199 130
168 191 99
166 189 76
171 194 92
175 198 102
168 192 92
172 195 95
159 182 92
166 189 92
163 187 99
169 192 80
164 186 88
166 189 105
172 195 114
166 189 120
163 186 84
163 188 97
166 189 92
165 188 102
162 184 100
168 190 99
169 192 108
163 186 99
163 185 99
167 191 114
165 188 88
153 175 67
164 188 108
153 176 80
160 183 102
160 183 102
161 183 99
155 177 82
152 173 76
163 185 102
164 186 88
164 187 99
159 180 92
171 192 140
163 186 105
160 181 111
140 162 88
154 176 84
157 179 88
160 181 95
150 172 84
154 174 95
156 176 102
153 174 102
152 173 117
142 162 88
148 169 88
154 173 114
140 160 72
146 166 86
144 165 88
143 164 99
146 165 105
143 162 95
123 144 62
140 158 76
132 153 84
142 161 95
133 152 72
129 147 92
127 146 76
108 127 72
122 142 90
110 129 82
99 121 94
88 111 92
79 105 107
92 116 103
87 113 100
88 112 104
105 129 121
99 122 127
94 119 125
88 114 110
99 123 119
98 122 122
95 119 118
83 110 113
104 127 125
107 130 115
98 122 110
99 124 115
98 122 124
107 128 106
97 122 118
99 122 115
88 113 108
110 130 123
111 134 117
107 128 116
99 121 103
90 112 106
111 132 102
104 125 99
97 119 96
112 135 102
91 113 98
93 116 103
98 119 89
94 116 88
88 114 99
88 113 108
79 104 83
78 105 100
74 101 99
75 102 95
82 108 96
74 102 102
61 92 84
66 95 99
66 96 100
62 92 82
65 94 97
60 91 95
64 94 86
55 88 107
57 89 102
59 89 92
54 87 103
57 90 100
56 89 94
56 89 103
56 89 110
56 88 102
58 91 111
54 85 92
57 91 103
57 90 107
58 92 115
57 91 110
57 90 107
58 91 102
57 91 100
56 88 105
56 89 92
54 87 99
56 89 103
56 88 95
55 87 95
55 88 95
56 89 95
56 89 108
58 92 113
55 88 97
55 88 102
56 88 105
57 91 110
54 87 99
53 84 86
53 84 90
56 89 99
56 89 114
55 87 102
56 89 84
56 89 97
54 86 88
55 88 102
52 83 78
55 86 102
54 87 99
55 88 105
52 83 92
54 86 99
56 89 92
52 83 94
52 82 86
54 84 84
68 94 78
70 92 67
68 90 70
92 112 51
79 97 47
95 112 54
93 110 25
93 108 0
94 110 0
112 127 0
84 101 0
102 119 0
97 113 0
115 131 0
108 125 0
109 124 0
116 132 0
115 133 0
109 125 0
113 129 0
114 131 0
106 122 0
123 139 0
122 140 0
112 129 0
113 128 0
122 138 0
112 130 0
113 130 0
118 135 0
126 144 0
116 132 0
126 143 0
116 132 0
134 151 0
122 140 0
125 142 0
128 146 0
131 149 0
120 137 0
118 136 0
131 150 0
113 129 0
131 147 0
140 158 0
134 151 0
127 144 0
118 135 0
141 160 0
131 150 0
134 152 0
137 155 0
132 149 0
125 143 0
129 147 0
132 149 0
143 162 0
138 155 0
132 149 0
134 151 0
140 159 0
131 149 0
127 146 0
141 160 0
146 166 0
141 161 0
138 157 0
138 156 0
141 159 0
141 158 0
149 168 0
145 163 0
146 164 0
142 160 0
146 165 0
144 163 0
140 158 0
146 163 0
151 169 0
148 166 0
142 161 0
145 163 0
142 160 0
149 167 0
148 167 0
146 164 0
150 168 0
151 171 0
145 164 0
151 171 0
152 171 0
152 170 0
142 162 0
148 166 0
150 169 0
150 169 0
149 166 0
144 161 0
157 177 0
153 172 0
152 171 0
150 168 0
152 172 0
149 167 0
155 173 0
150 167 0
153 170 0
150 169 0
143 161 0
157 176 0
151 170 0
156 175 0
152 167 0
152 170 0
149 168 0
156 175 0
155 174 0
152 170 0
156 175 0
155 173 0
158 177 0
157 176 0
149 169 0
156 174 0
153 172 0
156 175 0
154 172 0
158 177 0
157 176 0
161 179 0
156 174 0
151 171 0
156 177 0
159 179 0
156 174 0
155 173 0
158 178 0
161 179 0
152 170 0
158 177 0
158 175 0
161 183 0
156 175 0
160 179 0
158 177 0
159 176 0
164 184 0
159 179 0
158 178 0
160 181 0
162 181 0
159 177 0
164 184 0
155 176 0
161 181 0
160 179 0
161 180 0
161 180 0
160 179 0
168 188 0
162 182 0
161 182 0
155 176 0
164 184 0
166 185 0
161 182 0
159 180 0
165 184 0
164 184 0
163 183 0
161 182 0
165 186 0
166 188 0
160 180 0
163 183 0
163 184 0
164 186 0
165 183 0
160 180 0
164 185 0
163 183 0
157 177 0
164 183 0
161 181 0
166 187 0
161 181 0
166 188 0
162 184 0
167 188 0
166 187 0
164 184 0
172 196 76
170 194 84
172 196 62
168 193 102
170 194 72
175 198 95
173 196 80
171 195 84
166 190 92
171 195 92
171 194 95
169 192 80
171 195 72
173 196 95
168 192 80
169 193 80
170 193 102
169 192 88
174 198 80
169 192 99
170 193 67
170 194 92
175 198 102
169 192 92
170 194 117
170 193 102
169 192 117
170 194 95
169 192 84
170 193 102
170 193 95
165 189 92
172 196 95
169 192 84
166 190 72
167 190 88
167 191 95
172 195 67
169 192 105
171 194 117
164 187 88
171 196 114
174 198 111
164 188 76
161 184 88
173 196 111
165 189 102
170 194 102
166 188 84
164 187 95
165 188 80
166 189 110
166 190 111
169 192 92
162 186 84
167 191 95
165 188 84
164 186 95
170 192 99
158 180 84
159 181 92
163 185 99
164 186 92
158 181 113
159 181 102
163 186 88
161 183 82
161 184 103
156 178 102
155 178 76
159 181 111
152 175 92
162 184 114
158 181 88
163 185 99
157 179 88
156 178 95
154 176 108
155 177 95
162 184 84
160 180 114
157 179 102
149 171 72
156 177 108
154 175 108
152 173 99
140 161 95
141 162 95
149 170 76
151 171 99
144 164 99
155 175 99
139 158 99
139 158 99
139 159 80
128 147 80
138 158 80
141 162 94
128 147 62
142 162 84
135 153 99
121 139 57
126 145 92
124 141 78
123 142 86
130 150 102
101 122 97
99 121 98
100 123 107
90 113 87
100 123 107
96 121 120
100 125 115
98 121 124
75 103 90
97 121 124
91 116 122
102 126 120
93 117 117
89 115 108
95 119 105
106 129 122
98 123 122
93 120 108
101 125 112
103 126 120
81 105 102
92 117 122
104 126 104
118 138 130
101 124 114
113 134 115
106 128 94
119 138 99
108 130 102
110 129 98
105 126 101
93 117 99
101 122 92
108 130 97
86 110 107
91 114 97
88 113 107
91 114 92
81 108 90
86 111 94
76 100 84
75 102 88
80 107 84
62 91 82
72 98 86
75 103 88
64 93 80
63 92 80
60 92 85
55 87 82
61 93 94
62 93 93
60 91 102
58 90 90
57 89 84
56 89 99
54 86 94
54 86 90
54 87 86
56 88 90
57 90 100
57 91 102
55 87 92
55 87 84
55 87 102
55 87 78
57 89 108
54 87 95
56 89 97
56 89 100
56 89 105
56 90 108
55 88 99
54 87 90
56 89 88
56 88 103
54 86 88
57 91 100
56 88 103
54 86 88
57 91 100
55 88 100
57 91 103
55 88 110
56 89 103
56 89 111
53 84 108
53 84 92
56 89 97
55 88 90
57 90 110
54 86 89
57 90 103
55 88 99
57 90 95
54 86 92
54 85 84
54 85 90
53 85 92
55 86 107
55 83 92
65 90 78
62 89 86
65 86 47
76 94 54
100 118 44
91 107 31
97 109 0
94 109 0
89 103 0
110 126 0
102 117 0
84 99 0
100 117 0
113 128 0
94 110 0
96 110 0
107 122 0
117 133 0
93 110 0
105 122 0
106 123 0
109 126 0
107 121 0
110 127 0
122 140 0
111 128 0
115 130 0
110 128 0
101 117 0
120 136 0
127 144 0
125 141 0
117 134 0
124 141 0
108 123 0
117 133 0
125 141 0
124 142 0
136 153 0
119 136 0
138 155 0
133 151 0
128 145 0
133 151 0
132 150 0
132 152 0
127 146 0
128 145 0
131 148 0
129 146 0
132 149 0
131 148 0
134 153 0
139 158 0
137 155 0
143 162 0
126 143 0
126 145 0
130 148 0
135 153 0
144 162 0
131 147 0
144 163 0
136 153 0
139 156 0
135 155 0
140 158 0
148 167 0
138 158 0
147 165 0
139 159 0
142 160 0
143 163 0
149 167 0
151 169 0
140 159 0
132 149 0
136 155 0
145 163 0
146 164 0
142 160 0
143 162 0
145 166 0
140 159 0
148 168 0
145 164 0
153 173 0
147 167 0
149 169 0
141 161 0
155 174 0
141 159 0
149 169 0
151 171 0
151 169 0
150 169 0
148 166 0
144 164 0
155 174 0
157 176 0
148 167 0
147 166 0
147 167 0
153 171 0
153 171 0
144 162 0
155 173 0
152 170 0
154 172 0
149 166 0
146 166 0
153 169 0
154 172 0
153 174 0
156 176 0
158 176 0
150 170 0
156 176 0
152 170 0
158 177 0
156 175 0
144 162 0
153 173 0
148 165 0
157 176 0
152 173 0
156 176 0
153 171 0
155 174 0
149 169 0
159 177 0
155 173 0
156 175 0
154 174 0
158 178 0
156 175 0
155 175 0
156 176 0
159 178 0
155 174 0
159 178 0
154 173 0
163 183 0
158 176 0
163 183 0
166 186 0
160 178 0
159 179 0
158 177 0
156 176 0
161 179 0
150 168 0
157 176 0
162 181 0
161 180 0
157 177 0
156 176 0
163 184 0
161 182 0
163 184 0
160 181 0
168 185 0
160 180 0
162 181 0
164 184 0
158 176 0
164 183 0
157 176 0
164 183 0
161 181 0
170 191 0
160 180 0
159 179 0
160 181 0
164 184 0
164 183 0
161 181 0
162 182 0
161 181 0
161 180 0
161 180 0
162 182 0
164 183 0
165 184 0
165 186 0
160 180 0
161 179 0
163 185 0
165 187 0
163 182 0
165 184 0
166 187 0
159 179 0
167 190 67
175 199 84
172 196 67
170 194 84
167 190 67
165 189 62
165 189 76
176 199 84
176 199 95
168 192 80
173 196 92
173 196 76
172 195 92
173 197 95
167 191 88
171 194 84
169 192 67
171 194 105
170 193 67
178 200 102
170 193 105
169 192 88
167 190 95
170 194 95
175 197 95
169 193 80
173 196 92
166 189 92
173 196 108
174 196 114
167 191 80
173 196 111
166 189 84
171 195 105
170 193 102
169 192 102
172 195 88
169 192 102
157 181 76
162 186 67
169 192 76
165 188 92
172 194 92
169 193 92
165 188 84
175 198 111
167 190 102
163 186 99
169 193 99
166 190 84
158 181 95
162 185 76
171 194 111
165 188 84
170 193 76
170 193 108
164 187 102
169 192 97
155 177 72
162 184 95
163 186 88
162 184 105
166 188 99
168 191 108
164 187 80
156 179 80
163 186 114
159 181 102
165 188 99
161 183 102
154 176 76
162 185 95
157 179 114
161 183 99
157 179 99
163 185 108
162 184 102
155 176 111
157 179 92
154 175 92
161 183 99
155 176 102
161 182 92
153 174 80
159 180 102
150 171 105
152 172 67
152 173 88
147 167 99
143 162 76
147 168 72
163 184 114
150 170 105
139 159 95
143 163 88
140 159 76
151 170 99
137 157 84
138 156 88
139 157 102
127 145 80
130 149 88
123 140 67
138 156 92
124 142 65
118 135 74
117 136 95
104 124 82
105 125 99
92 115 102
87 112 107
94 117 110
96 120 118
86 111 100
93 116 115
92 116 103
89 113 99
89 115 103
100 124 113
95 120 110
92 117 124
102 126 114
101 125 107
96 122 127
92 117 105
103 126 105
102 124 112
103 125 97
98 120 107
89 113 102
104 125 103
108 129 102
105 128 116
115 134 98
113 133 99
116 137 92
106 127 108
122 140 92
92 116 99
99 122 100
88 112 99
113 133 100
83 107 103
86 109 90
84 107 100
85 108 84
75 100 82
85 110 88
75 103 97
79 105 95
71 98 102
81 108 92
67 95 84
58 88 86
63 93 78
66 94 86
58 88 88
60 92 94
54 86 82
60 91 103
57 88 88
54 86 84
54 86 86
56 88 90
55 87 90
52 84 78
55 88 94
55 87 97
58 92 113
55 87 94
55 87 97
54 86 90
56 89 105
53 85 90
54 87 97
56 89 99
55 87 100
54 86 94
53 84 77
55 88 105
56 89 102
53 85 90
53 85 76
56 89 92
54 87 97
54 86 97
56 89 111
54 85 86
54 86 92
51 82 84
57 90 105
55 86 94
54 87 90
54 86 97
53 84 78
55 87 95
53 84 97
53 85 80
54 85 100
54 85 90
52 83 82
53 84 90
53 84 88
60 88 74
54 82 70
64 88 72
70 93 78
61 84 47
80 98 44
72 89 36
88 104 31
97 111 25
99 115 0
96 111 0
99 114 0
101 117 0
99 115 0
103 120 0
122 139 0
107 123 0
101 117 0
101 118 0
97 111 0
98 116 0
122 139 0
114 130 0
112 125 0
98 114 0
116 133 0
112 130 0
120 137 0
97 114 0
115 130 0
109 125 0
116 134 0
125 142 0
126 145 0
117 134 0
129 145 0
133 152 0
124 142 0
119 136 0
120 139 0
118 135 0
130 147 0
133 153 0
136 155 0
132 151 0
123 142 0
131 149 0
124 140 0
133 151 0
135 154 0
131 150 0
138 157 0
131 150 0
133 152 0
130 148 0
139 159 0
139 158 0
140 160 0
135 152 0
136 152 0
142 163 0
131 149 0
142 161 0
131 147 0
134 152 0
138 155 0
139 159 0
142 162 0
138 155 0
139 157 0
138 156 0
132 151 0
143 161 0
141 159 0
146 166 0
143 161 0
141 159 0
140 158 0
142 160 0
145 164 0
146 161 0
137 156 0
146 165 0
149 168 0
149 169 0
149 169 0
150 170 0
143 161 0
146 165 0
150 169 0
145 165 0
150 169 0
152 171 0
149 168 0
147 166 0
150 169 0
153 172 0
143 162 0
148 167 0
147 166 0
153 171 0
146 164 0
147 165 0
145 163 0
151 170 0
150 168 0
153 171 0
157 176 0
147 165 0
145 162 0
154 173 0
152 171 0
148 165 0
151 170 0
155 176 0
157 176 0
149 168 0
157 177 0
153 172 0
151 170 0
147 165 0
152 171 0
151 170 0
157 177 0
151 170 0
156 175 0
153 173 0
158 178 0
156 172 0
151 173 0
152 171 0
159 179 0
156 174 0
150 170 0
159 178 0
159 178 0
155 174 0
158 177 0
159 178 0
161 181 0
159 178 0
156 175 0
156 174 0
158 177 0
157 176 0
158 178 0
157 176 0
163 184 0
159 179 0
157 178 0
163 185 0
158 177 0
162 179 0
160 178 0
161 181 0
163 183 0
159 179 0
157 175 0
163 183 0
158 176 0
163 181 0
160 179 0
163 182 0
157 175 0
161 180 0
162 182 0
161 179 0
158 179 0
157 177 0
159 179 0
164 183 0
166 187 0
163 183 0
160 181 0
163 184 0
166 186 0
166 187 0
158 178 0
168 188 0
167 187 0
165 186 0
166 185 0
167 188 0
160 178 0
165 186 0
161 180 0
165 185 0
163 183 0
169 191 0
162 181 0
164 185 0
167 186 0
166 186 0
165 185 0
163 183 0
162 181 0
164 185 0
172 196 62
172 195 67
172 196 88
170 194 92
172 195 76
173 196 67
174 197 99
172 195 92
172 195 84
172 195 99
168 193 67
172 195 72
174 198 111
171 195 105
166 189 88
172 195 99
177 199 102
173 197 105
167 191 72
169 192 99
173 195 102
163 187 88
167 190 88
173 196 99
169 192 102
171 195 105
172 195 102
173 196 102
170 194 88
174 197 102
171 194 102
172 196 120
169 193 92
171 194 99
171 194 88
166 189 88
169 192 88
168 192 76
169 192 92
175 198 105
169 192 108
169 193 111
160 184 105
169 192 88
161 185 95
171 194 111
164 188 88
166 189 107
167 191 108
163 187 102
167 190 102
165 188 108
160 182 88
164 187 94
167 188 99
167 190 102
164 188 105
160 183 62
170 192 95
159 182 92
162 185 88
167 188 105
166 189 120
161 183 86
158 180 94
166 188 95
160 183 80
157 180 92
167 190 76
158 179 99
157 179 99
159 181 114
156 177 102
157 178 108
151 174 80
155 176 95
158 180 84
162 184 99
159 180 120
157 179 92
158 179 105
152 172 67
156 178 111
143 166 80
154 175 99
153 175 114
159 180 114
160 181 111
155 176 99
146 167 92
151 171 84
158 179 99
155 175 114
139 157 84
149 168 84
150 169 92
135 154 88
137 157 84
138 158 92
139 158 99
146 163 92
140 158 92
130 147 72
137 156 88
125 142 80
123 141 76
122 140 94
119 137 84
96 115 74
93 113 84
102 123 95
89 113 108
87 112 86
98 121 107
91 116 110
96 120 102
112 134 118
100 124 117
97 121 111
95 120 103
104 127 124
119 141 124
108 132 108
97 120 102
94 119 114
106 128 97
115 137 107
109 131 121
103 125 115
108 128 99
104 127 84
106 126 103
103 124 100
109 130 99
111 130 86
109 128 90
111 131 95
102 123 86
114 134 94
106 129 103
95 117 86
87 111 84
85 111 105
93 115 99
87 112 82
89 113 84
80 104 99
77 105 108
70 97 84
73 99 84
71 100 95
65 93 76
70 98 103
65 93 84
67 95 94
58 88 84
67 95 80
59 89 75
67 96 99
57 87 76
57 89 80
56 89 100
56 86 74
56 88 95
52 84 90
54 86 86
56 89 102
55 87 88
56 88 94
55 87 95
57 90 95
55 87 102
55 88 105
54 86 86
56 88 100
55 87 82
55 87 90
54 86 94
53 85 78
52 83 84
56 89 103
54 86 88
55 88 86
54 86 94
53 85 94
53 85 78
54 86 86
56 88 92
54 86 90
54 86 102
55 87 100
54 87 94
53 85 88
56 89 95
55 87 99
53 85 80
52 83 88
52 83 70
53 84 97
56 88 99
65 91 80
61 89 74
71 92 70
72 93 65
73 93 54
86 106 62
91 108 36
90 105 31
85 102 18
95 110 25
79 94 0
98 114 0
111 126 0
111 126 0
101 117 0
114 131 0
114 130 0
101 117 0
113 129 0
114 132 0
100 114 0
111 128 0
115 132 0
112 128 0
112 130 0
111 127 0
114 131 0
115 132 0
112 127 0
104 120 0
116 132 0
114 131 0
124 140 0
115 131 0
118 136 0
109 126 0
104 123 0
123 141 0
121 139 0
126 143 0
126 144 0
122 141 0
132 150 0
117 135 0
134 152 0
139 158 0
124 141 0
129 146 0
126 145 0
125 144 0
125 142 0
125 144 0
134 154 0
130 147 0
141 159 0
135 153 0
134 152 0
128 144 0
136 155 0
138 157 0
127 146 0
134 153 0
135 155 0
144 165 0
135 152 0
132 149 0
128 144 0
140 160 0
135 154 0
136 154 0
142 160 0
143 161 0
146 165 0
147 165 0
142 161 0
141 161 0
140 158 0
135 154 0
137 156 0
146 166 0
152 172 0
152 171 0
142 161 0
146 166 0
134 153 0
153 173 0
142 161 0
144 163 0
150 169 0
150 170 0
143 162 0
150 170 0
145 166 0
137 154 0
144 161 0
141 158 0
154 173 0
150 170 0
153 172 0
154 175 0
141 158 0
148 165 0
155 174 0
152 171 0
155 174 0
145 162 0
152 171 0
150 168 0
159 179 0
143 161 0
145 163 0
153 174 0
152 170 0
159 179 0
146 163 0
153 172 0
160 178 0
158 178 0
152 171 0
158 178 0
153 173 0
159 177 0
161 181 0
152 171 0
149 168 0
159 178 0
154 173 0
155 175 0
151 168 0
156 177 0
156 176 0
155 173 0
156 176 0
152 172 0
151 170 0
158 176 0
155 174 0
156 176 0
156 176 0
158 176 0
160 181 0
161 182 0
158 178 0
159 179 0
155 173 0
156 176 0
161 181 0
155 174 0
156 176 0
158 179 0
160 181 0
162 182 0
158 176 0
159 179 0
157 176 0
158 178 0
163 184 0
163 184 0
159 177 0
158 178 0
157 178 0
161 181 0
162 183 0
155 175 0
163 184 0
164 185 0
163 181 0
167 185 0
157 178 0
165 183 0
161 181 0
158 178 0
165 184 0
162 181 0
161 182 0
162 183 0
155 175 0
167 188 0
166 188 0
161 179 0
166 187 0
164 185 0
160 181 0
162 184 0
161 181 0
166 186 0
165 187 0
167 189 0
164 185 0
160 181 0
165 186 0
163 183 0
169 190 0
165 186 0
168 189 0
160 183 0
165 186 0
164 184 0
164 183 0
167 189 0
167 191 72
170 193 72
171 194 72
170 193 80
171 194 88
168 192 76
172 196 80
171 194 99
171 195 88
173 196 95
171 195 95
167 190 72
174 197 99
165 188 92
174 197 80
163 186 80
170 193 88
174 198 99
170 194 88
169 192 95
172 195 95
170 194 92
163 186 88
170 194 102
167 190 76
165 189 76
165 190 95
172 196 102
168 192 95
171 194 117
173 196 95
167 190 102
163 187 92
167 191 84
166 189 99
166 189 92
164 187 99
167 190 95
171 194 120
166 188 92
163 185 88
163 187 114
171 194 102
167 189 105
166 189 105
171 194 92
166 189 99
164 188 105
161 185 90
171 194 117
162 185 76
164 188 114
168 191 103
164 187 110
166 188 72
166 189 111
156 178 86
170 194 117
157 179 95
160 183 90
161 184 88
154 176 76
156 179 95
160 182 105
163 186 88
161 184 99
165 188 97
152 175 88
154 177 92
160 183 105
162 185 105
156 178 92
159 182 92
159 182 95
156 178 117
164 186 100
153 175 95
160 182 117
148 169 88
154 175 108
149 171 99
161 182 88
145 167 84
153 173 92
160 182 92
143 163 76
155 176 95
149 170 108
157 177 127
146 167 76
148 168 99
149 170 99
136 155 62
149 169 125
133 152 88
141 162 88
147 166 95
140 160 88
137 157 76
136 155 84
137 156 92
137 156 76
129 147 67
135 153 84
135 153 76
134 151 102
134 152 88
122 140 95
118 135 74
109 129 82
107 128 82
107 128 114
114 134 125
83 108 99
85 110 99
99 123 111
89 114 103
94 118 102
87 113 121
87 113 94
94 118 105
82 108 111
95 120 103
110 132 121
91 116 117
102 123 107
112 134 95
107 127 103
109 130 111
100 121 88
105 125 92
113 133 102
121 140 86
110 130 82
108 125 103
121 138 95
109 130 94
113 135 88
117 136 84
116 137 78
97 120 92
97 119 92
84 107 70
98 119 70
83 108 76
78 103 82
97 119 89
80 105 84
97 119 72
72 98 78
76 102 88
73 98 74
61 88 80
68 96 82
65 93 96
60 89 80
61 91 78
68 94 72
66 96 95
62 90 82
53 84 84
58 89 103
53 84 84
55 88 90
53 85 92
54 86 82
53 85 94
54 85 92
53 85 88
53 84 92
56 89 107
56 88 100
55 88 100
57 89 99
56 89 99
54 86 99
55 88 99
54 85 99
55 88 94
56 89 108
54 86 88
53 85 86
51 82 82
54 86 88
53 84 95
54 86 84
53 84 78
53 84 78
54 85 90
54 86 94
54 86 94
54 85 90
53 84 92
50 81 78
52 83 95
53 84 86
49 79 60
57 86 86
71 96 70
62 88 78
86 106 51
83 103 62
79 99 60
91 109 54
86 103 18
83 101 36
86 101 31
91 106 18
102 116 0
99 114 0
101 116 0
104 121 0
109 126 0
90 103 0
95 112 0
104 120 0
102 118 0
103 119 0
103 120 0
97 114 0
94 111 0
106 121 0
110 126 0
113 129 0
115 131 0
115 133 0
122 141 0
107 125 0
117 133 0
104 120 0
110 126 0
113 131 0
126 144 0
122 137 0
117 135 0
119 135 0
115 131 0
129 148 0
122 139 0
135 153 0
124 142 0
124 141 0
128 145 0
120 138 0
126 143 0
132 150 0
118 136 0
127 145 0
130 147 0
116 134 0
131 149 0
131 148 0
139 159 0
128 147 0
129 149 0
123 140 0
133 152 0
132 151 0
121 139 0
129 147 0
128 146 0
135 151 0
131 152 0
130 149 0
146 164 0
140 159 0
133 152 0
129 148 0
136 154 0
142 161 0
134 152 0
144 162 0
138 157 0
146 165 0
139 158 0
141 160 0
135 155 0
139 158 0
144 163 0
135 153 0
140 158 0
144 163 0
143 161 0
141 160 0
142 159 0
137 154 0
144 160 0
155 176 0
141 161 0
144 164 0
147 165 0
148 167 0
142 161 0
145 164 0
150 168 0
142 160 0
145 166 0
148 168 0
158 179 0
155 174 0
148 167 0
150 169 0
152 171 0
148 166 0
149 168 0
145 163 0
149 168 0
152 171 0
150 170 0
149 168 0
152 172 0
158 178 0
156 174 0
151 169 0
149 170 0
152 172 0
147 165 0
151 171 0
150 171 0
152 170 0
154 170 0
149 168 0
153 173 0
160 179 0
153 172 0
158 177 0
157 175 0
161 182 0
155 173 0
152 169 0
158 178 0
154 172 0
156 174 0
155 174 0
151 172 0
157 177 0
148 168 0
153 172 0
162 180 0
151 173 0
160 178 0
164 184 0
162 182 0
156 175 0
157 178 0
165 187 0
159 178 0
155 177 0
163 183 0
157 178 0
160 180 0
159 178 0
161 180 0
161 181 0
155 175 0
156 175 0
161 181 0
161 180 0
160 180 0
167 187 0
159 179 0
160 180 0
157 177 0
162 183 0
158 177 0
161 180 0
165 185 0
160 179 0
162 183 0
161 183 0
156 174 0
160 180 0
158 180 0
165 187 0
154 172 0
162 183 0
159 179 0
163 183 0
162 182 0
161 182 0
162 182 0
164 184 0
164 185 0
164 185 0
164 185 0
166 187 0
168 191 0
164 186 0
164 184 0
165 185 0
165 185 0
165 185 0
169 191 0
161 183 0
166 186 0
169 188 0
165 185 0
165 187 0
160 181 0
164 184 0
169 192 84
170 195 88
173 198 102
171 195 99
168 191 76
172 196 76
170 194 80
174 197 72
170 194 88
172 196 108
173 196 108
169 192 88
169 191 99
172 195 80
174 197 102
168 192 92
175 197 95
170 193 99
175 198 125
170 194 88
167 190 84
175 198 95
175 198 111
170 194 102
176 199 99
167 190 95
172 194 80
172 195 99
170 192 95
164 188 88
164 187 114
166 190 99
168 192 99
168 192 105
164 187 92
170 194 99
162 185 88
169 192 99
171 194 105
166 190 92
167 190 84
169 192 84
165 189 95
163 187 88
166 189 92
164 188 88
166 188 92
166 189 99
164 187 88
162 186 97
164 187 113
165 188 86
168 191 111
161 185 117
168 191 94
166 189 115
162 185 84
168 190 108
159 182 102
158 181 97
163 186 111
160 183 103
162 185 103
164 187 100
163 186 114
163 186 117
160 183 95
164 185 92
156 179 92
160 183 95
148 171 80
160 182 95
165 187 102
168 188 99
164 186 95
159 182 108
158 181 99
159 181 92
152 175 72
152 173 88
161 182 102
161 183 99
154 175 88
150 171 92
152 172 111
150 171 102
139 161 92
152 173 111
157 177 102
147 168 95
147 167 62
160 181 117
144 165 88
147 168 92
148 169 88
141 162 76
144 163 95
147 166 92
137 157 92
140 158 105
135 152 76
131 149 88
139 157 99
124 141 84
127 146 67
132 149 76
119 137 72
118 134 84
121 137 82
120 137 80
126 144 105
113 133 95
99 119 88
96 118 94
97 119 113
105 127 111
97 119 119
92 118 88
96 119 113
94 116 105
95 120 110
89 115 95
86 113 115
104 126 108
118 140 115
102 125 117
107 128 97
99 122 92
107 129 102
99 122 88
115 136 103
101 122 80
115 136 90
115 137 94
109 128 78
103 122 76
118 136 82
111 131 78
110 129 70
114 134 72
95 116 82
113 134 94
101 119 84
83 105 75
89 112 80
84 106 78
86 109 80
87 111 86
91 114 80
74 94 51
83 106 54
83 105 51
78 101 60
67 92 70
67 92 84
67 94 92
62 89 74
61 90 95
52 83 70
53 85 70
58 88 80
52 83 80
52 83 84
54 87 88
53 84 88
53 84 78
55 88 88
56 88 105
50 81 72
55 87 97
53 84 90
54 85 94
53 85 86
55 88 95
55 87 108
54 85 92
55 87 99
51 82 86
54 86 92
51 83 65
54 86 72
51 82 82
53 84 90
53 85 90
54 85 90
55 87 92
54 86 88
55 88 90
55 86 94
55 85 82
50 81 72
56 87 82
52 81 80
58 87 84
66 90 54
61 85 65
69 91 65
80 100 57
74 95 57
63 83 40
71 90 36
89 106 36
78 95 0
73 89 18
96 110 0
97 113 0
94 108 0
97 112 0
105 122 0
87 102 0
96 111 0
98 113 0
99 114 0
112 128 0
98 113 0
103 119 0
104 120 0
101 118 0
110 126 0
114 129 0
121 137 0
110 127 0
105 120 0
104 123 0
109 126 0
117 134 0
102 118 0
124 142 0
112 128 0
118 135 0
126 144 0
121 138 0
122 141 0
129 147 0
126 143 0
118 136 0
125 142 0
124 139 0
119 137 0
135 152 0
131 148 0
133 151 0
129 148 0
120 138 0
118 136 0
119 138 0
127 147 0
135 152 0
115 132 0
117 133 0
132 151 0
127 145 0
137 154 0
137 157 0
133 152 0
136 153 0
133 150 0
138 158 0
129 147 0
135 153 0
145 164 0
142 162 0
133 150 0
138 157 0
131 149 0
138 156 0
136 155 0
140 158 0
143 164 0
136 155 0
140 159 0
148 166 0
142 163 0
140 160 0
141 160 0
136 155 0
137 156 0
141 160 0
150 168 0
149 167 0
141 161 0
139 155 0
131 151 0
143 163 0
145 164 0
151 171 0
147 165 0
139 157 0
151 171 0
143 164 0
148 166 0
152 172 0
144 163 0
143 163 0
149 169 0
147 167 0
151 173 0
144 162 0
151 169 0
144 163 0
153 171 0
156 175 0
150 168 0
148 167 0
157 175 0
154 175 0
155 175 0
155 174 0
147 166 0
141 160 0
151 169 0
150 169 0
150 171 0
154 174 0
145 164 0
153 174 0
156 176 0
154 172 0
151 170 0
156 175 0
156 175 0
155 174 0
155 175 0
160 180 0
148 168 0
155 175 0
159 180 0
149 167 0
155 178 0
156 175 0
157 176 0
157 178 0
152 173 0
158 177 0
155 174 0
158 177 0
156 176 0
158 177 0
154 173 0
156 175 0
154 173 0
160 179 0
153 175 0
160 180 0
160 180 0
161 182 0
155 175 0
165 185 0
162 183 0
161 179 0
162 181 0
165 185 0
160 180 0
155 176 0
160 180 0
156 178 0
157 176 0
159 181 0
164 182 0
162 182 0
159 180 0
158 178 0
161 181 0
162 181 0
162 182 0
161 180 0
161 178 0
165 186 0
163 184 0
165 185 0
158 177 0
162 183 0
163 183 0
164 184 0
165 185 0
162 182 0
166 186 0
158 176 0
163 184 0
164 185 0
159 179 0
160 180 0
162 184 0
165 186 0
165 185 0
166 188 0
164 184 0
164 185 0
160 179 0
165 186 0
164 184 0
164 186 0
168 189 0
164 185 0
162 181 0
163 184 0
163 183 0
169 191 0
163 184 0
163 185 0
170 194 62
173 196 84
173 196 84
175 198 105
171 194 92
175 197 92
171 194 105
173 197 84
172 195 76
170 194 72
176 199 105
173 196 88
171 193 84
171 195 114
170 193 76
172 196 99
170 194 80
172 196 105
171 195 105
173 197 114
168 191 99
173 196 111
172 195 72
169 193 105
168 191 92
171 194 88
167 191 84
173 196 108
168 192 114
172 195 125
165 188 111
165 188 84
171 194 92
170 193 105
168 192 99
167 191 105
163 187 80
165 188 72
161 184 84
166 189 80
168 192 95
172 195 108
165 188 84
163 185 95
160 184 88
163 186 103
165 188 95
168 191 88
164 187 80
163 186 67
163 186 100
165 188 90
166 189 108
167 191 84
162 186 84
168 192 121
169 191 120
165 188 114
157 180 86
161 183 88
166 189 84
160 184 99
164 187 100
168 191 111
163 186 94
169 191 108
161 183 99
164 187 111
156 178 95
156 178 88
160 183 95
157 179 99
157 178 92
161 184 99
149 171 72
157 178 92
156 178 105
155 176 92
158 180 111
156 178 114
156 177 120
151 173 114
156 178 95
152 173 95
150 171 84
146 165 95
142 163 72
159 179 102
156 175 114
151 171 99
150 169 102
152 173 92
154 174 102
147 166 99
144 164 92
132 151 95
140 161 72
132 151 84
135 155 72
152 171 102
130 148 88
142 160 72
141 159 84
134 152 84
136 154 95
133 151 84
130 148 72
137 155 102
134 151 84
114 130 65
105 123 57
118 136 92
108 127 97
99 118 92
90 112 82
92 114 99
95 117 105
92 116 114
102 124 102
90 114 100
95 118 83
94 119 113
99 124 107
92 117 94
88 112 109
104 126 107
105 126 100
116 136 113
108 128 100
112 133 103
127 146 80
121 139 76
124 143 74
114 134 81
123 143 70
113 135 102
120 138 57
127 145 62
105 126 74
112 133 74
107 126 78
99 120 72
115 133 62
97 118 94
98 118 88
90 112 76
93 118 82
101 123 74
71 94 60
86 107 67
77 100 65
89 111 60
85 105 57
84 106 60
76 98 60
72 96 44
70 93 60
74 97 65
74 99 84
59 85 72
52 82 67
54 82 76
57 85 72
51 82 82
49 79 84
51 82 60
56 88 102
51 81 72
53 84 76
52 83 82
53 85 70
54 86 86
54 87 89
53 85 72
56 88 103
51 82 76
54 86 78
52 83 76
54 86 90
52 84 74
52 83 84
55 87 102
54 85 81
57 86 76
52 82 78
54 84 73
55 83 74
51 78 60
54 82 65
60 86 74
63 87 51
59 83 44
59 83 76
67 86 40
87 106 47
79 97 54
76 94 44
79 98 47
91 106 18
72 88 18
89 103 0
91 105 0
91 104 0
97 114 0
101 116 0
88 103 0
88 103 0
106 121 0
102 117 0
99 114 0
93 107 0
86 102 0
109 126 0
104 120 0
111 128 0
106 123 0
98 114 0
104 120 0
120 137 0
111 127 0
114 130 0
97 115 0
98 114 0
105 121 0
102 121 0
115 133 0
101 116 0
114 131 0
118 136 0
114 132 0
114 131 0
110 128 0
130 145 0
125 142 0
117 133 0
121 139 0
116 133 0
127 145 0
126 144 0
125 145 0
120 138 0
131 150 0
130 147 0
120 138 0
130 148 0
132 151 0
120 137 0
130 150 0
134 152 0
138 156 0
130 149 0
136 154 0
138 157 0
124 143 0
137 155 0
132 152 0
135 155 0
128 147 0
132 149 0
131 150 0
140 159 0
124 142 0
136 154 0
132 151 0
134 153 0
126 144 0
139 158 0
139 158 0
150 169 0
147 166 0
145 164 0
144 165 0
150 169 0
146 165 0
132 150 0
147 166 0
138 156 0
137 155 0
140 158 0
144 162 0
143 162 0
143 163 0
151 170 0
135 153 0
147 165 0
148 167 0
150 167 0
158 179 0
150 171 0
154 174 0
146 166 0
144 165 0
143 162 0
146 166 0
153 173 0
153 173 0
148 167 0
144 164 0
157 176 0
148 167 0
150 168 0
157 176 0
146 166 0
141 160 0
145 165 0
155 175 0
152 170 0
149 167 0
156 174 0
148 167 0
150 170 0
154 175 0
146 164 0
146 164 0
152 170 0
149 167 0
148 165 0
153 174 0
160 181 0
158 177 0
149 167 0
153 173 0
153 173 0
156 176 0
159 179 0
154 173 0
156 175 0
154 174 0
156 176 0
152 171 0
152 172 0
159 178 0
153 172 0
158 178 0
159 177 0
157 178 0
156 173 0
158 178 0
157 178 0
156 175 0
153 173 0
158 180 0
155 176 0
157 177 0
159 178 0
156 175 0
163 184 0
157 177 0
160 181 0
160 179 0
160 181 0
165 184 0
158 178 0
159 179 0
160 179 0
162 182 0
165 184 0
159 180 0
162 183 0
161 181 0
158 178 0
158 179 0
158 177 0
165 185 0
162 182 0
161 183 0
161 180 0
159 178 0
159 180 0
163 185 0
164 184 0
158 177 0
157 178 0
162 183 0
164 184 0
164 184 0
160 180 0
166 187 0
162 183 0
159 179 0
166 187 0
164 183 0
163 184 0
166 185 0
163 186 0
161 183 0
165 184 0
163 183 0
164 185 0
165 185 0
161 181 0
166 185 0
163 185 0
163 183 0
162 180 0
168 190 0
163 185 0
162 184 0
166 187 0
168 188 0
177 200 80
173 196 76
170 192 76
171 194 102
173 196 88
167 192 99
170 193 80
167 191 80
173 197 92
175 198 88
171 195 92
172 196 95
172 195 99
164 188 76
170 194 80
166 188 102
167 191 67
176 198 114
166 189 62
167 190 108
171 193 105
172 195 105
170 193 99
173 196 102
170 193 84
170 194 88
165 189 92
171 194 102
166 190 80
167 191 95
169 193 99
165 189 99
167 190 92
167 190 95
171 195 108
165 188 95
167 190 92
162 186 80
162 185 92
169 193 92
169 192 95
168 192 105
164 186 99
168 192 105
169 193 95
164 187 84
168 191 95
166 189 92
165 188 76
167 190 88
162 184 99
166 189 99
160 183 95
161 185 94
160 184 84
157 180 82
166 189 110
163 186 94
162 185 88
158 182 95
160 182 97
161 184 95
156 178 84
162 185 95
167 189 111
163 186 108
159 182 92
163 186 111
157 180 88
157 179 88
160 183 88
151 174 78
168 189 135
154 176 99
164 186 105
155 177 108
156 178 92
156 178 92
155 177 92
150 171 84
152 174 95
146 167 84
155 177 99
153 174 95
150 171 80
151 173 99
154 174 120
150 169 117
160 180 111
149 171 102
150 170 92
157 177 111
149 170 102
159 179 122
152 172 105
140 160 88
138 158 102
137 156 99
151 170 108
136 155 99
131 149 84
142 160 80
130 148 67
133 152 102
125 142 88
124 141 62
131 150 76
124 143 57
126 142 88
128 145 72
106 122 74
113 130 78
110 128 80
111 129 88
108 127 102
93 115 94
95 118 90
94 118 95
88 112 107
93 116 105
95 119 99
93 119 118
99 124 94
100 123 97
104 125 86
96 118 94
100 121 95
112 134 95
117 138 84
108 130 95
119 137 78
117 139 72
114 134 82
128 146 74
121 138 82
109 129 83
105 126 70
114 133 70
119 140 67
120 139 62
120 138 76
106 127 78
107 128 65
94 118 76
103 126 78
103 121 62
102 124 72
85 108 62
103 124 70
91 113 70
89 109 67
82 105 73
93 113 57
90 109 72
85 105 57
83 103 62
90 109 54
82 101 44
79 98 51
79 98 44
75 96 72
81 101 54
70 92 62
65 88 57
54 82 65
50 77 65
59 86 76
50 80 80
58 85 65
66 93 78
65 91 84
56 84 65
56 83 57
58 85 67
58 84 67
51 80 72
64 89 70
56 84 70
53 83 80
60 88 80
63 89 78
60 85 65
63 88 67
64 90 67
65 88 70
62 86 67
60 83 57
64 89 76
73 93 40
68 88 54
62 81 44
80 98 40
78 97 47
67 85 31
88 104 40
83 98 31
87 103 18
89 104 18
79 96 0
92 107 0
100 114 0
93 108 0
93 108 0
86 102 0
81 95 0
94 110 0
101 118 0
102 119 0
105 120 0
100 115 0
115 130 0
95 111 0
113 130 0
104 121 0
105 123 0
112 128 0
106 123 0
105 122 0
102 118 0
113 130 0
113 131 0
107 122 0
102 119 0
118 136 0
116 134 0
103 120 0
112 127 0
122 139 0
124 142 0
113 129 0
116 134 0
125 142 0
106 124 0
136 155 0
124 141 0
119 138 0
116 134 0
110 128 0
134 155 0
124 140 0
123 141 0
127 146 0
136 154 0
130 150 0
129 147 0
131 149 0
137 156 0
128 146 0
134 152 0
135 153 0
119 137 0
132 151 0
120 137 0
140 159 0
135 155 0
133 151 0
132 151 0
132 150 0
134 153 0
142 162 0
140 160 0
137 155 0
139 157 0
137 155 0
125 144 0
140 158 0
135 154 0
130 149 0
132 151 0
139 158 0
139 158 0
137 156 0
138 157 0
149 170 0
141 162 0
138 156 0
140 158 0
150 170 0
140 159 0
145 166 0
143 160 0
144 162 0
147 167 0
148 168 0
150 170 0
150 168 0
144 165 0
152 171 0
148 168 0
136 153 0
149 169 0
146 165 0
149 168 0
148 168 0
143 163 0
146 166 0
149 170 0
149 170 0
153 173 0
146 165 0
148 167 0
160 181 0
152 172 0
151 172 0
150 171 0
148 166 0
150 170 0
157 177 0
139 157 0
152 170 0
156 174 0
153 173 0
148 166 0
149 169 0
151 170 0
150 170 0
156 176 0
153 172 0
156 178 0
152 171 0
153 172 0
160 180 0
148 167 0
152 173 0
156 175 0
156 175 0
158 179 0
159 180 0
156 176 0
161 182 0
156 178 0
159 179 0
161 181 0
156 175 0
154 174 0
155 174 0
159 175 0
159 179 0
155 174 0
156 174 0
158 178 0
154 175 0
158 180 0
160 179 0
162 180 0
161 182 0
151 171 0
162 180 0
163 183 0
161 179 0
164 185 0
162 184 0
158 178 0
164 185 0
157 178 0
162 182 0
159 181 0
160 181 0
164 183 0
157 176 0
164 185 0
164 185 0
162 182 0
166 188 0
164 184 0
163 182 0
165 187 0
167 186 0
163 182 0
163 183 0
163 183 0
157 177 0
163 183 0
162 182 0
160 179 0
166 186 0
160 180 0
164 185 0
163 184 0
159 179 0
161 180 0
164 186 0
162 180 0
169 189 0
167 186 0
160 179 0
164 184 0
166 187 0
164 185 0
165 185 0
165 186 0
166 186 0
164 185 0
164 185 0
165 185 0
162 184 0
163 185 0
164 184 0
165 185 0
166 189 0
171 194 95
174 197 105
172 195 105
172 194 84
168 191 57
178 200 102
175 198 99
171 195 102
172 195 62
168 191 76
169 192 95
175 198 99
173 196 120
170 193 108
169 192 88
170 194 80
172 195 117
171 194 105
174 198 92
169 194 114
166 188 57
170 193 92
173 196 102
177 201 114
169 193 108
170 193 67
173 196 102
168 192 88
172 195 92
168 190 92
168 193 84
169 193 76
172 195 108
168 192 105
166 190 92
166 189 102
157 180 72
169 193 92
169 193 92
172 196 88
167 190 92
165 188 111
171 194 92
165 187 99
162 186 88
165 189 95
161 185 92
164 187 88
160 183 80
167 191 99
167 190 111
167 189 88
169 192 97
156 179 99
165 188 108
165 188 102
165 188 102
164 186 111
159 181 80
165 188 108
162 185 100
163 187 95
170 193 95
162 185 88
161 184 107
160 183 108
161 183 111
164 187 105
165 188 102
160 183 102
158 180 99
164 186 84
158 180 92
162 184 105
156 177 122
163 185 95
157 179 95
155 177 84
156 178 102
155 177 102
148 170 76
156 177 117
143 164 88
154 175 114
153 176 88
146 167 84
156 178 122
147 168 88
153 173 111
158 178 95
159 181 111
161 182 102
154 174 117
141 161 99
148 169 80
142 162 92
139 158 92
149 168 95
134 153 88
141 159 76
150 169 108
140 159 92
143 161 99
132 149 76
130 147 84
126 143 72
111 127 67
125 142 88
134 150 88
114 130 84
122 138 72
122 138 80
116 132 94
98 118 76
105 124 88
101 120 88
91 112 80
104 126 107
87 111 99
94 117 94
79 105 95
102 126 117
98 122 88
84 109 90
95 119 101
105 126 98
106 127 97
116 137 108
120 141 88
114 134 82
111 133 65
122 141 90
121 142 78
117 135 60
114 130 57
122 139 57
122 142 62
116 135 57
126 145 65
114 134 47
111 131 72
113 132 62
107 128 70
95 116 76
107 130 72
98 119 70
93 114 54
108 127 40
92 112 70
100 119 65
104 125 47
99 118 62
95 115 65
107 125 47
82 100 25
96 112 36
89 107 31
99 117 31
79 95 25
87 105 40
90 107 47
71 89 51
85 103 18
83 101 40
74 90 0
65 83 44
74 95 57
70 90 47
74 94 40
75 95 47
73 94 65
56 79 65
57 79 62
62 83 44
63 84 36
64 84 47
54 79 36
72 94 62
70 91 70
74 92 60
65 86 57
78 97 54
70 90 54
80 98 60
82 100 47
83 102 36
80 98 57
75 91 36
91 107 51
88 105 31
89 105 18
82 99 31
75 90 0
88 102 25
91 106 18
95 111 0
103 119 0
102 115 0
90 104 0
87 102 0
91 106 0
102 118 0
110 125 0
82 96 0
102 118 0
106 122 0
111 126 0
101 117 0
100 116 0
105 121 0
107 122 0
99 115 0
109 124 0
112 127 0
93 110 0
101 116 0
105 121 0
116 133 0
115 132 0
111 127 0
106 122 0
111 128 0
114 131 0
113 130 0
108 126 0
116 134 0
119 137 0
105 123 0
114 130 0
123 141 0
109 124 0
120 138 0
116 135 0
129 146 0
119 136 0
115 132 0
119 137 0
132 149 0
121 140 0
124 142 0
122 140 0
128 146 0
118 137 0
125 142 0
121 141 0
128 147 0
116 136 0
122 142 0
131 149 0
139 158 0
119 138 0
134 153 0
131 149 0
139 157 0
130 149 0
140 159 0
135 153 0
135 155 0
136 153 0
130 150 0
139 159 0
143 161 0
139 158 0
130 146 0
139 159 0
146 165 0
142 160 0
138 156 0
139 158 0
144 163 0
141 159 0
134 151 0
144 162 0
146 166 0
146 166 0
149 170 0
143 163 0
147 165 0
148 168 0
145 164 0
146 165 0
148 167 0
151 171 0
145 166 0
139 159 0
140 160 0
148 167 0
157 178 0
146 165 0
146 166 0
147 167 0
147 166 0
154 172 0
149 172 0
150 167 0
147 167 0
153 173 0
149 168 0
154 175 0
154 174 0
147 167 0
153 173 0
152 172 0
149 168 0
149 169 0
149 167 0
155 174 0
150 170 0
148 169 0
154 174 0
152 171 0
149 168 0
156 176 0
154 175 0
151 168 0
154 173 0
153 174 0
156 176 0
149 169 0
156 175 0
158 177 0
155 175 0
150 170 0
152 171 0
151 168 0
152 172 0
151 170 0
154 173 0
154 175 0
157 177 0
158 177 0
162 182 0
160 177 0
158 178 0
156 175 0
156 176 0
159 178 0
160 179 0
157 177 0
155 174 0
161 180 0
164 184 0
160 181 0
162 184 0
153 172 0
152 172 0
154 174 0
157 178 0
160 180 0
161 183 0
163 182 0
159 180 0
155 175 0
159 179 0
162 182 0
158 178 0
162 182 0
159 179 0
163 183 0
156 175 0
161 183 0
160 179 0
163 183 0
164 185 0
156 176 0
163 182 0
159 181 0
160 180 0
159 178 0
163 183 0
167 187 0
161 180 0
162 182 0
162 182 0
165 186 0
163 182 0
159 178 0
155 175 0
161 180 0
161 182 0
161 182 0
162 184 0
163 182 0
157 177 0
164 185 0
166 187 0
167 189 0
168 190 0
164 185 0
161 182 0
162 184 0
166 188 0
164 184 0
165 184 0
166 189 0
165 186 0
164 186 0
163 183 0
172 194 0
169 192 0
175 199 92
173 197 99
173 196 92
170 194 80
175 197 99
169 192 99
174 197 102
171 195 84
171 194 92
172 195 88
173 195 88
169 192 99
176 198 122
172 195 84
168 191 80
168 191 92
170 193 102
178 201 120
175 198 102
169 192 99
171 194 102
167 191 108
170 194 105
175 198 111
171 195 114
170 193 108
170 193 95
166 190 80
167 190 95
167 191 80
170 194 102
170 194 125
167 191 105
169 191 76
169 194 84
169 193 114
174 197 111
169 192 99
167 191 84
163 186 95
167 190 105
167 190 99
167 190 84
171 195 102
166 188 99
170 192 95
162 186 102
162 185 103
162 185 105
160 183 108
160 183 62
171 195 127
167 190 92
162 185 80
165 187 99
162 185 97
165 188 97
159 183 94
158 181 92
164 187 80
162 184 107
167 190 102
157 180 82
153 176 114
158 180 76
162 184 108
159 182 90
172 195 108
166 189 117
155 177 92
161 183 102
153 175 92
154 177 84
164 186 111
156 177 105
155 177 110
152 174 84
158 180 92
161 183 99
163 184 105
157 179 95
154 175 88
158 180 102
155 177 88
151 172 76
146 166 84
149 169 95
153 174 95
144 164 108
147 167 102
159 179 108
145 165 95
150 170 114
142 163 72
143 163 95
148 167 105
144 163 88
139 158 88
137 155 97
143 162 99
143 162 80
143 162 84
145 163 102
122 141 72
133 152 67
134 151 84
142 160 95
136 154 88
135 151 84
129 146 80
123 139 72
121 137 72
114 131 60
122 138 90
121 138 82
105 122 95
88 106 65
102 122 99
94 115 86
87 110 84
92 114 86
90 113 94
100 122 94
89 114 102
93 117 88
101 123 78
108 129 88
108 128 82
121 141 92
110 131 65
118 137 67
118 138 78
123 144 70
131 151 78
135 153 60
123 143 54
123 142 60
120 137 57
123 143 60
121 141 60
112 130 54
109 130 54
110 128 57
107 125 57
106 127 54
94 114 62
93 113 65
110 129 65
91 109 54
97 115 31
100 120 62
94 114 44
81 100 47
102 118 47
100 118 44
94 111 25
89 106 31
83 99 31
88 103 18
88 103 18
89 105 18
85 100 18
82 96 0
76 91 25
79 95 0
93 108 18
89 104 31
79 96 54
79 95 18
78 96 31
78 96 31
70 90 40
69 85 25
77 94 31
77 95 40
92 108 40
80 96 31
71 87 36
81 97 31
93 108 0
77 92 25
87 102 0
83 99 0
91 107 25
89 104 0
82 96 40
81 95 18
84 98 0
84 98 0
86 101 18
73 90 0
101 117 0
95 109 0
90 106 0
94 109 0
99 113 0
92 104 0
96 111 0
105 120 0
94 109 0
96 112 0
100 115 0
113 130 0
107 123 0
104 120 0
106 122 0
104 120 0
101 117 0
90 106 0
110 125 0
103 120 0
107 122 0
112 130 0
104 122 0
117 134 0
115 132 0
101 117 0
109 127 0
102 120 0
109 127 0
117 134 0
113 129 0
116 135 0
113 130 0
111 130 0
117 134 0
127 143 0
117 134 0
124 141 0
128 146 0
116 133 0
121 139 0
127 146 0
125 144 0
125 141 0
124 142 0
131 151 0
135 153 0
125 143 0
120 139 0
128 148 0
140 157 0
130 149 0
124 142 0
135 154 0
139 158 0
126 145 0
135 153 0
137 155 0
126 146 0
127 145 0
131 150 0
136 157 0
136 157 0
134 152 0
128 144 0
134 154 0
140 159 0
139 158 0
138 156 0
133 152 0
136 155 0
135 155 0
131 151 0
145 166 0
135 155 0
133 153 0
145 165 0
140 161 0
145 164 0
145 162 0
144 165 0
143 161 0
144 162 0
145 164 0
146 166 0
137 156 0
139 159 0
140 159 0
142 161 0
138 157 0
154 174 0
149 168 0
141 159 0
144 164 0
148 167 0
144 163 0
148 167 0
150 170 0
151 171 0
150 169 0
144 162 0
146 166 0
155 174 0
148 168 0
146 167 0
142 161 0
150 170 0
148 166 0
147 167 0
151 170 0
154 175 0
149 169 0
154 176 0
156 178 0
142 162 0
158 178 0
155 173 0
145 165 0
151 171 0
158 179 0
159 180 0
149 170 0
149 169 0
154 174 0
155 176 0
158 178 0
153 173 0
159 178 0
156 175 0
154 172 0
148 167 0
153 173 0
156 176 0
154 175 0
155 174 0
153 175 0
157 177 0
154 175 0
159 180 0
157 177 0
154 174 0
158 179 0
156 175 0
160 180 0
158 178 0
156 176 0
157 176 0
154 173 0
156 177 0
158 179 0
159 178 0
155 174 0
153 173 0
158 177 0
159 179 0
156 176 0
153 174 0
165 185 0
160 179 0
160 182 0
161 183 0
157 175 0
157 175 0
157 176 0
158 177 0
160 181 0
159 178 0
164 185 0
158 178 0
161 182 0
165 187 0
163 183 0
161 181 0
162 182 0
161 181 0
165 186 0
161 180 0
167 189 0
162 184 0
157 177 0
163 183 0
159 181 0
158 179 0
157 177 0
163 184 0
161 182 0
165 185 0
162 183 0
164 184 0
158 179 0
163 183 0
168 188 0
168 189 0
163 183 0
165 183 0
164 186 0
167 187 0
159 179 0
166 187 0
167 185 0
165 186 0
163 184 0
167 188 0
166 187 0
165 186 0
165 186 0
164 186 0
168 190 0
164 183 0
169 193 95
171 194 80
171 195 72
172 195 102
171 194 92
170 193 72
172 194 108
167 191 80
173 196 76
172 195 99
173 197 108
172 196 95
174 196 108
176 200 120
170 194 105
170 193 95
177 200 111
175 198 105
172 195 102
170 193 99
174 197 102
165 187 88
170 193 95
169 193 84
177 199 125
168 192 92
173 198 108
169 193 92
172 196 95
173 196 84
165 189 88
166 189 76
168 191 111
166 189 92
170 194 99
166 189 108
159 182 80
169 193 122
170 193 80
158 181 84
159 183 67
166 190 102
167 191 102
166 188 88
162 184 80
169 193 72
164 187 105
163 186 84
157 180 88
163 186 110
162 185 86
160 183 95
157 180 95
163 185 88
165 189 108
168 191 108
164 187 94
165 188 105
160 183 99
169 193 108
159 182 88
158 181 100
160 182 80
165 188 114
162 185 102
162 185 88
162 185 105
159 181 76
159 182 92
158 180 92
153 176 76
160 182 95
159 182 90
159 181 105
164 186 100
157 179 95
155 177 80
159 181 99
164 186 88
149 170 99
157 179 102
161 183 117
151 172 76
157 178 105
156 178 88
154 175 105
154 174 105
160 180 95
156 176 102
156 177 99
162 183 114
137 158 76
154 175 102
147 167 111
137 158 80
153 171 125
159 179 114
142 162 102
146 165 92
142 161 84
147 166 92
145 164 102
138 156 84
132 151 80
142 160 95
121 138 80
130 148 72
129 146 76
127 144 80
122 137 76
119 136 80
105 121 57
126 142 95
108 124 62
110 127 70
118 133 82
120 135 86
113 132 92
96 117 72
89 109 86
101 122 74
99 121 103
90 114 86
110 131 105
100 123 97
104 126 97
112 134 78
109 130 95
104 125 78
124 144 76
121 141 78
129 149 80
123 143 60
133 152 54
132 149 62
124 142 67
130 148 65
135 153 40
117 134 47
106 126 65
119 139 57
119 139 60
111 131 54
112 130 47
113 133 70
97 117 54
106 125 36
105 124 51
96 114 36
101 120 40
94 114 51
98 117 18
94 112 36
94 111 36
97 113 31
97 115 36
98 114 25
95 111 18
98 113 0
84 100 0
90 108 0
104 118 0
83 97 0
90 105 0
97 111 0
77 92 0
84 99 0
70 85 18
104 119 0
109 124 0
79 92 18
85 98 0
83 99 25
85 100 18
83 98 18
79 94 0
76 92 25
82 96 18
100 115 18
84 97 18
86 100 0
77 91 0
94 107 18
80 94 0
85 100 0
98 113 0
90 106 0
91 104 0
101 116 0
85 99 0
89 106 0
83 97 0
89 104 0
97 113 0
94 109 0
98 113 0
91 105 0
85 100 0
96 112 0
93 109 0
100 115 0
107 123 0
87 102 0
102 119 0
97 113 0
109 126 0
112 129 0
104 120 0
103 121 0
116 133 0
98 115 0
110 128 0
103 119 0
117 134 0
94 111 0
106 123 0
113 129 0
114 129 0
116 133 0
112 128 0
115 133 0
106 123 0
119 136 0
117 135 0
119 137 0
116 133 0
110 126 0
126 144 0
119 136 0
120 137 0
128 147 0
122 140 0
132 150 0
126 144 0
128 145 0
127 145 0
129 148 0
131 151 0
131 150 0
129 148 0
125 144 0
124 143 0
130 148 0
133 150 0
130 148 0
147 164 0
137 156 0
139 159 0
139 157 0
131 149 0
128 148 0
134 153 0
119 138 0
133 152 0
125 146 0
138 158 0
135 153 0
137 157 0
132 153 0
138 156 0
144 164 0
137 159 0
133 152 0
143 162 0
140 159 0
138 156 0
142 162 0
146 166 0
147 167 0
144 164 0
141 161 0
151 172 0
142 163 0
140 159 0
146 168 0
145 166 0
150 169 0
140 159 0
143 163 0
132 151 0
141 161 0
149 168 0
148 168 0
142 162 0
154 173 0
145 163 0
157 178 0
155 176 0
147 168 0
149 169 0
149 169 0
157 179 0
144 165 0
149 169 0
150 171 0
151 169 0
145 164 0
150 170 0
150 171 0
150 169 0
152 173 0
147 167 0
153 173 0
146 165 0
156 176 0
153 174 0
152 171 0
154 174 0
150 172 0
153 172 0
147 168 0
159 179 0
150 171 0
151 172 0
155 174 0
151 170 0
155 175 0
148 168 0
152 173 0
148 168 0
153 174 0
155 174 0
156 175 0
157 178 0
160 179 0
154 174 0
157 176 0
153 173 0
160 180 0
158 178 0
158 178 0
156 176 0
154 172 0
157 176 0
153 174 0
155 174 0
159 179 0
158 178 0
156 177 0
157 177 0
161 182 0
161 181 0
159 179 0
160 180 0
165 186 0
163 183 0
154 174 0
158 180 0
162 181 0
156 175 0
159 180 0
160 180 0
159 179 0
160 180 0
161 181 0
159 179 0
157 176 0
164 185 0
160 179 0
165 184 0
163 184 0
161 180 0
158 177 0
162 180 0
160 180 0
158 177 0
167 187 0
164 184 0
163 184 0
166 185 0
159 179 0
165 185 0
166 185 0
163 184 0
159 179 0
160 182 0
161 181 0
162 183 0
164 185 0
163 183 0
162 182 0
163 183 0
165 187 0
166 187 0
163 184 0
165 186 0
166 186 0
164 186 0
163 184 0
166 187 0
163 183 0
164 183 0
164 184 0
167 186 0
163 183 0
167 189 0
168 190 0
166 188 0
168 190 0
167 190 0
172 195 80
168 192 62
168 191 84
166 189 67
179 201 111
174 197 102
175 198 88
172 195 92
177 200 111
166 190 84
173 196 92
165 188 80
174 197 105
175 199 102
176 198 105
175 198 95
173 197 80
168 192 67
169 193 92
176 200 114
168 192 72
172 196 111
172 196 111
169 194 108
166 189 88
168 192 92
173 196 120
168 192 88
167 190 92
167 191 95
171 195 105
168 192 105
167 190 108
166 189 108
167 191 84
168 191 99
170 194 108
165 188 88
170 194 120
166 190 88
163 186 95
166 189 80
168 191 95
172 195 99
166 189 80
162 185 120
161 185 80
168 192 84
163 186 82
169 193 105
164 188 88
168 191 76
161 184 111
166 189 95
162 185 94
162 186 88
161 184 84
160 184 95
160 183 76
158 181 102
163 187 90
158 181 99
160 183 103
165 187 102
157 179 76
158 181 78
154 177 88
162 185 92
159 182 88
155 177 95
164 187 117
162 185 92
153 175 76
157 180 111
158 181 105
154 175 99
162 183 108
156 178 105
158 180 108
152 173 102
161 183 99
152 174 80
157 177 92
156 178 114
157 177 105
157 178 95
157 177 99
146 167 76
157 178 95
148 169 88
146 166 92
139 159 76
145 165 99
145 165 95
146 165 80
148 168 108
153 172 103
148 168 102
135 154 84
142 162 95
131 150 57
142 160 92
148 167 95
136 154 72
138 156 76
146 165 80
140 158 102
135 153 99
132 149 92
137 154 84
125 142 62
127 143 76
116 131 62
108 124 51
116 130 57
121 138 78
109 126 57
107 122 67
98 116 76
110 130 90
90 110 74
115 134 102
100 121 95
89 112 82
103 124 79
114 136 88
111 133 92
108 129 80
108 128 80
116 135 54
114 133 65
120 139 67
134 154 57
137 156 57
126 147 51
121 139 47
133 152 31
129 146 54
122 141 51
126 144 31
125 143 31
110 128 51
124 141 51
118 137 40
125 143 25
104 122 36
109 127 25
111 129 44
108 128 25
99 118 31
108 126 18
97 115 25
105 123 25
100 116 18
103 118 0
100 116 18
96 112 0
96 112 18
100 116 0
109 125 0
95 112 0
97 110 0
86 101 0
98 112 0
100 115 0
85 99 0
98 114 0
90 106 0
84 98 0
81 95 0
98 113 0
104 120 0
96 110 0
89 104 0
91 105 0
95 111 0
97 111 0
84 97 0
99 114 0
81 95 0
83 98 0
92 106 0
103 118 0
82 97 0
76 91 0
95 110 0
97 111 0
104 119 0
96 111 0
105 121 0
96 110 0
93 107 0
100 116 0
97 111 0
108 124 0
90 107 0
106 123 0
100 116 0
100 116 0
100 116 0
101 116 0
97 113 0
94 110 0
111 127 0
113 130 0
101 119 0
112 128 0
110 126 0
110 127 0
98 115 0
115 131 0
98 116 0
127 144 0
118 135 0
109 125 0
107 122 0
110 128 0
121 139 0
120 138 0
122 140 0
114 132 0
107 125 0
118 135 0
118 136 0
116 135 0
113 130 0
114 132 0
114 131 0
113 130 0
123 142 0
120 138 0
128 145 0
125 144 0
121 140 0
123 143 0
124 142 0
124 142 0
115 135 0
125 142 0
114 131 0
131 148 0
120 138 0
121 140 0
123 141 0
123 140 0
132 151 0
128 146 0
137 155 0
128 147 0
131 152 0
136 154 0
136 155 0
128 146 0
134 153 0
139 160 0
139 159 0
130 149 0
135 155 0
128 147 0
137 156 0
147 167 0
145 164 0
138 156 0
131 150 0
129 149 0
137 156 0
142 162 0
142 163 0
142 161 0
144 163 0
138 158 0
139 158 0
145 164 0
139 159 0
145 165 0
144 162 0
146 166 0
143 164 0
148 168 0
146 165 0
149 169 0
145 165 0
152 173 0
135 155 0
147 166 0
151 173 0
147 167 0
151 170 0
151 170 0
147 168 0
152 172 0
151 171 0
155 176 0
150 169 0
145 164 0
147 167 0
156 175 0
154 174 0
156 176 0
147 166 0
146 166 0
151 172 0
145 164 0
151 171 0
154 175 0
149 168 0
155 175 0
150 171 0
155 175 0
151 173 0
149 167 0
150 169 0
155 174 0
153 173 0
156 177 0
156 175 0
153 174 0
156 174 0
155 177 0
155 175 0
148 169 0
153 173 0
158 177 0
149 167 0
156 174 0
160 180 0
159 179 0
164 183 0
159 180 0
156 178 0
155 174 0
161 182 0
160 179 0
163 182 0
160 182 0
156 178 0
162 181 0
162 184 0
157 177 0
156 177 0
161 182 0
157 178 0
159 179 0
154 175 0
161 181 0
156 176 0
162 181 0
162 182 0
163 182 0
159 179 0
165 186 0
156 177 0
163 183 0
159 180 0
160 181 0
158 178 0
158 177 0
158 178 0
163 185 0
164 184 0
162 182 0
159 179 0
163 184 0
155 176 0
162 183 0
161 181 0
165 185 0
161 181 0
161 182 0
163 183 0
165 186 0
164 184 0
166 187 0
163 184 0
160 181 0
165 186 0
166 187 0
163 184 0
160 180 0
165 186 0
167 188 0
167 190 0
164 185 0
168 190 0
167 189 0
167 187 0
169 191 0
164 186 0
165 185 0
170 190 0
164 183 0
169 190 0
164 186 0
164 185 0
161 182 0
165 185 0
168 190 0
166 189 0
168 189 0
166 189 0
176 199 95
170 194 62
166 189 72
176 198 84
174 197 95
174 197 125
173 197 111
173 196 102
176 198 105
173 196 105
168 191 76
171 194 92
174 197 95
173 197 99
174 197 84
169 192 88
171 195 111
176 199 105
173 197 105
169 193 95
173 197 117
176 199 122
169 192 67
171 195 95
171 195 99
173 197 92
171 194 105
167 190 95
170 193 99
173 196 95
172 195 95
170 193 92
164 188 88
169 193 99
170 193 99
163 187 67
161 185 76
166 189 92
166 190 72
166 191 84
168 192 99
162 185 102
165 188 95
166 188 92
166 189 72
162 183 92
162 185 99
166 188 90
167 191 92
172 195 95
161 184 100
172 195 114
161 185 102
165 188 92
160 183 92
166 189 95
162 185 111
168 190 88
161 184 94
159 182 95
159 181 92
164 187 102
158 181 84
156 178 105
160 182 95
160 184 84
161 184 102
160 182 67
166 188 92
159 182 117
164 187 105
166 188 111
157 179 92
159 181 105
165 188 102
158 180 122
155 177 102
152 173 99
162 184 88
147 169 88
154 176 92
157 178 102
150 171 76
154 175 105
147 169 84
142 164 84
152 172 95
157 178 92
151 172 95
151 171 95
158 177 125
143 163 95
146 166 105
146 165 102
145 166 67
159 180 114
136 155 76
151 172 108
139 159 84
152 171 99
145 163 95
140 159 72
136 154 84
130 148 76
130 148 88
128 147 80
151 169 95
134 150 88
128 145 80
131 149 67
125 141 67
126 143 80
119 136 67
138 154 92
116 132 62
111 128 57
123 139 80
107 123 60
110 124 78
120 137 84
103 123 57
107 126 78
103 122 80
100 120 90
95 115 72
106 127 84
102 122 74
108 127 78
119 137 70
110 129 65
127 146 54
122 141 51
123 141 44
129 146 62
130 147 40
136 153 51
140 156 54
125 144 31
124 143 31
138 155 0
133 149 44
119 138 0
117 136 40
122 140 36
111 130 25
117 135 25
120 139 25
115 133 31
97 114 25
108 125 0
116 133 0
109 124 0
96 113 0
113 130 0
110 127 0
89 106 0
100 116 0
97 113 0
97 113 0
102 118 0
94 109 0
101 116 0
81 95 0
97 111 0
94 109 0
81 95 0
101 117 0
105 121 0
87 102 0
85 99 0
85 100 0
94 110 0
91 104 0
98 114 0
87 103 0
84 99 0
101 116 0
87 102 0
95 109 0
89 105 0
103 117 0
95 110 0
97 111 0
88 104 0
94 110 0
90 104 0
93 108 0
92 109 0
100 114 0
95 110 0
97 112 0
83 98 0
89 103 0
105 120 0
104 119 0
99 113 0
98 115 0
103 119 0
105 121 0
109 125 0
91 107 0
88 103 0
107 125 0
113 130 0
125 142 0
116 132 0
104 122 0
116 133 0
107 124 0
101 118 0
102 118 0
113 131 0
110 127 0
117 133 0
103 120 0
107 126 0
121 139 0
124 141 0
115 134 0
115 134 0
106 123 0
118 137 0
109 126 0
104 121 0
117 134 0
119 135 0
118 137 0
123 142 0
117 135 0
124 142 0
130 146 0
119 136 0
120 138 0
122 140 0
124 142 0
126 142 0
137 155 0
133 153 0
132 150 0
132 151 0
133 152 0
135 153 0
131 150 0
118 136 0
132 151 0
126 146 0
141 161 0
135 153 0
130 150 0
135 154 0
140 159 0
138 158 0
127 146 0
135 155 0
143 163 0
141 161 0
141 161 0
141 160 0
138 158 0
130 149 0
134 154 0
136 156 0
145 164 0
141 161 0
142 159 0
136 155 0
148 168 0
139 158 0
142 162 0
136 154 0
142 162 0
142 162 0
145 165 0
140 158 0
138 159 0
141 161 0
139 159 0
141 162 0
144 164 0
145 165 0
146 165 0
147 167 0
149 169 0
146 166 0
142 162 0
153 175 0
144 164 0
144 165 0
143 162 0
149 169 0
147 165 0
149 169 0
149 170 0
143 162 0
149 169 0
155 174 0
145 163 0
153 173 0
149 169 0
157 177 0
149 168 0
153 172 0
156 176 0
141 161 0
155 176 0
152 171 0
146 165 0
156 175 0
152 171 0
155 175 0
157 180 0
157 177 0
153 175 0
147 167 0
151 171 0
159 180 0
159 180 0
151 172 0
155 175 0
158 177 0
161 181 0
156 178 0
152 172 0
153 173 0
163 182 0
158 180 0
159 180 0
161 180 0
155 175 0
156 175 0
154 176 0
154 175 0
157 178 0
157 177 0
155 174 0
159 179 0
160 181 0
159 179 0
164 185 0
158 178 0
162 182 0
160 180 0
158 180 0
158 178 0
157 178 0
162 182 0
156 176 0
162 183 0
158 178 0
159 180 0
156 176 0
153 173 0
161 182 0
161 181 0
161 182 0
165 183 0
161 181 0
166 187 0
164 185 0
156 177 0
160 180 0
158 178 0
160 182 0
166 186 0
163 185 0
156 176 0
160 181 0
163 185 0
158 179 0
162 182 0
166 188 0
163 186 0
166 187 0
161 181 0
165 187 0
162 182 0
162 184 0
159 180 0
164 185 0
163 184 0
161 181 0
166 187 0
161 183 0
161 183 0
165 187 0
162 181 0
166 186 0
167 187 0
161 181 0
162 182 0
161 182 0
163 183 0
164 184 0
166 187 0
163 184 0
163 183 0
167 189 0
168 190 0
163 183 0
165 186 0
170 193 80
166 189 92
176 200 92
173 197 72
171 194 80
173 196 92
173 196 102
173 196 102
170 194 95
174 198 108
170 192 111
164 187 67
175 198 120
174 196 102
173 197 84
173 197 108
169 193 95
168 191 84
170 194 102
172 195 108
167 191 92
171 194 99
171 195 108
170 193 92
167 191 84
165 188 99
169 192 108
170 194 88
172 195 72
175 197 84
162 186 102
173 196 122
171 195 114
168 192 102
168 190 114
165 188 80
166 190 80
174 197 102
158 182 76
168 191 92
170 192 95
169 192 99
158 182 84
166 190 95
167 191 95
167 191 92
160 182 74
170 194 108
169 192 88
162 186 102
169 192 102
165 188 105
161 184 76
166 190 76
153 176 80
155 179 89
165 188 97
167 190 97
162 185 78
165 188 102
160 184 94
160 184 99
155 178 92
159 182 99
162 185 99
166 189 105
158 181 86
160 183 94
165 187 88
161 184 97
153 175 80
159 182 88
155 177 80
164 186 120
160 183 102
158 180 99
158 179 88
155 177 94
149 171 67
163 185 120
157 178 99
154 175 88
160 181 92
151 173 88
144 165 88
147 168 80
148 168 92
157 178 99
148 170 76
151 172 95
158 179 114
161 182 114
155 175 105
151 170 120
150 170 102
152 172 102
144 165 80
137 156 88
147 166 95
139 158 102
147 167 67
130 149 72
140 158 76
136 154 88
140 157 67
135 155 80
144 163 92
132 150 99
132 150 92
130 147 72
126 144 84
134 151 80
133 151 72
131 148 84
129 145 67
111 128 51
109 123 70
117 132 78
111 126 74
99 116 40
122 138 82
99 117 67
108 124 86
94 111 62
115 133 84
112 130 84
112 130 78
122 141 80
107 125 60
125 142 54
124 143 36
114 133 60
128 146 67
129 147 18
137 155 44
134 152 25
134 151 44
137 154 36
136 153 18
123 140 18
134 151 40
123 139 36
124 142 25
125 143 18
120 137 0
119 136 0
126 143 0
116 134 0
116 133 0
114 131 0
109 125 0
109 126 0
105 122 0
112 129 0
109 126 0
110 127 0
112 129 0
112 128 0
104 119 0
107 123 0
101 117 0
110 127 0
99 115 0
94 110 0
87 103 0
94 110 0
101 115 0
93 108 0
97 112 0
101 117 0
97 112 0
89 104 0
89 105 0
94 110 0
92 106 0
85 101 0
89 105 0
94 109 0
91 106 0
109 126 0
102 118 0
90 106 0
103 118 0
97 112 0
92 108 0
98 114 0
93 109 0
91 107 0
88 105 0
111 128 0
100 115 0
102 117 0
99 115 0
103 120 0
104 120 0
92 110 0
109 126 0
96 113 0
104 120 0
103 120 0
119 135 0
105 122 0
101 117 0
110 127 0
97 114 0
106 122 0
115 132 0
119 137 0
104 120 0
104 119 0
103 119 0
120 137 0
112 130 0
106 125 0
106 124 0
106 124 0
119 137 0
125 143 0
111 129 0
107 124 0
120 137 0
114 131 0
120 139 0
116 136 0
128 147 0
119 136 0
127 146 0
115 134 0
120 138 0
119 138 0
113 130 0
123 142 0
124 143 0
124 142 0
127 145 0
117 136 0
134 153 0
128 147 0
130 149 0
138 158 0
121 141 0
141 159 0
132 150 0
130 148 0
131 151 0
139 159 0
129 148 0
125 143 0
117 136 0
135 155 0
138 157 0
129 147 0
136 154 0
129 147 0
128 148 0
132 153 0
136 153 0
144 164 0
140 160 0
140 159 0
131 149 0
145 165 0
140 158 0
130 149 0
138 158 0
132 152 0
141 161 0
144 165 0
148 169 0
137 157 0
146 165 0
144 163 0
152 173 0
134 155 0
152 172 0
143 163 0
150 170 0
152 172 0
141 161 0
150 172 0
153 172 0
154 175 0
147 168 0
150 172 0
150 170 0
145 166 0
146 166 0
150 171 0
150 170 0
146 166 0
144 165 0
151 170 0
147 167 0
148 168 0
145 165 0
147 167 0
148 168 0
153 172 0
147 168 0
147 165 0
148 167 0
150 171 0
151 170 0
149 169 0
151 169 0
147 167 0
154 174 0
153 173 0
151 172 0
148 167 0
163 184 0
152 174 0
156 175 0
151 171 0
158 178 0
160 179 0
144 162 0
155 172 0
154 174 0
158 179 0
151 171 0
156 177 0
161 182 0
156 177 0
165 185 0
159 178 0
162 183 0
158 179 0
155 176 0
159 180 0
158 178 0
156 177 0
155 175 0
158 179 0
159 179 0
158 179 0
152 172 0
158 178 0
156 178 0
159 181 0
159 180 0
157 177 0
159 179 0
160 180 0
165 188 0
157 177 0
160 180 0
158 177 0
166 187 0
157 178 0
169 190 0
154 175 0
154 174 0
157 176 0
156 176 0
166 187 0
160 180 0
163 184 0
163 182 0
159 179 0
162 182 0
160 179 0
156 174 0
158 178 0
156 175 0
163 185 0
165 187 0
165 186 0
161 181 0
160 181 0
159 179 0
166 187 0
164 183 0
164 185 0
164 184 0
166 188 0
164 184 0
166 187 0
165 183 0
166 186 0
162 182 0
164 186 0
165 186 0
164 184 0
164 185 0
166 187 0
167 186 0
165 187 0
166 185 0
168 189 0
164 184 0
168 188 0
164 186 0
168 189 0
166 187 0
160 182 0
164 185 0
168 189 0
167 188 0
162 183 0
178 201 111
175 198 114
175 198 88
174 197 84
175 198 108
175 198 108
170 194 108
170 193 92
174 198 122
175 197 108
173 195 92
169 192 88
167 190 92
166 190 99
168 191 99
168 191 88
172 195 99
173 195 99
170 194 92
173 196 95
170 193 108
169 192 88
169 192 92
175 199 108
174 198 108
166 189 105
171 194 88
172 195 108
166 190 95
172 196 105
167 190 92
170 194 84
171 194 95
167 190 67
171 193 114
170 193 76
169 192 99
168 192 105
167 192 102
166 189 92
164 187 95
166 189 111
161 184 88
170 193 102
169 192 105
168 191 76
161 185 84
169 193 102
160 184 92
164 187 92
167 190 108
161 184 99
166 190 86
165 188 80
165 189 102
158 180 92
167 190 114
161 183 92
167 190 111
167 189 107
162 184 92
159 181 72
165 188 122
156 178 76
156 179 92
158 181 88
159 182 102
159 182 114
158 181 105
161 183 84
163 184 107
160 182 95
161 183 88
164 186 105
151 173 76
152 173 92
154 176 102
161 184 88
161 184 108
159 182 84
167 189 114
153 175 80
154 176 84
146 168 88
145 166 108
152 173 111
157 179 99
153 175 92
162 183 120
157 178 111
157 179 99
155 176 99
147 167 99
146 165 92
144 163 84
143 162 92
155 174 108
140 159 102
142 161 88
136 156 76
140 158 102
145 164 84
139 158 80
132 151 84
144 162 102
139 158 84
140 159 84
151 168 111
136 154 80
130 147 88
134 151 92
131 149 84
125 143 51
111 127 57
113 129 44
130 147 88
121 135 67
113 129 44
122 138 74
114 129 62
113 129 72
115 131 65
108 124 84
110 126 60
107 125 82
107 125 57
120 137 62
107 124 47
123 142 54
134 152 54
117 135 36
132 150 47
143 160 40
132 151 31
137 155 31
135 153 25
138 156 25
131 148 36
122 140 25
126 144 0
126 143 18
119 134 0
132 148 0
132 149 0
121 138 0
121 139 0
109 123 0
120 138 0
114 132 0
109 126 0
115 133 0
109 125 0
99 115 0
99 118 0
100 117 0
111 128 0
106 122 0
108 125 0
100 116 0
104 120 0
90 106 0
85 102 0
93 108 0
111 125 0
98 114 0
85 100 0
90 104 0
90 106 0
96 110 0
97 113 0
99 115 0
113 129 0
98 113 0
90 105 0
103 119 0
87 102 0
101 117 0
99 115 0
94 110 0
94 109 0
94 109 0
103 119 0
93 109 0
101 117 0
88 103 0
102 118 0
99 116 0
105 122 0
98 113 0
98 114 0
98 114 0
106 122 0
92 108 0
104 120 0
103 120 0
99 116 0
106 123 0
112 129 0
92 108 0
109 126 0
117 135 0
111 129 0
105 122 0
106 123 0
105 122 0
121 138 0
91 109 0
111 128 0
108 126 0
113 129 0
119 136 0
113 132 0
114 132 0
108 126 0
111 129 0
118 135 0
112 129 0
130 148 0
124 142 0
130 147 0
122 141 0
121 138 0
117 134 0
109 127 0
113 132 0
111 129 0
117 135 0
125 142 0
126 145 0
125 144 0
129 147 0
118 137 0
130 148 0
122 139 0
131 151 0
128 147 0
124 143 0
127 145 0
132 151 0
133 153 0
133 152 0
126 147 0
132 151 0
134 153 0
136 156 0
132 151 0
128 148 0
134 154 0
127 146 0
138 158 0
138 160 0
136 157 0
135 155 0
144 164 0
140 161 0
143 163 0
139 160 0
143 164 0
142 163 0
142 161 0
145 165 0
144 163 0
136 154 0
144 163 0
140 159 0
143 162 0
145 163 0
142 162 0
147 168 0
137 158 0
147 167 0
141 161 0
149 170 0
142 162 0
142 160 0
144 164 0
151 169 0
140 160 0
145 164 0
150 171 0
139 158 0
152 171 0
145 164 0
151 172 0
153 173 0
153 172 0
144 164 0
149 169 0
153 173 0
151 171 0
153 174 0
151 171 0
150 172 0
148 169 0
151 171 0
145 165 0
158 179 0
148 169 0
150 170 0
155 175 0
149 169 0
154 174 0
155 175 0
151 171 0
152 173 0
157 178 0
152 173 0
157 177 0
153 174 0
154 175 0
151 172 0
158 178 0
150 170 0
150 171 0
148 168 0
155 176 0
151 170 0
155 176 0
158 178 0
158 177 0
157 179 0
147 167 0
159 181 0
163 184 0
158 179 0
161 180 0
155 174 0
157 178 0
158 177 0
161 181 0
161 182 0
158 178 0
161 182 0
152 172 0
160 181 0
156 179 0
164 186 0
157 176 0
163 182 0
159 178 0
158 178 0
159 180 0
154 175 0
159 180 0
160 179 0
156 177 0
164 183 0
157 180 0
158 179 0
164 184 0
160 178 0
162 183 0
163 185 0
163 184 0
163 184 0
161 182 0
156 178 0
153 172 0
162 184 0
163 183 0
162 184 0
165 186 0
162 184 0
160 179 0
163 184 0
160 181 0
167 188 0
163 185 0
163 184 0
163 186 0
163 186 0
162 182 0
164 184 0
162 183 0
168 189 0
160 181 0
162 183 0
159 181 0
158 176 0
163 184 0
163 185 0
165 187 0
161 181 0
162 183 0
164 184 0
165 185 0
163 185 0
163 185 0
165 187 0
168 190 0
158 179 0
166 188 0
164 187 0
169 191 0
168 190 0
168 189 0
170 192 0
162 182 0
169 190 0
169 191 0
174 198 80
172 195 67
174 197 120
175 197 99
174 197 95
170 193 95
171 194 95
170 194 80
170 193 76
173 196 88
177 201 125
174 197 114
170 193 108
168 191 99
172 196 108
164 188 95
172 195 105
170 194 92
172 196 102
170 193 108
163 187 95
167 190 92
172 196 92
171 193 99
170 193 72
169 192 95
166 189 95
169 193 111
171 194 108
166 190 95
171 194 114
170 193 102
169 191 92
170 193 92
175 198 108
168 192 102
167 191 76
168 192 99
172 196 117
170 194 105
161 185 92
167 191 108
163 187 92
166 189 105
164 188 108
166 189 84
166 190 84
164 188 92
162 185 84
164 187 76
167 191 102
164 187 102
162 186 76
159 182 105
165 189 102
163 187 102
164 187 105
161 184 80
162 185 95
162 186 108
168 192 105
166 189 111
159 181 117
165 187 108
165 189 99
162 186 94
161 184 102
155 177 95
158 181 107
162 185 103
163 185 114
157 179 84
153 175 102
158 181 88
158 180 80
155 177 95
153 175 84
154 176 80
157 179 99
151 173 99
154 176 92
158 180 99
160 182 114
159 181 95
163 184 111
153 174 99
167 188 108
155 177 108
151 172 92
148 168 92
156 177 99
157 176 99
152 173 111
139 159 76
158 177 108
148 168 95
153 173 88
155 175 120
145 164 92
150 169 114
144 164 76
142 160 102
144 164 84
150 169 105
130 148 67
144 162 95
144 162 102
135 152 88
137 154 84
121 139 57
125 143 72
129 147 80
139 157 102
126 143 88
119 135 76
114 130 36
122 138 72
127 144 72
114 130 72
116 131 62
118 134 67
111 126 65
117 134 54
115 131 57
114 130 51
101 117 57
124 141 57
122 140 47
118 136 57
124 142 31
141 158 36
139 155 44
132 149 25
139 157 25
141 158 25
145 165 25
143 161 36
137 156 0
136 153 0
130 149 0
129 148 0
127 144 0
130 147 0
126 143 0
110 127 0
120 138 0
111 128 0
114 133 0
122 140 0
114 131 0
116 134 0
110 126 0
119 137 0
116 134 0
105 123 0
108 125 0
107 123 0
104 121 0
112 130 0
102 120 0
105 122 0
113 130 0
107 123 0
93 109 0
103 118 0
96 111 0
102 118 0
105 120 0
104 122 0
106 121 0
105 121 0
94 111 0
94 110 0
105 121 0
102 119 0
103 119 0
101 117 0
107 123 0
106 121 0
102 117 0
95 111 0
107 123 0
114 132 0
89 105 0
105 121 0
96 114 0
100 116 0
103 119 0
108 125 0
101 117 0
99 114 0
89 105 0
96 113 0
94 110 0
104 121 0
106 122 0
103 119 0
104 122 0
105 121 0
98 115 0
110 127 0
105 122 0
101 118 0
105 122 0
122 139 0
108 126 0
109 126 0
108 126 0
117 134 0
121 139 0
122 142 0
124 143 0
112 131 0
124 143 0
120 137 0
110 128 0
117 134 0
120 139 0
123 142 0
123 141 0
121 140 0
116 135 0
126 146 0
131 151 0
129 147 0
114 133 0
123 141 0
125 142 0
129 148 0
133 152 0
113 131 0
117 134 0
129 148 0
127 145 0
129 148 0
136 156 0
140 156 0
122 139 0
130 152 0
136 153 0
134 152 0
130 149 0
138 158 0
129 148 0
132 153 0
145 167 0
137 156 0
136 156 0
135 156 0
146 164 0
137 156 0
128 149 0
148 168 0
135 155 0
135 153 0
138 157 0
141 158 0
145 165 0
132 152 0
137 157 0
143 164 0
144 164 0
144 164 0
144 165 0
145 165 0
143 162 0
143 163 0
151 172 0
146 165 0
143 163 0
145 165 0
140 159 0
144 166 0
146 166 0
148 168 0
144 165 0
148 167 0
144 164 0
151 170 0
147 166 0
149 168 0
149 169 0
147 168 0
146 166 0
146 165 0
148 170 0
140 160 0
144 164 0
143 164 0
153 174 0
154 175 0
146 165 0
148 169 0
141 161 0
146 165 0
151 172 0
157 177 0
149 170 0
155 176 0
150 169 0
154 173 0
156 175 0
154 174 0
157 178 0
153 174 0
156 175 0
156 176 0
155 176 0
153 172 0
154 173 0
153 174 0
147 168 0
149 168 0
149 170 0
153 175 0
153 173 0
159 178 0
150 169 0
166 186 0
156 176 0
159 180 0
157 179 0
158 178 0
156 177 0
157 178 0
164 184 0
157 176 0
162 183 0
161 182 0
153 174 0
158 179 0
159 181 0
159 180 0
157 178 0
150 170 0
157 176 0
158 178 0
155 177 0
157 178 0
158 178 0
158 178 0
155 174 0
155 177 0
161 182 0
162 181 0
156 177 0
164 186 0
159 179 0
163 184 0
156 177 0
159 180 0
157 178 0
164 185 0
164 186 0
159 179 0
163 182 0
162 184 0
162 184 0
159 180 0
160 181 0
159 180 0
154 176 0
162 183 0
160 181 0
160 180 0
162 184 0
166 188 0
159 180 0
162 183 0
161 181 0
163 184 0
161 182 0
161 181 0
165 187 0
165 187 0
165 186 0
164 186 0
162 185 0
165 186 0
166 188 0
167 186 0
162 182 0
166 187 0
164 185 0
163 184 0
165 187 0
164 186 0
168 189 0
165 186 0
165 186 0
164 185 0
166 187 0
166 187 0
163 183 0
164 185 0
170 191 0
162 183 0
169 189 0
164 185 0
165 186 0
173 196 80
173 197 105
174 197 102
176 199 114
175 197 108
167 190 80
171 195 105
174 197 88
171 194 92
169 193 108
170 193 92
173 196 114
168 191 108
170 194 80
173 196 105
171 194 108
167 191 62
169 192 99
168 192 76
166 190 80
166 190 72
169 192 95
171 194 102
171 194 84
165 189 76
167 191 92
170 193 84
167 191 117
174 196 95
167 191 88
168 191 88
164 187 80
166 189 99
171 195 102
168 192 108
169 192 88
166 189 95
161 185 72
166 190 92
170 194 108
163 187 92
170 193 80
164 188 117
172 195 92
167 191 92
166 189 80
167 190 95
166 190 102
166 189 88
162 185 95
168 192 108
158 180 88
167 189 84
157 180 57
157 181 72
157 181 72
163 185 108
164 187 84
166 188 120
164 187 92
159 182 72
163 186 94
156 178 78
162 186 114
165 188 105
155 178 102
160 182 102
160 184 92
157 180 92
151 174 62
153 175 88
157 179 105
163 185 107
156 179 92
163 185 99
152 174 82
154 176 92
155 177 92
160 182 102
152 174 102
159 180 92
165 187 84
156 177 102
154 175 95
160 182 92
154 175 95
159 180 117
145 166 99
157 177 92
161 183 102
156 176 92
153 173 76
158 178 99
154 175 102
146 166 108
156 176 105
147 166 95
144 163 88
141 160 99
141 161 80
153 171 108
154 173 108
156 176 111
145 164 99
140 158 95
143 162 92
128 146 62
136 153 102
136 154 92
133 150 84
140 158 99
121 139 51
131 148 84
135 152 95
132 149 62
120 136 72
130 146 80
120 138 25
119 137 44
116 132 57
113 129 51
133 150 62
122 139 57
111 128 60
127 144 65
126 143 65
113 130 57
116 134 47
121 140 47
128 146 44
125 144 18
136 154 0
143 161 36
122 138 44
138 155 0
139 157 44
145 163 25
144 163 0
129 148 0
132 149 0
135 152 0
138 158 0
119 137 0
126 146 0
115 134 0
125 143 0
125 142 0
117 134 0
114 130 0
107 122 0
125 144 0
113 130 0
100 117 0
112 130 0
110 128 0
113 130 0
108 126 0
115 132 0
98 114 0
107 123 0
106 122 0
105 121 0
114 131 0
102 119 0
90 107 0
105 122 0
101 117 0
105 122 0
109 125 0
95 111 0
107 123 0
107 123 0
94 111 0
86 102 0
112 129 0
98 113 0
101 116 0
92 110 0
111 128 0
91 106 0
106 123 0
122 140 0
95 112 0
115 132 0
110 126 0
113 130 0
109 126 0
102 119 0
101 116 0
103 120 0
122 139 0
108 123 0
116 133 0
109 127 0
117 135 0
114 132 0
105 123 0
100 116 0
108 125 0
108 125 0
109 126 0
103 120 0
99 117 0
103 119 0
111 128 0
115 133 0
112 129 0
105 123 0
122 139 0
112 131 0
116 134 0
109 129 0
125 144 0
114 132 0
123 141 0
117 134 0
113 132 0
115 134 0
123 141 0
114 131 0
123 141 0
121 140 0
122 139 0
129 147 0
122 139 0
119 138 0
129 148 0
129 146 0
123 142 0
129 147 0
117 135 0
133 151 0
132 150 0
134 152 0
128 147 0
142 161 0
136 155 0
137 157 0
130 149 0
128 148 0
131 150 0
143 164 0
126 146 0
120 137 0
132 151 0
129 147 0
133 152 0
128 147 0
132 152 0
140 159 0
136 156 0
137 158 0
136 154 0
134 154 0
139 157 0
129 148 0
137 155 0
137 156 0
144 163 0
137 158 0
145 164 0
139 158 0
137 157 0
140 160 0
150 171 0
151 171 0
142 162 0
144 166 0
144 166 0
147 166 0
143 164 0
146 166 0
142 162 0
143 164 0
149 169 0
143 165 0
144 164 0
148 168 0
154 175 0
145 166 0
146 167 0
150 169 0
152 172 0
141 160 0
149 170 0
151 171 0
144 163 0
141 161 0
146 167 0
153 173 0
156 177 0
153 174 0
152 172 0
155 176 0
151 170 0
154 175 0
153 173 0
156 177 0
146 166 0
147 167 0
152 172 0
153 173 0
150 170 0
150 170 0
153 175 0
160 182 0
150 170 0
159 181 0
149 170 0
157 176 0
153 174 0
159 180 0
158 179 0
157 177 0
156 178 0
155 175 0
148 169 0
151 170 0
153 174 0
154 174 0
154 174 0
157 177 0
154 175 0
157 176 0
156 176 0
153 174 0
156 176 0
160 181 0
160 180 0
162 183 0
155 175 0
160 182 0
154 174 0
161 182 0
156 174 0
159 179 0
164 185 0
159 180 0
160 181 0
154 175 0
160 180 0
160 181 0
159 180 0
165 185 0
164 184 0
159 180 0
158 180 0
157 179 0
161 180 0
162 181 0
160 177 0
162 183 0
165 186 0
156 177 0
163 182 0
167 188 0
162 182 0
162 182 0
161 180 0
157 179 0
159 178 0
159 180 0
160 180 0
161 183 0
161 184 0
160 181 0
165 185 0
167 188 0
162 182 0
161 181 0
168 189 0
158 180 0
165 187 0
159 179 0
161 181 0
161 181 0
164 184 0
164 184 0
165 187 0
165 186 0
163 183 0
161 182 0
163 184 0
166 187 0
161 181 0
166 186 0
167 190 0
164 186 0
167 187 0
165 186 0
166 188 0
157 177 0
161 181 0
166 188 0
161 181 0
166 186 0
166 185 0
164 186 0
165 186 0
165 187 0
174 197 120
165 188 76
175 198 99
170 193 84
172 195 95
174 197 111
167 191 67
175 198 108
175 199 102
174 196 102
174 197 102
171 195 95
169 192 102
174 198 105
166 189 88
171 194 99
169 192 88
175 198 102
170 193 84
173 196 108
170 194 80
166 190 84
170 193 88
164 188 95
172 196 120
169 193 99
171 195 99
170 193 99
170 193 108
169 193 108
169 192 114
170 195 95
171 195 122
167 191 99
164 187 88
172 196 102
164 187 92
168 191 88
159 182 99
170 193 99
167 190 84
170 193 127
164 187 95
167 190 105
169 193 108
171 195 114
167 190 92
166 189 108
165 188 84
164 187 88
163 186 95
158 181 84
167 190 95
165 188 105
166 188 72
159 182 80
159 182 92
162 185 102
159 182 108
155 178 100
161 184 94
159 181 84
163 186 84
161 184 88
155 178 95
153 175 76
160 183 80
163 185 105
166 189 114
166 189 100
154 176 95
163 186 95
159 181 88
169 191 122
154 176 84
163 185 99
151 173 111
161 182 108
154 177 88
161 183 99
157 178 88
155 176 76
146 167 99
152 173 67
146 167 88
149 171 84
152 173 92
158 180 108
158 179 105
151 172 84
163 184 114
149 170 92
156 176 114
160 180 108
142 162 95
158 178 114
143 163 72
152 173 102
153 172 102
155 175 99
144 162 84
153 174 95
148 167 92
143 161 99
139 157 92
138 157 84
145 163 108
134 153 62
144 162 99
135 153 92
135 154 72
130 147 84
127 145 72
130 147 80
126 143 72
117 135 62
134 152 72
130 148 72
125 142 67
126 143 51
121 138 51
140 157 76
119 136 36
118 135 62
133 150 76
119 136 40
128 147 44
129 146 36
126 144 51
128 145 36
129 146 36
128 146 0
142 161 25
135 155 0
143 161 25
144 163 36
145 165 0
145 164 0
144 165 0
138 158 0
126 143 0
127 146 0
128 146 0
123 141 0
121 138 0
130 147 0
121 140 0
117 135 0
109 128 0
112 131 0
120 139 0
118 136 0
116 134 0
126 143 0
112 129 0
117 134 0
112 129 0
114 132 0
119 137 0
111 128 0
109 127 0
108 125 0
105 122 0
110 126 0
103 120 0
98 114 0
99 115 0
89 105 0
104 121 0
99 116 0
90 105 0
96 113 0
95 111 0
99 114 0
107 124 0
105 122 0
114 130 0
111 128 0
111 127 0
94 111 0
101 118 0
85 102 0
103 120 0
99 116 0
111 127 0
100 116 0
93 109 0
107 123 0
109 126 0
104 120 0
101 117 0
100 117 0
111 127 0
117 134 0
104 122 0
112 129 0
107 123 0
108 126 0
103 120 0
110 128 0
115 133 0
121 137 0
114 132 0
106 124 0
107 124 0
117 135 0
116 134 0
118 137 0
112 128 0
116 134 0
114 133 0
122 139 0
119 136 0
112 131 0
110 126 0
126 144 0
113 129 0
122 141 0
121 137 0
129 147 0
129 148 0
117 134 0
130 149 0
130 150 0
137 155 0
112 129 0
126 145 0
125 144 0
133 152 0
126 145 0
117 135 0
134 154 0
131 149 0
128 148 0
132 150 0
119 137 0
130 149 0
131 149 0
134 153 0
138 157 0
140 160 0
136 156 0
143 162 0
123 141 0
147 166 0
142 162 0
135 156 0
132 153 0
137 157 0
131 150 0
135 154 0
137 157 0
137 156 0
140 159 0
132 152 0
143 162 0
136 156 0
134 155 0
132 152 0
139 161 0
141 160 0
133 154 0
145 166 0
150 171 0
140 160 0
140 160 0
141 162 0
137 158 0
145 166 0
141 162 0
150 170 0
152 173 0
152 175 0
148 167 0
144 165 0
148 167 0
145 167 0
144 163 0
146 167 0
148 167 0
142 162 0
153 174 0
147 166 0
146 165 0
149 171 0
146 167 0
151 173 0
146 166 0
153 173 0
152 171 0
150 170 0
151 171 0
147 168 0
151 170 0
148 167 0
152 172 0
150 170 0
151 171 0
151 171 0
149 169 0
151 171 0
156 175 0
155 176 0
154 173 0
144 163 0
156 177 0
154 173 0
153 172 0
159 179 0
153 175 0
151 172 0
146 166 0
154 174 0
159 181 0
154 174 0
144 162 0
153 175 0
156 177 0
155 176 0
158 177 0
157 178 0
164 184 0
159 181 0
156 176 0
156 178 0
158 179 0
152 171 0
159 180 0
157 178 0
162 182 0
152 173 0
166 187 0
165 186 0
154 175 0
153 173 0
158 179 0
155 174 0
160 180 0
154 174 0
158 178 0
165 187 0
157 177 0
163 184 0
159 179 0
159 180 0
162 183 0
165 186 0
163 183 0
164 185 0
163 183 0
162 182 0
161 182 0
160 180 0
157 179 0
163 185 0
163 183 0
164 186 0
161 180 0
163 186 0
163 184 0
163 184 0
162 184 0
163 184 0
159 181 0
163 184 0
164 186 0
161 182 0
160 181 0
164 186 0
166 187 0
160 182 0
162 183 0
161 182 0
162 183 0
168 189 0
165 187 0
160 182 0
159 178 0
162 182 0
164 186 0
158 181 0
167 189 0
165 186 0
160 179 0
165 186 0
163 183 0
162 182 0
169 190 0
167 189 0
162 182 0
164 185 0
166 188 0
169 190 0
164 184 0
167 188 0
165 187 0
167 188 0
170 192 0
163 185 0
167 189 0
170 193 84
174 197 92
178 200 114
172 195 99
175 197 108
175 198 127
164 187 92
171 195 92
173 197 92
170 194 102
175 197 122
175 198 111
174 198 88
171 194 95
174 197 95
167 191 80
170 194 108
171 195 95
167 190 92
169 193 105
173 196 102
166 190 84
164 187 80
166 190 95
168 192 88
172 195 99
165 189 111
169 194 102
163 187 80
169 192 88
168 192 92
162 185 92
168 192 88
166 190 95
168 191 92
168 193 99
169 192 99
167 191 92
165 189 84
166 189 92
168 193 111
161 185 88
166 189 105
166 189 95
169 192 102
161 184 99
159 182 84
169 193 92
170 193 105
166 189 80
167 190 92
167 191 88
171 194 99
161 184 99
164 187 88
167 190 105
163 185 92
165 187 92
167 190 102
159 183 88
166 190 102
160 183 95
168 190 84
160 182 102
159 183 90
167 190 105
168 191 99
154 176 72
163 185 121
158 179 76
160 183 92
161 182 108
168 192 111
159 180 95
156 178 88
160 182 99
165 187 114
157 178 108
146 168 80
157 180 95
156 177 88
153 175 99
154 175 95
149 170 80
160 182 102
150 170 95
154 175 67
152 173 95
156 176 114
165 185 114
145 166 72
154 174 99
158 178 108
155 175 105
145 166 88
163 184 105
156 176 108
140 160 88
147 167 111
149 167 120
148 167 95
149 169 102
155 174 111
148 166 108
145 165 95
145 163 99
149 168 99
146 164 84
134 152 62
124 142 51
135 153 76
139 157 88
140 158 72
134 151 72
138 157 80
136 152 88
132 149 84
135 153 76
113 129 57
139 157 62
119 135 80
129 146 44
130 147 62
117 135 62
118 136 57
132 151 62
132 148 57
123 142 36
122 140 36
133 151 44
145 164 44
140 159 0
144 162 25
133 151 25
134 152 25
141 160 25
138 158 0
137 156 0
144 162 25
123 142 0
145 164 0
133 152 0
132 151 0
132 151 0
120 138 0
124 143 0
113 132 0
126 143 0
116 135 0
121 138 0
110 127 0
113 132 0
131 149 0
113 131 0
111 129 0
109 126 0
96 114 0
117 136 0
109 126 0
124 142 0
110 128 0
104 121 0
117 134 0
107 125 0
118 136 0
95 112 0
108 125 0
102 118 0
91 106 0
97 114 0
103 120 0
99 116 0
111 127 0
97 113 0
92 109 0
101 119 0
90 106 0
102 120 0
109 126 0
105 122 0
111 128 0
107 125 0
111 128 0
106 123 0
104 120 0
106 123 0
105 123 0
102 119 0
101 117 0
104 121 0
104 122 0
116 132 0
106 123 0
114 131 0
106 125 0
100 117 0
114 131 0
100 117 0
108 125 0
121 138 0
119 137 0
126 145 0
114 131 0
117 134 0
114 132 0
104 123 0
111 129 0
110 127 0
111 128 0
113 131 0
120 138 0
125 142 0
122 140 0
121 139 0
126 142 0
130 148 0
132 152 0
123 141 0
124 140 0
131 150 0
127 145 0
127 146 0
128 147 0
127 146 0
130 149 0
137 157 0
127 146 0
126 145 0
131 150 0
126 145 0
128 148 0
134 153 0
138 158 0
142 162 0
127 146 0
140 159 0
132 152 0
131 150 0
138 158 0
134 153 0
134 154 0
133 153 0
147 167 0
139 160 0
136 156 0
139 158 0
135 153 0
135 154 0
139 159 0
139 159 0
135 156 0
136 157 0
131 150 0
141 161 0
134 154 0
143 163 0
141 162 0
144 165 0
139 159 0
145 165 0
138 159 0
143 163 0
140 161 0
148 168 0
130 149 0
143 162 0
135 157 0
139 159 0
142 164 0
144 164 0
142 163 0
139 159 0
145 165 0
143 162 0
148 170 0
147 166 0
153 173 0
142 161 0
149 170 0
150 169 0
148 169 0
143 164 0
145 166 0
155 177 0
144 165 0
146 166 0
148 169 0
152 172 0
153 175 0
151 171 0
147 169 0
146 165 0
144 165 0
146 166 0
159 180 0
149 169 0
153 175 0
153 175 0
144 163 0
153 173 0
152 173 0
153 174 0
152 171 0
155 177 0
156 177 0
154 175 0
150 169 0
154 174 0
154 176 0
155 175 0
158 179 0
159 179 0
150 171 0
156 176 0
153 173 0
153 174 0
150 170 0
161 184 0
154 175 0
156 177 0
156 177 0
158 180 0
151 171 0
161 182 0
163 184 0
157 178 0
158 178 0
156 176 0
157 178 0
157 177 0
151 170 0
161 182 0
157 176 0
158 178 0
159 179 0
157 179 0
165 186 0
160 181 0
162 184 0
158 179 0
154 175 0
158 178 0
158 179 0
157 177 0
162 182 0
161 182 0
165 185 0
163 182 0
159 181 0
153 173 0
162 183 0
157 178 0
156 175 0
159 180 0
160 181 0
160 180 0
167 188 0
163 183 0
162 184 0
162 184 0
157 178 0
161 183 0
163 185 0
164 185 0
159 180 0
164 184 0
165 186 0
160 182 0
167 188 0
163 183 0
163 184 0
165 187 0
165 186 0
165 187 0
166 188 0
163 184 0
164 186 0
166 186 0
167 190 0
159 180 0
161 181 0
165 186 0
160 181 0
167 188 0
163 183 0
167 188 0
167 189 0
162 184 0
161 182 0
158 179 0
162 183 0
165 185 0
172 192 0
166 188 0
168 191 0
166 186 0
164 186 0
165 187 0
160 183 0
164 184 0
176 199 105
171 195 111
171 193 80
175 198 102
173 197 95
165 189 80
169 192 105
167 192 88
171 194 102
174 196 99
167 191 95
170 194 102
172 195 88
172 196 108
165 188 88
171 194 108
170 194 92
169 192 84
162 187 88
169 191 120
166 189 84
173 196 92
172 195 95
171 195 117
166 190 102
170 193 72
169 192 92
167 190 84
170 194 114
162 185 80
167 190 92
170 193 84
165 187 84
163 187 92
168 191 108
167 191 80
165 188 99
171 195 72
158 181 67
163 186 102
163 185 67
170 194 105
160 183 95
168 192 99
163 186 114
164 187 88
162 185 84
164 187 111
164 188 99
168 191 102
162 187 92
160 184 92
156 179 92
160 184 80
162 185 80
163 186 95
171 194 102
164 187 84
161 185 88
162 185 80
161 185 102
167 190 105
164 186 84
161 183 122
159 182 88
157 179 92
159 181 84
165 187 108
158 181 108
163 186 92
148 171 99
158 179 92
160 181 76
160 182 92
155 178 92
146 169 92
159 181 72
160 182 122
156 178 88
157 179 80
146 168 92
160 180 102
158 180 92
156 178 88
155 176 105
159 181 80
162 183 102
149 169 88
165 186 114
137 157 80
153 174 105
149 168 84
157 177 114
158 178 102
147 167 105
152 172 92
148 168 92
150 169 105
147 167 95
151 169 72
153 172 105
150 169 95
166 186 125
144 163 92
148 166 105
153 171 108
142 160 80
142 161 92
134 152 95
137 156 76
133 150 80
143 160 95
128 146 67
141 158 80
129 147 76
120 138 67
141 160 57
142 160 72
133 152 36
121 138 62
125 142 57
127 145 57
128 146 72
122 140 44
121 138 44
127 145 36
124 142 44
126 143 51
139 157 57
130 149 36
132 150 36
131 149 0
134 154 36
138 158 25
134 153 0
139 159 25
134 154 0
135 156 0
132 151 0
149 168 0
136 155 0
133 154 0
136 157 0
127 148 0
129 148 0
133 151 0
115 132 0
122 140 0
121 140 0
117 136 0
114 132 0
124 142 0
126 144 0
107 124 0
111 129 0
106 123 0
124 142 0
109 127 0
112 130 0
106 123 0
116 134 0
112 130 0
100 118 0
112 130 0
106 123 0
110 128 0
118 136 0
107 124 0
108 125 0
108 126 0
93 110 0
103 119 0
101 117 0
107 124 0
112 129 0
98 116 0
103 121 0
107 125 0
108 126 0
98 114 0
121 138 0
106 124 0
117 134 0
100 118 0
105 122 0
114 131 0
104 123 0
125 144 0
113 130 0
111 129 0
104 123 0
112 129 0
111 129 0
117 135 0
111 128 0
117 135 0
110 127 0
116 134 0
113 130 0
112 129 0
118 136 0
109 128 0
122 140 0
112 129 0
116 135 0
124 141 0
118 136 0
110 127 0
125 144 0
119 138 0
115 132 0
122 141 0
111 129 0
119 138 0
120 139 0
119 137 0
123 142 0
122 141 0
124 142 0
125 144 0
129 149 0
130 147 0
125 144 0
120 138 0
135 155 0
132 152 0
123 143 0
126 146 0
130 148 0
121 140 0
137 156 0
138 159 0
127 147 0
130 149 0
117 137 0
130 150 0
134 154 0
127 147 0
125 146 0
138 158 0
132 151 0
127 146 0
142 161 0
134 153 0
130 150 0
123 143 0
142 162 0
143 162 0
139 159 0
138 159 0
138 159 0
148 169 0
139 157 0
138 157 0
140 160 0
146 167 0
140 161 0
133 153 0
143 164 0
142 163 0
142 163 0
141 160 0
138 158 0
132 152 0
147 168 0
136 156 0
145 165 0
144 164 0
146 168 0
145 164 0
143 164 0
142 162 0
148 167 0
148 167 0
154 174 0
141 161 0
140 159 0
147 168 0
147 169 0
148 169 0
151 172 0
149 170 0
145 166 0
155 175 0
146 166 0
145 164 0
143 162 0
151 170 0
154 173 0
144 165 0
149 169 0
150 170 0
145 166 0
147 167 0
151 173 0
154 175 0
156 175 0
149 168 0
149 170 0
148 168 0
157 178 0
153 175 0
153 174 0
157 177 0
156 177 0
154 174 0
157 176 0
156 178 0
157 180 0
153 175 0
157 178 0
153 173 0
155 176 0
155 172 0
155 176 0
155 175 0
156 175 0
157 177 0
153 173 0
151 172 0
161 181 0
158 180 0
157 177 0
155 174 0
154 175 0
154 173 0
158 179 0
159 180 0
163 183 0
150 171 0
154 174 0
161 182 0
161 183 0
160 180 0
160 179 0
159 181 0
159 180 0
160 181 0
157 175 0
154 174 0
156 178 0
160 181 0
157 178 0
158 178 0
155 176 0
153 174 0
156 175 0
159 179 0
159 179 0
153 173 0
160 182 0
162 185 0
159 181 0
157 178 0
164 185 0
162 183 0
158 179 0
161 182 0
161 182 0
161 184 0
160 179 0
160 180 0
160 181 0
163 185 0
162 184 0
164 185 0
160 181 0
161 181 0
168 190 0
165 186 0
161 182 0
164 186 0
168 191 0
167 187 0
164 185 0
159 180 0
165 185 0
169 190 0
162 184 0
159 178 0
164 185 0
168 187 0
164 184 0
161 181 0
168 191 0
164 187 0
167 189 0
166 186 0
168 190 0
165 187 0
162 182 0
169 191 0
170 193 0
167 189 0
160 181 0
171 193 0
165 185 0
169 190 0
170 192 0
166 188 0
173 196 99
177 200 114
174 197 76
173 196 111
174 197 114
175 198 105
170 193 95
177 199 102
171 195 105
173 197 80
173 197 99
176 199 99
173 195 105
171 195 120
171 194 111
172 195 108
170 193 92
168 192 80
169 193 84
175 198 95
170 193 102
171 194 105
173 196 108
173 196 88
169 192 88
172 195 102
166 189 62
169 192 88
167 191 99
167 190 114
170 194 76
167 190 105
172 195 111
166 190 105
166 190 99
165 189 67
165 188 95
169 193 105
168 191 84
163 187 95
164 188 120
168 192 117
165 188 99
167 190 99
172 195 99
161 184 88
157 179 76
160 183 99
158 180 88
165 189 84
160 183 102
164 187 95
159 182 67
164 187 111
165 188 102
163 186 80
165 189 88
160 183 99
153 176 84
165 188 108
159 181 84
161 184 99
163 185 105
161 184 105
168 191 111
161 182 102
160 182 82
165 187 102
166 189 121
157 179 72
157 179 72
161 183 88
165 188 102
155 178 111
153 175 99
155 178 88
156 178 72
162 183 105
158 180 95
160 181 105
159 181 105
146 167 84
142 164 76
154 175 88
152 174 108
153 174 102
163 184 114
158 179 102
153 174 99
149 170 92
154 175 102
149 170 99
155 175 111
155 175 99
146 167 88
157 177 95
155 175 95
148 168 108
149 170 99
141 161 84
153 172 102
156 175 99
154 173 111
153 171 105
153 171 111
145 164 95
143 161 80
147 165 102
141 160 95
143 161 88
153 172 76
136 155 67
140 159 76
145 163 88
132 151 62
135 154 51
135 153 67
133 152 72
129 146 57
131 149 62
128 146 67
126 145 57
130 149 51
125 144 51
126 144 36
129 147 44
120 137 67
129 148 36
138 156 0
145 164 25
127 146 25
123 142 25
140 159 25
133 152 0
146 166 0
134 154 0
129 149 0
134 153 0
140 160 0
135 154 0
133 152 0
133 154 0
136 155 0
136 154 0
135 153 0
133 151 0
127 147 0
120 140 0
128 146 0
127 146 0
125 144 0
112 129 0
115 134 0
124 144 0
126 145 0
113 131 0
100 118 0
113 132 0
114 132 0
117 134 0
115 134 0
111 130 0
101 119 0
113 131 0
123 141 0
114 132 0
113 130 0
108 125 0
109 126 0
99 116 0
109 125 0
106 122 0
120 137 0
117 135 0
105 122 0
101 117 0
98 114 0
103 121 0
111 130 0
107 125 0
113 130 0
107 125 0
118 136 0
114 132 0
125 143 0
122 140 0
113 130 0
106 122 0
110 129 0
114 131 0
110 127 0
98 116 0
110 128 0
105 122 0
107 124 0
118 136 0
113 130 0
113 130 0
105 122 0
110 127 0
107 125 0
112 130 0
117 135 0
110 128 0
103 121 0
125 143 0
113 132 0
121 139 0
120 139 0
108 125 0
123 143 0
120 139 0
128 146 0
121 139 0
129 148 0
128 149 0
125 141 0
130 148 0
117 134 0
115 135 0
119 136 0
119 139 0
130 150 0
126 145 0
125 145 0
111 128 0
130 149 0
131 149 0
130 150 0
128 147 0
120 140 0
131 151 0
133 153 0
126 146 0
133 153 0
138 157 0
135 153 0
128 147 0
137 157 0
134 154 0
138 157 0
135 155 0
143 164 0
135 155 0
142 162 0
145 166 0
132 152 0
127 145 0
132 152 0
140 160 0
132 153 0
132 150 0
146 166 0
139 159 0
143 165 0
141 162 0
137 155 0
153 173 0
139 160 0
142 162 0
142 161 0
150 172 0
151 172 0
137 156 0
143 163 0
143 164 0
146 166 0
149 170 0
150 170 0
145 166 0
149 170 0
146 166 0
149 169 0
143 165 0
148 168 0
141 162 0
143 162 0
147 167 0
150 170 0
146 166 0
154 175 0
145 165 0
153 173 0
155 174 0
147 168 0
145 165 0
156 176 0
154 176 0
151 171 0
150 170 0
160 180 0
152 173 0
150 170 0
154 175 0
148 169 0
145 164 0
155 176 0
152 173 0
147 166 0
150 170 0
148 166 0
151 171 0
154 175 0
161 182 0
154 173 0
157 178 0
155 177 0
154 173 0
157 178 0
152 171 0
159 180 0
155 176 0
158 179 0
158 180 0
160 183 0
158 179 0
157 178 0
158 180 0
157 179 0
155 176 0
150 172 0
153 175 0
158 179 0
151 173 0
160 180 0
162 183 0
158 178 0
152 172 0
158 180 0
161 181 0
160 182 0
160 180 0
155 175 0
158 181 0
156 176 0
155 176 0
155 177 0
159 181 0
165 187 0
164 185 0
159 181 0
164 185 0
158 178 0
160 181 0
159 181 0
158 179 0
160 182 0
162 183 0
166 189 0
160 182 0
164 184 0
156 175 0
163 184 0
158 178 0
157 177 0
165 187 0
159 180 0
162 184 0
159 182 0
160 182 0
161 182 0
167 186 0
163 183 0
157 178 0
165 185 0
168 190 0
162 182 0
162 183 0
160 181 0
162 183 0
164 184 0
163 184 0
167 190 0
163 185 0
163 185 0
172 194 0
159 181 0
161 183 0
164 186 0
164 185 0
161 180 0
165 187 0
167 188 0
162 184 0
164 185 0
168 190 0
168 189 0
161 184 0
168 191 0
164 185 0
167 188 0
165 187 0
164 186 0
165 188 0
164 187 0
167 187 0
163 184 0
167 189 0
167 187 0
165 187 0
173 197 102
170 193 92
170 193 92
172 195 99
175 198 105
171 195 84
178 201 114
177 200 95
173 195 102
173 196 102
173 197 108
167 190 84
173 196 105
166 189 84
165 188 99
175 198 111
169 192 80
168 192 95
171 194 84
167 191 80
169 193 102
166 190 80
170 193 102
171 194 80
170 192 84
170 193 108
164 188 92
165 188 80
171 195 102
165 188 84
167 190 92
173 196 99
162 187 92
169 193 108
169 193 105
166 190 84
163 186 88
169 193 105
167 190 95
172 195 102
172 195 72
161 185 108
168 191 111
162 186 99
170 194 95
163 187 84
159 183 92
165 188 88
165 188 76
170 193 114
167 189 111
163 186 111
171 195 108
161 184 105
160 183 80
159 183 99
168 191 88
162 185 92
155 178 100
156 179 80
155 178 97
160 183 105
163 186 97
155 178 76
156 179 95
159 181 86
156 178 99
163 185 92
161 184 92
160 183 99
161 184 105
163 186 92
161 184 88
161 182 105
156 179 95
165 188 111
163 185 88
160 182 102
156 178 84
153 175 80
157 179 105
157 179 88
156 177 88
156 178 102
158 180 102
157 179 105
159 179 105
158 180 105
149 170 88
153 174 95
147 168 95
152 172 92
152 173 92
157 177 108
147 168 72
158 178 108
152 172 111
155 175 102
154 173 111
162 182 111
155 175 92
149 168 84
138 157 80
142 161 92
147 166 88
135 153 76
140 159 92
139 156 99
152 171 95
146 165 105
144 162 99
141 159 76
141 159 88
132 151 67
145 163 72
143 162 84
123 141 67
136 155 62
134 152 72
117 136 25
126 144 67
125 143 36
124 142 51
134 152 76
134 152 57
139 158 57
139 158 36
139 158 51
135 155 57
142 161 36
148 167 36
132 151 0
146 166 25
146 165 0
149 170 0
148 168 25
142 162 25
138 157 0
136 156 0
129 148 0
140 159 0
124 143 0
134 152 0
128 147 0
130 147 0
128 147 0
110 129 0
127 146 0
130 150 0
129 147 0
133 153 0
106 124 0
119 137 0
123 141 0
119 138 0
120 138 0
118 135 0
129 147 0
118 136 0
107 126 0
111 129 0
113 130 0
117 135 0
104 121 0
109 127 0
104 120 0
115 133 0
113 132 0
112 130 0
109 126 0
103 120 0
126 144 0
105 123 0
94 112 0
109 127 0
108 125 0
113 132 0
112 130 0
122 140 0
109 127 0
112 128 0
114 132 0
121 140 0
97 116 0
114 131 0
110 128 0
120 137 0
114 131 0
100 118 0
116 135 0
112 130 0
114 132 0
112 130 0
108 126 0
108 126 0
103 122 0
120 138 0
119 137 0
112 130 0
117 134 0
117 136 0
108 128 0
110 127 0
115 134 0
123 142 0
115 132 0
115 135 0
122 140 0
125 145 0
123 142 0
125 145 0
124 143 0
107 126 0
117 137 0
112 131 0
131 151 0
129 148 0
121 141 0
119 140 0
121 140 0
123 142 0
115 135 0
130 149 0
129 150 0
134 154 0
130 149 0
121 140 0
138 160 0
127 147 0
130 150 0
134 154 0
137 155 0
133 153 0
138 157 0
129 149 0
127 146 0
126 146 0
134 154 0
139 159 0
143 162 0
135 153 0
126 146 0
138 157 0
142 162 0
140 158 0
136 157 0
147 167 0
136 157 0
132 151 0
142 162 0
147 167 0
135 155 0
137 157 0
135 154 0
142 162 0
134 152 0
144 165 0
136 156 0
140 161 0
139 157 0
152 174 0
142 163 0
139 160 0
142 162 0
145 166 0
141 160 0
149 170 0
150 170 0
147 167 0
148 167 0
143 162 0
139 160 0
139 160 0
150 169 0
151 172 0
147 168 0
143 163 0
149 170 0
155 175 0
153 174 0
152 172 0
151 172 0
151 171 0
149 170 0
154 176 0
151 172 0
149 171 0
150 169 0
155 175 0
145 164 0
151 172 0
150 171 0
150 170 0
151 172 0
147 167 0
148 169 0
154 173 0
149 170 0
151 172 0
162 184 0
159 181 0
155 176 0
154 176 0
155 176 0
156 175 0
155 176 0
155 175 0
160 181 0
152 173 0
156 178 0
156 176 0
153 171 0
147 166 0
158 179 0
161 182 0
161 183 0
156 178 0
159 179 0
153 174 0
154 175 0
163 184 0
156 177 0
154 175 0
159 180 0
156 177 0
153 173 0
161 181 0
160 183 0
157 179 0
154 173 0
157 178 0
155 176 0
160 181 0
157 175 0
161 182 0
162 181 0
156 176 0
152 173 0
160 182 0
155 176 0
158 179 0
158 180 0
160 181 0
154 175 0
164 185 0
159 179 0
159 179 0
168 190 0
165 186 0
167 188 0
161 183 0
164 185 0
152 174 0
163 185 0
161 181 0
154 175 0
161 183 0
167 189 0
164 184 0
160 182 0
162 184 0
163 185 0
166 187 0
161 182 0
157 179 0
159 179 0
166 188 0
160 181 0
163 183 0
161 182 0
165 186 0
164 186 0
161 184 0
164 186 0
163 185 0
163 184 0
165 187 0
164 186 0
168 189 0
163 184 0
165 186 0
169 191 0
160 181 0
169 190 0
165 186 0
160 181 0
163 186 0
167 188 0
166 188 0
162 184 0
165 186 0
168 191 0
166 187 0
168 189 0
164 187 0
166 186 0
166 187 0
169 191 0
169 191 0
166 188 0
175 197 88
169 193 80
174 197 105
174 197 92
174 198 84
177 199 102
170 192 92
169 192 105
175 198 102
176 198 102
171 193 95
168 191 88
171 195 95
171 194 95
171 194 99
173 195 114
173 197 108
172 195 105
169 192 88
170 193 95
171 194 84
168 192 84
174 197 117
173 196 108
164 188 105
169 192 88
164 187 84
171 195 111
166 189 99
167 191 99
170 193 105
169 193 84
168 192 102
165 188 92
165 189 111
166 190 80
172 194 88
172 196 133
169 192 108
165 189 80
171 195 105
169 192 105
170 194 114
164 188 84
163 186 114
169 192 108
157 180 80
166 189 108
164 187 99
164 187 95
161 184 92
158 181 92
166 190 105
161 184 92
165 187 76
161 184 105
170 193 102
155 177 95
169 192 102
166 188 99
164 187 95
158 181 88
161 184 84
163 186 102
163 186 92
167 190 102
162 184 92
154 176 72
157 179 92
165 188 105
160 182 95
165 187 88
164 187 108
161 183 88
162 184 108
158 180 111
158 181 111
153 175 92
150 173 95
158 180 99
156 178 92
158 179 67
161 183 92
157 178 84
157 178 92
159 180 92
152 172 99
158 180 84
159 180 120
153 173 88
157 178 95
151 172 95
151 172 92
153 174 72
146 168 67
152 171 84
154 174 102
141 161 80
150 170 105
161 181 105
152 172 92
148 167 99
138 157 88
150 170 117
148 166 88
152 171 95
149 169 84
147 166 99
147 165 105
129 147 62
147 166 76
137 156 72
144 163 102
132 151 72
133 151 72
134 151 72
129 147 76
128 146 76
134 154 62
136 155 62
133 151 57
141 160 67
131 149 67
125 144 44
140 158 62
125 144 44
133 152 25
124 143 0
130 148 0
128 149 0
140 160 36
135 153 25
142 162 0
144 163 25
145 164 25
142 163 0
144 165 0
142 163 25
147 169 0
141 161 0
137 156 0
139 159 0
141 162 0
136 154 0
139 159 0
125 142 0
131 150 0
128 148 0
130 149 0
117 135 0
123 142 0
121 140 0
108 126 0
112 130 0
128 146 0
122 140 0
128 146 0
111 130 0
108 127 0
125 142 0
110 128 0
126 145 0
118 136 0
116 133 0
114 132 0
111 129 0
129 146 0
115 134 0
120 138 0
117 135 0
115 134 0
115 133 0
102 120 0
119 137 0
114 130 0
118 137 0
111 129 0
106 123 0
114 132 0
122 140 0
114 132 0
116 135 0
113 131 0
100 119 0
117 135 0
121 139 0
124 143 0
118 137 0
116 135 0
108 127 0
107 124 0
116 135 0
131 149 0
114 132 0
109 126 0
111 128 0
108 128 0
104 122 0
123 142 0
123 143 0
108 126 0
114 131 0
117 136 0
120 138 0
127 147 0
117 136 0
118 136 0
122 140 0
121 141 0
120 139 0
124 143 0
118 137 0
123 142 0
121 141 0
123 142 0
131 150 0
129 148 0
110 130 0
122 141 0
121 139 0
128 148 0
131 151 0
117 134 0
132 153 0
125 143 0
130 150 0
130 150 0
137 157 0
130 150 0
119 138 0
137 156 0
134 154 0
129 149 0
134 154 0
138 158 0
138 158 0
133 153 0
130 148 0
131 151 0
132 152 0
135 155 0
134 154 0
127 147 0
139 160 0
135 155 0
141 161 0
140 160 0
136 155 0
140 161 0
142 162 0
134 153 0
137 157 0
148 169 0
144 164 0
137 157 0
137 158 0
137 158 0
138 156 0
138 159 0
141 162 0
146 166 0
147 168 0
142 162 0
148 169 0
143 163 0
145 164 0
148 169 0
149 170 0
145 165 0
144 165 0
150 171 0
141 161 0
141 163 0
146 167 0
148 169 0
143 164 0
154 175 0
152 173 0
153 174 0
143 163 0
143 163 0
151 172 0
146 165 0
144 165 0
150 171 0
145 165 0
143 163 0
154 175 0
154 177 0
150 168 0
149 171 0
155 175 0
156 177 0
150 172 0
152 173 0
146 167 0
152 173 0
155 174 0
151 171 0
153 173 0
151 172 0
152 174 0
150 170 0
155 176 0
154 175 0
160 182 0
155 176 0
152 173 0
155 176 0
158 179 0
152 173 0
153 175 0
155 177 0
157 180 0
158 180 0
157 178 0
157 178 0
158 179 0
158 179 0
157 177 0
159 179 0
157 176 0
158 179 0
159 180 0
161 184 0
161 182 0
159 178 0
159 180 0
157 179 0
163 183 0
158 180 0
163 183 0
157 178 0
164 186 0
162 183 0
157 178 0
162 183 0
163 184 0
162 184 0
162 183 0
155 177 0
160 180 0
159 179 0
155 175 0
159 182 0
161 183 0
165 186 0
162 184 0
159 180 0
161 182 0
158 180 0
162 184 0
159 179 0
167 189 0
161 183 0
161 183 0
165 187 0
158 180 0
162 183 0
161 183 0
164 184 0
162 184 0
163 183 0
162 180 0
160 182 0
160 181 0
163 183 0
168 189 0
167 190 0
159 179 0
162 183 0
166 188 0
162 183 0
163 186 0
165 187 0
168 191 0
166 187 0
162 183 0
167 187 0
171 192 0
163 184 0
163 183 0
166 189 0
166 188 0
167 190 0
167 188 0
167 188 0
168 189 0
163 183 0
165 188 0
171 194 0
164 185 0
170 193 0
167 189 0
160 182 0
163 185 0
169 192 0
167 188 0
158 178 0
160 182 0
178 200 114
178 201 105
176 198 108
175 199 95
175 198 108
169 192 95
175 198 114
173 196 88
174 198 105
171 194 95
173 197 102
170 193 76
171 195 111
169 191 84
172 196 76
173 195 105
163 187 92
167 192 108
172 195 114
169 192 105
173 196 80
167 190 62
173 196 92
172 196 88
166 189 67
172 196 111
169 193 99
174 197 102
163 186 62
167 191 92
161 184 67
166 189 80
168 192 105
169 192 88
167 190 108
167 191 95
169 192 114
170 193 111
156 179 72
168 191 80
165 189 102
161 184 92
164 188 80
167 190 88
167 191 95
159 182 80
172 195 108
161 184 84
161 185 92
164 187 88
163 186 105
165 188 80
160 183 80
161 183 80
163 185 99
157 180 108
168 191 114
161 185 102
163 185 95
162 186 105
161 183 88
161 183 92
161 184 102
165 188 102
165 187 102
165 188 95
161 183 76
167 189 102
157 180 108
172 194 105
156 179 88
159 182 108
157 179 102
160 182 72
163 185 105
153 176 88
150 172 80
158 180 102
158 179 102
155 177 99
153 175 92
158 180 80
151 173 76
159 180 108
161 182 111
155 176 102
151 172 88
166 187 114
154 175 95
147 168 92
145 165 80
158 179 108
163 185 102
155 175 95
147 166 88
145 166 84
158 177 117
156 176 111
157 177 108
156 175 105
154 173 95
148 168 99
156 176 99
144 163 102
149 169 99
149 169 95
145 164 99
140 158 95
145 163 99
143 161 88
138 157 80
145 164 92
152 170 84
143 162 76
124 143 57
139 157 76
126 145 51
137 156 36
138 156 67
143 162 76
117 134 25
120 139 25
136 154 57
133 152 44
124 141 57
134 154 51
132 151 44
133 153 25
147 169 0
136 155 25
139 160 44
136 154 0
137 157 25
136 157 0
144 165 44
138 159 25
138 157 0
134 155 0
133 154 0
138 159 0
129 148 0
136 155 0
140 160 0
136 156 0
135 155 0
135 155 0
128 146 0
126 144 0
132 152 0
128 147 0
132 152 0
123 141 0
121 140 0
120 138 0
122 141 0
115 133 0
124 143 0
119 138 0
123 142 0
113 131 0
114 133 0
111 130 0
108 125 0
118 136 0
113 131 0
126 145 0
113 132 0
108 128 0
117 135 0
108 125 0
109 127 0
111 129 0
115 132 0
111 129 0
121 140 0
120 138 0
131 149 0
122 142 0
126 144 0
108 127 0
108 126 0
123 142 0
120 138 0
109 125 0
107 126 0
106 123 0
131 150 0
128 145 0
114 132 0
126 144 0
102 122 0
120 139 0
108 126 0
126 144 0
122 141 0
119 139 0
123 143 0
111 129 0
118 137 0
116 134 0
121 139 0
110 128 0
120 140 0
121 140 0
120 138 0
110 129 0
129 148 0
116 134 0
121 141 0
128 146 0
123 142 0
125 145 0
120 139 0
124 143 0
125 144 0
121 140 0
127 145 0
123 142 0
130 151 0
118 137 0
121 141 0
127 145 0
122 142 0
127 147 0
132 153 0
132 150 0
130 150 0
134 154 0
135 156 0
136 155 0
139 159 0
140 160 0
128 147 0
141 161 0
133 152 0
134 154 0
137 157 0
137 157 0
135 156 0
136 155 0
145 164 0
139 159 0
136 158 0
140 162 0
142 161 0
137 156 0
151 173 0
136 156 0
128 149 0
137 157 0
135 155 0
140 160 0
146 167 0
157 178 0
144 164 0
145 166 0
136 156 0
142 161 0
144 165 0
148 168 0
148 168 0
145 165 0
145 166 0
152 175 0
149 170 0
145 167 0
150 170 0
147 166 0
142 162 0
147 169 0
147 168 0
143 163 0
143 164 0
153 174 0
157 178 0
149 171 0
146 169 0
150 172 0
144 163 0
146 166 0
151 171 0
150 170 0
146 167 0
151 169 0
153 174 0
155 173 0
148 170 0
150 171 0
155 176 0
153 173 0
152 173 0
156 178 0
148 171 0
150 170 0
151 173 0
154 175 0
153 174 0
153 174 0
157 178 0
154 176 0
158 179 0
151 172 0
159 180 0
155 177 0
158 179 0
152 174 0
159 178 0
155 175 0
152 172 0
155 176 0
166 187 0
156 177 0
156 177 0
160 180 0
162 183 0
155 177 0
154 176 0
163 183 0
146 166 0
158 179 0
158 179 0
161 183 0
152 173 0
157 179 0
157 178 0
159 179 0
167 188 0
161 182 0
153 175 0
155 176 0
154 174 0
160 181 0
162 184 0
160 181 0
156 178 0
154 174 0
153 175 0
162 183 0
163 185 0
163 184 0
161 181 0
157 178 0
159 179 0
159 181 0
163 184 0
163 183 0
159 179 0
162 182 0
159 180 0
167 190 0
163 186 0
156 175 0
163 186 0
169 190 0
166 188 0
163 182 0
159 181 0
167 190 0
163 183 0
162 184 0
164 184 0
160 181 0
160 182 0
154 176 0
159 180 0
164 185 0
165 188 0
163 183 0
159 180 0
162 182 0
160 181 0
162 183 0
165 187 0
161 182 0
160 181 0
159 180 0
163 183 0
166 187 0
164 186 0
164 185 0
164 186 0
165 188 0
165 187 0
165 186 0
167 188 0
169 190 0
164 186 0
163 185 0
165 187 0
166 189 0
172 195 0
166 189 0
165 187 0
165 187 0
167 189 0
163 186 0
165 188 0
161 182 0
169 191 0
163 184 0
171 195 84
170 193 72
174 197 92
171 194 92
172 195 102
170 192 88
167 190 95
168 191 76
174 198 99
166 190 95
170 193 95
171 194 105
169 192 102
170 194 95
173 196 88
169 193 80
170 194 84
171 194 114
166 189 99
170 193 88
167 191 80
166 190 99
171 194 105
173 196 114
171 194 105
173 195 99
167 191 76
165 189 88
168 191 88
173 196 120
167 191 99
166 190 84
158 181 67
172 195 92
168 191 92
173 195 105
171 193 92
171 194 108
163 186 108
159 183 76
168 191 99
163 186 92
169 193 108
174 198 102
166 189 88
166 189 108
164 188 102
164 187 76
166 189 95
164 187 99
169 192 108
160 183 105
162 185 92
168 191 88
165 188 92
167 190 105
164 186 95
163 187 95
165 189 95
162 185 88
154 177 88
163 186 99
162 184 95
152 174 80
165 187 102
171 194 114
161 184 105
164 187 76
155 177 76
166 188 99
160 181 105
155 178 92
161 184 99
164 187 92
158 181 111
161 183 99
162 184 102
157 179 102
158 180 120
157 179 99
154 177 95
152 173 84
161 182 99
152 174 111
155 177 88
160 182 88
155 176 80
153 174 92
160 182 114
159 180 95
161 182 105
146 167 67
153 174 80
157 178 88
153 174 88
150 169 95
152 173 67
157 178 102
161 181 111
159 179 105
152 171 102
160 179 111
160 179 108
143 163 67
146 166 84
135 155 76
151 170 95
148 168 88
142 161 102
146 166 72
139 158 88
147 165 92
124 144 44
150 169 80
145 164 62
140 159 92
137 156 57
121 139 57
144 162 62
139 158 72
140 160 44
126 145 51
123 142 44
134 155 25
143 162 51
135 156 25
143 162 51
137 157 44
139 159 44
135 154 0
130 149 0
142 162 0
143 161 25
147 169 0
150 170 0
142 163 0
148 169 0
146 165 0
140 159 0
142 162 0
148 167 0
140 160 0
138 159 0
143 163 0
141 161 0
132 152 0
123 142 0
120 138 0
125 145 0
139 158 0
124 143 0
141 160 0
137 157 0
118 138 0
118 136 0
126 146 0
134 154 0
114 134 0
124 143 0
127 146 0
121 141 0
130 148 0
121 138 0
124 143 0
125 145 0
104 123 0
120 138 0
111 130 0
116 134 0
124 142 0
120 138 0
114 133 0
105 124 0
118 137 0
111 129 0
125 145 0
114 134 0
115 134 0
126 145 0
127 146 0
122 139 0
126 144 0
116 134 0
113 132 0
111 130 0
111 128 0
126 144 0
113 130 0
115 135 0
112 131 0
116 135 0
115 135 0
111 131 0
109 129 0
124 143 0
122 141 0
127 146 0
116 135 0
121 140 0
121 141 0
110 128 0
113 132 0
117 137 0
130 150 0
124 143 0
114 133 0
126 145 0
117 136 0
119 138 0
119 140 0
130 150 0
123 143 0
128 147 0
122 141 0
124 143 0
123 142 0
127 147 0
126 146 0
125 144 0
128 148 0
128 149 0
130 150 0
136 156 0
131 151 0
137 156 0
130 150 0
140 159 0
137 157 0
132 152 0
122 141 0
150 171 0
138 159 0
135 155 0
132 152 0
126 145 0
138 157 0
142 162 0
124 143 0
132 153 0
129 148 0
138 158 0
141 161 0
134 154 0
138 159 0
136 156 0
133 153 0
141 162 0
141 162 0
138 158 0
139 160 0
139 160 0
142 163 0
136 157 0
149 170 0
142 160 0
147 167 0
151 171 0
136 157 0
139 159 0
139 159 0
151 172 0
143 165 0
143 163 0
147 168 0
141 162 0
148 168 0
147 168 0
145 164 0
139 161 0
151 171 0
148 168 0
146 167 0
146 166 0
149 169 0
148 169 0
146 168 0
152 172 0
148 170 0
141 162 0
152 173 0
150 171 0
154 175 0
153 175 0
146 167 0
138 158 0
149 171 0
152 173 0
153 173 0
152 174 0
150 171 0
149 170 0
157 178 0
153 174 0
151 173 0
148 168 0
150 171 0
157 179 0
156 177 0
147 168 0
160 183 0
147 168 0
156 179 0
156 178 0
155 176 0
148 168 0
157 178 0
153 174 0
158 181 0
159 180 0
159 179 0
157 178 0
152 173 0
164 185 0
156 179 0
159 179 0
154 176 0
155 176 0
156 176 0
159 182 0
150 172 0
155 177 0
159 181 0
159 180 0
158 178 0
158 177 0
156 178 0
163 183 0
154 173 0
155 175 0
154 175 0
160 181 0
156 178 0
160 182 0
157 178 0
159 180 0
165 187 0
155 176 0
164 186 0
162 183 0
161 183 0
167 187 0
165 186 0
156 179 0
164 186 0
166 188 0
159 180 0
157 178 0
160 180 0
165 187 0
157 176 0
161 182 0
164 184 0
167 188 0
166 188 0
163 184 0
161 181 0
163 184 0
165 188 0
164 185 0
167 187 0
162 183 0
165 188 0
166 188 0
167 190 0
165 187 0
161 184 0
164 185 0
162 182 0
170 190 0
160 179 0
164 186 0
165 186 0
166 188 0
161 182 0
163 184 0
167 187 0
168 190 0
163 185 0
164 186 0
165 186 0
159 180 0
166 189 0
160 180 0
158 179 0
170 191 0
166 185 0
161 184 0
167 189 0
164 185 0
168 190 0
168 190 0
167 189 0
164 185 0
164 186 0
163 182 0
164 185 0
163 183 0
165 186 0
163 186 0
166 188 0
177 200 99
175 197 102
171 194 105
173 196 105
171 194 92
168 192 72
174 198 95
173 195 99
172 194 95
170 192 88
174 197 92
172 195 105
167 191 92
173 196 99
171 194 95
173 196 99
169 192 95
167 190 88
174 197 92
168 191 88
167 190 84
172 196 117
168 192 114
165 189 92
168 191 84
171 195 102
169 192 99
167 190 102
175 199 111
164 187 84
171 194 92
170 194 105
170 193 80
168 192 76
166 189 80
166 189 84
164 187 80
168 192 105
162 185 92
168 192 95
168 192 99
168 191 108
166 191 108
167 190 99
162 185 57
163 187 92
165 188 92
163 187 102
162 186 108
167 190 84
165 188 105
164 187 102
161 184 95
164 186 95
162 185 108
162 185 80
168 192 92
161 184 95
161 184 76
163 186 102
163 186 117
158 182 108
161 184 92
162 184 108
163 186 102
165 188 105
158 181 117
164 187 95
155 177 88
159 181 105
160 182 95
162 183 102
168 190 103
169 191 111
164 186 88
157 179 76
155 177 76
152 175 76
158 179 99
164 186 84
158 180 88
164 185 88
159 182 88
161 183 120
154 176 102
158 180 76
162 183 84
157 178 120
152 173 84
160 180 92
158 179 80
152 173 99
157 178 105
155 176 95
147 167 80
151 172 95
159 179 84
157 178 99
153 173 92
151 171 92
150 170 80
156 176 99
151 170 99
145 165 92
148 168 76
152 170 117
152 171 92
147 165 99
148 169 99
143 161 95
137 156 76
141 161 80
149 169 80
141 160 80
139 159 62
138 157 67
142 162 72
136 155 62
143 163 76
141 160 62
135 154 51
139 158 51
123 142 44
131 152 25
119 137 36
135 153 36
132 152 51
144 164 36
139 159 25
148 168 25
143 163 25
136 157 25
144 165 0
139 161 0
143 163 0
147 168 0
138 159 25
138 158 0
137 156 0
137 158 0
141 161 0
150 171 0
142 163 0
128 146 0
136 157 0
129 149 0
125 145 0
133 152 0
127 148 0
132 152 0
129 147 0
131 150 0
113 133 0
131 151 0
128 147 0
123 142 0
129 148 0
134 153 0
108 126 0
131 150 0
127 145 0
124 142 0
101 120 0
117 136 0
119 138 0
131 150 0
122 141 0
118 136 0
118 137 0
117 136 0
110 128 0
120 138 0
124 142 0
111 128 0
129 148 0
97 115 0
119 138 0
111 131 0
110 127 0
123 142 0
112 131 0
121 138 0
120 138 0
123 141 0
118 137 0
127 145 0
124 143 0
120 139 0
124 143 0
124 142 0
120 140 0
120 137 0
134 153 0
129 147 0
113 132 0
125 146 0
121 140 0
121 140 0
120 139 0
115 134 0
118 137 0
122 141 0
112 131 0
131 150 0
116 135 0
135 156 0
122 144 0
127 146 0
119 138 0
125 144 0
126 146 0
113 131 0
127 146 0
123 143 0
130 150 0
126 146 0
124 144 0
133 152 0
132 151 0
123 141 0
134 153 0
118 138 0
128 148 0
138 159 0
131 150 0
140 161 0
131 150 0
134 153 0
128 146 0
128 148 0
138 156 0
135 155 0
135 155 0
136 157 0
141 161 0
135 156 0
138 158 0
143 163 0
139 160 0
131 152 0
140 161 0
139 158 0
138 159 0
134 156 0
142 162 0
140 160 0
134 155 0
140 160 0
140 161 0
147 168 0
142 164 0
133 153 0
141 163 0
146 168 0
140 160 0
142 163 0
143 164 0
143 162 0
144 165 0
139 160 0
142 162 0
146 167 0
150 171 0
142 162 0
142 163 0
151 172 0
143 164 0
149 169 0
152 174 0
151 171 0
148 169 0
153 174 0
147 169 0
154 176 0
143 164 0
147 168 0
154 175 0
153 174 0
146 166 0
152 172 0
145 166 0
153 175 0
156 177 0
152 172 0
151 170 0
158 179 0
149 170 0
149 169 0
155 175 0
152 172 0
156 176 0
158 181 0
149 170 0
155 177 0
153 174 0
153 175 0
159 180 0
151 171 0
154 175 0
154 176 0
161 184 0
154 174 0
148 170 0
154 175 0
156 176 0
152 173 0
150 172 0
152 173 0
156 177 0
157 179 0
160 181 0
154 175 0
160 181 0
155 174 0
154 175 0
156 177 0
151 172 0
157 177 0
155 175 0
150 171 0
157 178 0
159 179 0
160 178 0
160 181 0
165 188 0
163 185 0
159 180 0
162 184 0
151 172 0
162 183 0
167 189 0
158 180 0
153 173 0
161 183 0
155 175 0
162 184 0
161 182 0
162 183 0
163 185 0
162 184 0
158 180 0
160 182 0
159 179 0
159 181 0
153 173 0
161 184 0
163 185 0
161 182 0
164 186 0
158 180 0
159 181 0
166 188 0
165 186 0
157 179 0
166 188 0
162 183 0
160 181 0
158 180 0
163 185 0
161 182 0
163 182 0
158 179 0
162 184 0
166 188 0
168 189 0
165 188 0
166 189 0
164 186 0
164 186 0
158 179 0
163 184 0
164 186 0
162 182 0
162 184 0
168 190 0
161 181 0
162 183 0
166 187 0
165 188 0
167 189 0
167 189 0
166 188 0
165 186 0
165 186 0
167 189 0
168 191 0
169 191 0
168 190 0
169 192 0
165 186 0
161 183 0
167 189 0
170 189 0
166 187 0
167 190 0
162 184 0
168 191 0
167 189 0
166 188 0
169 191 0
170 194 84
173 196 88
176 199 88
172 196 111
175 198 95
174 197 76
172 195 111
175 199 105
173 196 102
172 194 88
171 194 95
173 196 102
173 196 92
172 196 95
170 195 84
170 193 88
176 200 111
164 187 88
169 193 84
167 190 108
169 192 108
170 194 88
168 191 102
168 191 99
166 189 67
172 196 80
166 190 95
169 193 108
170 193 105
163 187 105
166 190 111
172 196 120
163 187 95
168 191 114
171 195 92
162 185 67
165 188 102
163 186 99
172 195 108
165 188 88
170 193 84
171 195 108
164 187 99
165 188 92
168 191 88
163 186 92
159 182 84
169 191 92
161 184 72
165 188 99
163 186 92
162 185 108
159 183 105
162 185 92
160 183 99
164 187 99
165 188 117
165 188 88
158 181 80
161 183 111
161 185 76
165 188 95
167 189 108
156 178 88
163 185 84
169 192 95
158 180 99
158 180 102
163 185 80
166 188 84
161 184 111
159 182 84
155 178 99
162 184 84
162 184 111
160 183 80
165 188 111
156 177 99
159 180 99
151 173 80
159 181 99
162 183 88
147 169 92
161 183 95
155 177 92
160 181 92
157 178 105
164 184 95
156 177 108
157 178 88
153 174 95
156 177 80
159 181 114
156 176 108
152 172 105
161 182 102
157 177 99
153 174 92
159 179 114
159 178 117
160 180 105
142 162 99
173 193 127
145 164 105
147 166 99
151 171 102
151 170 92
154 173 92
163 181 117
140 159 76
139 158 76
145 165 67
144 163 88
149 168 88
141 161 36
134 153 72
138 156 51
135 156 51
141 160 57
137 156 51
128 148 44
130 149 57
126 146 25
148 168 51
141 161 44
131 151 36
147 167 44
129 149 36
138 159 25
126 146 0
139 158 25
134 154 0
151 171 25
139 160 0
136 157 0
147 169 0
144 164 25
147 169 0
147 169 0
131 152 0
142 162 0
138 158 0
131 151 0
138 158 0
127 146 0
131 152 0
131 151 0
127 147 0
135 154 0
132 153 0
143 163 0
135 153 0
132 151 0
127 147 0
137 155 0
133 153 0
129 149 0
127 147 0
123 142 0
121 140 0
131 151 0
130 149 0
117 135 0
127 147 0
124 143 0
107 126 0
124 143 0
124 143 0
121 140 0
126 145 0
113 133 0
123 141 0
114 133 0
118 137 0
117 134 0
124 142 0
126 143 0
126 145 0
124 144 0
119 137 0
112 130 0
120 139 0
114 133 0
123 142 0
127 146 0
114 133 0
113 131 0
123 142 0
123 142 0
133 153 0
119 138 0
131 150 0
122 142 0
115 134 0
129 148 0
125 144 0
119 139 0
122 142 0
119 139 0
142 161 0
128 148 0
132 151 0
124 143 0
127 145 0
134 154 0
101 120 0
127 146 0
124 144 0
129 146 0
115 133 0
123 141 0
122 142 0
122 142 0
126 145 0
128 148 0
133 152 0
128 147 0
128 148 0
138 158 0
131 151 0
144 165 0
136 157 0
135 155 0
135 156 0
133 152 0
138 158 0
135 156 0
131 151 0
127 148 0
137 158 0
139 159 0
134 153 0
147 169 0
127 149 0
138 159 0
138 159 0
130 150 0
132 151 0
144 165 0
132 152 0
146 167 0
144 164 0
132 152 0
138 160 0
142 162 0
137 156 0
141 161 0
152 171 0
147 167 0
135 155 0
144 165 0
143 163 0
136 157 0
140 161 0
141 161 0
147 168 0
139 158 0
150 172 0
143 162 0
143 164 0
152 173 0
150 171 0
146 167 0
145 167 0
142 162 0
144 165 0
144 165 0
146 165 0
142 164 0
143 165 0
155 176 0
148 167 0
157 179 0
153 173 0
154 175 0
147 168 0
152 174 0
153 175 0
147 169 0
149 171 0
157 178 0
150 171 0
154 174 0
151 172 0
151 172 0
151 172 0
148 170 0
155 177 0
154 176 0
147 169 0
156 177 0
147 166 0
150 172 0
150 172 0
149 168 0
153 174 0
152 173 0
151 169 0
152 172 0
148 167 0
146 166 0
150 170 0
157 178 0
159 180 0
153 174 0
160 182 0
155 177 0
157 179 0
155 174 0
156 177 0
152 172 0
152 173 0
158 180 0
162 182 0
158 181 0
151 172 0
155 175 0
157 178 0
155 176 0
162 182 0
159 180 0
159 181 0
154 175 0
155 176 0
161 183 0
154 175 0
154 173 0
163 184 0
158 180 0
159 180 0
154 173 0
156 175 0
157 178 0
157 178 0
164 185 0
163 185 0
158 179 0
159 179 0
161 182 0
156 177 0
159 181 0
166 187 0
160 183 0
158 179 0
160 180 0
159 180 0
159 179 0
157 179 0
156 176 0
159 181 0
158 180 0
162 184 0
161 180 0
162 183 0
160 181 0
163 184 0
162 183 0
158 180 0
162 184 0
160 181 0
164 187 0
168 190 0
156 178 0
161 183 0
161 183 0
163 185 0
165 187 0
165 186 0
166 188 0
161 182 0
164 186 0
159 181 0
164 186 0
165 187 0
161 183 0
163 185 0
166 188 0
165 185 0
163 182 0
162 184 0
162 184 0
163 185 0
163 185 0
164 186 0
168 191 0
160 181 0
166 187 0
170 192 0
165 187 0
165 187 0
162 183 0
160 181 0
164 186 0
163 184 0
169 192 0
170 191 0
164 186 0
167 189 0
171 193 0
162 185 0
174 196 102
170 193 92
177 199 102
174 196 95
168 191 92
175 197 114
173 196 105
176 199 114
164 187 76
168 191 102
172 195 99
170 194 80
174 197 99
168 191 105
173 196 88
167 191 95
166 189 72
174 197 102
172 195 122
170 194 111
169 193 120
174 198 99
171 194 99
171 194 92
171 195 102
168 191 99
163 186 99
172 195 108
170 193 102
168 191 92
170 194 105
172 196 102
169 192 99
170 193 111
170 193 102
165 188 108
169 193 105
165 188 67
166 189 76
163 185 84
166 189 102
158 182 76
167 189 80
169 193 108
164 187 102
159 183 88
166 189 111
160 183 67
166 190 102
164 188 99
165 188 80
160 183 99
156 179 92
164 186 92
163 186 92
164 187 114
165 189 114
166 189 76
165 189 92
162 185 99
159 183 84
165 188 105
164 186 102
158 181 105
155 176 92
158 181 72
157 180 92
153 175 76
159 182 80
158 180 88
163 185 80
167 190 114
161 183 108
157 178 76
162 184 99
160 182 99
162 184 99
167 189 114
163 184 95
159 181 76
158 181 92
149 170 62
153 175 57
157 178 80
153 174 88
160 182 117
161 182 95
161 182 114
164 185 117
158 178 105
149 170 88
163 184 99
161 182 88
155 175 102
159 179 105
157 177 114
148 169 80
155 175 95
155 175 92
154 173 105
158 178 120
161 181 105
146 167 84
149 170 88
148 166 105
155 175 95
151 170 92
153 172 88
154 174 95
157 175 111
159 177 95
148 167 92
135 156 44
147 165 84
149 167 76
138 157 67
137 158 57
143 162 57
146 166 67
130 151 36
129 150 25
145 165 62
137 157 51
137 155 57
135 155 62
148 169 36
142 162 44
140 160 25
133 154 36
145 165 25
145 165 25
145 166 0
149 170 25
148 168 25
146 168 0
147 169 0
139 158 0
142 161 0
147 169 0
134 154 0
141 161 0
149 169 0
139 160 0
133 154 0
137 156 0
139 161 0
139 158 0
132 151 0
133 154 0
131 151 0
125 146 0
131 150 0
133 153 0
119 139 0
133 152 0
129 149 0
121 141 0
127 147 0
115 135 0
123 141 0
116 136 0
111 130 0
118 137 0
110 129 0
130 151 0
122 141 0
125 144 0
129 149 0
138 158 0
117 135 0
120 140 0
117 136 0
128 146 0
124 142 0
125 144 0
124 143 0
119 138 0
124 143 0
125 144 0
116 135 0
121 140 0
120 138 0
115 135 0
117 135 0
129 148 0
125 145 0
126 146 0
128 148 0
125 145 0
129 148 0
120 140 0
121 140 0
114 132 0
124 143 0
121 141 0
131 150 0
123 142 0
137 157 0
124 142 0
118 138 0
124 143 0
116 135 0
136 155 0
127 145 0
123 143 0
128 148 0
128 147 0
128 148 0
132 151 0
127 147 0
123 143 0
133 152 0
125 145 0
127 147 0
126 146 0
129 148 0
137 157 0
137 155 0
140 160 0
137 157 0
129 150 0
139 160 0
137 158 0
133 153 0
135 155 0
139 158 0
134 155 0
138 158 0
123 144 0
140 160 0
129 149 0
141 162 0
136 157 0
141 162 0
131 150 0
136 157 0
136 156 0
141 162 0
135 155 0
131 151 0
143 163 0
138 157 0
145 166 0
147 168 0
134 154 0
151 171 0
144 165 0
139 160 0
140 160 0
139 159 0
137 157 0
144 163 0
137 157 0
141 160 0
144 165 0
137 158 0
140 161 0
146 167 0
145 166 0
145 165 0
147 168 0
140 161 0
146 165 0
143 163 0
148 169 0
155 175 0
149 169 0
150 170 0
147 167 0
145 165 0
146 166 0
149 169 0
150 171 0
151 171 0
148 169 0
149 171 0
151 173 0
147 167 0
151 172 0
148 169 0
144 163 0
154 175 0
149 170 0
147 166 0
157 178 0
150 172 0
147 169 0
148 170 0
154 174 0
155 176 0
156 177 0
151 174 0
157 180 0
150 171 0
152 174 0
156 177 0
151 171 0
153 173 0
161 182 0
153 173 0
156 178 0
156 177 0
154 175 0
159 179 0
153 173 0
151 174 0
153 173 0
158 178 0
158 179 0
159 180 0
159 180 0
159 180 0
167 188 0
158 181 0
157 179 0
160 180 0
159 180 0
159 181 0
155 176 0
157 178 0
162 183 0
156 177 0
158 179 0
160 183 0
162 182 0
156 177 0
159 180 0
162 183 0
157 178 0
164 186 0
155 177 0
159 180 0
154 173 0
159 180 0
165 187 0
158 179 0
161 183 0
165 185 0
162 182 0
160 182 0
158 177 0
167 189 0
154 174 0
158 179 0
168 189 0
161 182 0
160 181 0
157 178 0
162 183 0
165 186 0
161 183 0
165 186 0
167 191 0
165 189 0
168 190 0
159 181 0
164 184 0
164 184 0
163 186 0
157 179 0
160 181 0
161 183 0
163 186 0
163 185 0
163 183 0
161 181 0
162 185 0
166 189 0
162 182 0
163 184 0
161 182 0
164 184 0
162 185 0
163 184 0
168 191 0
167 189 0
167 190 0
163 185 0
160 182 0
165 183 0
165 187 0
163 186 0
164 186 0
168 190 0
165 187 0
164 185 0
165 186 0
158 180 0
165 186 0
166 189 0
166 188 0
161 182 0
171 193 0
170 193 0
166 188 0
169 190 0
165 187 0
168 190 0
167 189 0
165 188 0
174 196 92
172 195 102
171 194 95
176 199 108
170 194 80
175 198 88
172 194 117
171 194 84
172 195 111
171 195 99
174 198 102
172 195 92
171 194 88
172 195 92
173 196 130
171 194 92
167 191 72
169 193 84
174 198 92
166 189 67
170 193 114
172 196 114
171 194 88
170 194 99
170 194 102
163 186 95
172 194 80
171 195 99
172 195 117
168 191 67
167 190 76
167 190 80
170 194 108
169 192 92
167 190 95
161 185 92
164 187 88
169 193 105
169 192 88
166 189 102
170 193 114
167 190 108
162 185 92
163 186 108
166 189 105
161 185 88
167 191 99
166 190 102
169 192 102
168 191 95
162 185 99
168 191 125
165 188 99
163 187 114
165 187 88
164 186 99
166 189 88
163 186 88
161 182 105
166 188 111
164 187 108
161 184 92
163 187 95
164 187 76
157 180 102
162 185 102
163 185 99
158 180 88
169 192 114
162 185 102
159 182 105
156 178 92
167 188 72
164 186 108
162 184 92
162 185 76
158 180 95
165 187 102
159 180 84
161 183 105
161 183 92
156 178 105
152 173 84
153 175 105
158 180 99
161 183 95
170 191 111
166 186 117
148 168 84
151 173 92
157 178 102
146 168 92
160 181 95
153 173 95
160 181 95
150 170 80
149 171 72
154 174 102
154 175 95
152 172 92
153 173 84
150 169 105
151 171 84
154 174 105
163 183 114
153 173 99
157 176 108
161 180 111
155 175 99
160 179 108
150 169 76
144 163 84
147 167 72
146 166 51
145 164 76
134 154 57
141 161 72
141 161 67
130 149 44
135 154 51
137 157 36
128 148 25
136 156 36
139 160 36
140 160 44
135 156 0
135 153 51
138 159 36
140 159 36
154 174 0
149 170 0
146 166 0
147 167 25
142 162 0
147 168 0
142 163 0
147 168 0
146 168 25
137 157 0
139 159 0
143 164 0
126 146 0
141 163 0
149 170 0
137 157 0
132 153 0
139 159 0
118 138 0
132 152 0
131 151 0
130 150 0
126 147 0
131 150 0
134 154 0
132 152 0
127 146 0
131 150 0
122 142 0
123 143 0
123 141 0
117 135 0
123 141 0
122 142 0
131 151 0
128 147 0
119 138 0
132 151 0
127 146 0
126 146 0
129 150 0
120 138 0
127 146 0
119 139 0
128 147 0
116 136 0
106 126 0
132 150 0
126 145 0
114 134 0
114 131 0
131 150 0
120 139 0
121 141 0
114 133 0
126 145 0
118 137 0
116 135 0
120 140 0
117 136 0
121 141 0
142 161 0
127 147 0
125 145 0
115 135 0
131 151 0
128 147 0
132 152 0
130 149 0
133 153 0
121 138 0
127 147 0
121 140 0
125 145 0
127 149 0
127 147 0
131 150 0
126 145 0
128 147 0
124 146 0
136 156 0
144 165 0
141 159 0
127 147 0
133 155 0
128 146 0
120 138 0
130 151 0
133 155 0
135 156 0
129 149 0
132 152 0
141 162 0
126 145 0
128 148 0
134 155 0
135 154 0
131 152 0
136 156 0
136 157 0
142 163 0
136 156 0
134 154 0
141 162 0
139 159 0
134 154 0
145 166 0
144 164 0
137 158 0
136 156 0
135 155 0
137 157 0
138 157 0
133 152 0
142 162 0
143 164 0
139 160 0
143 164 0
136 157 0
140 161 0
137 160 0
135 155 0
137 159 0
145 166 0
132 152 0
146 166 0
135 154 0
140 161 0
147 168 0
146 165 0
143 164 0
157 176 0
144 165 0
143 163 0
153 174 0
146 167 0
138 157 0
152 173 0
151 171 0
148 167 0
148 170 0
144 165 0
148 169 0
152 173 0
137 158 0
154 174 0
146 168 0
149 170 0
148 168 0
147 168 0
147 168 0
150 171 0
154 177 0
146 166 0
155 175 0
148 168 0
155 176 0
146 168 0
158 180 0
145 165 0
149 171 0
149 170 0
143 163 0
150 170 0
156 178 0
146 167 0
144 165 0
151 173 0
154 175 0
161 183 0
161 182 0
152 173 0
150 170 0
153 174 0
156 177 0
151 173 0
155 174 0
155 176 0
159 182 0
157 178 0
162 182 0
158 178 0
159 179 0
156 176 0
157 177 0
153 174 0
158 178 0
154 175 0
162 182 0
159 180 0
157 178 0
159 180 0
163 184 0
158 181 0
163 184 0
151 171 0
164 186 0
161 182 0
160 181 0
162 182 0
157 179 0
160 181 0
156 175 0
163 184 0
158 181 0
161 184 0
159 179 0
159 182 0
164 187 0
155 177 0
156 176 0
162 184 0
159 181 0
162 185 0
157 178 0
164 183 0
167 188 0
164 185 0
157 178 0
162 183 0
162 183 0
161 180 0
163 185 0
159 180 0
161 182 0
163 184 0
164 188 0
166 189 0
165 187 0
165 188 0
163 183 0
165 187 0
165 186 0
158 178 0
164 184 0
158 180 0
167 189 0
160 181 0
160 181 0
165 188 0
168 191 0
167 189 0
167 188 0
167 191 0
161 182 0
162 184 0
167 190 0
165 186 0
165 186 0
161 182 0
167 187 0
164 184 0
167 188 0
167 188 0
168 190 0
164 185 0
163 186 0
165 186 0
163 186 0
166 188 0
165 187 0
163 184 0
167 186 0
165 188 0
170 192 0
167 189 0
165 186 0
168 189 0
161 182 0
169 191 0
167 189 0
170 193 99
175 198 99
172 195 105
170 193 84
169 193 99
176 198 105
172 195 84
169 191 88
170 193 84
171 195 99
170 193 95
176 199 108
167 190 88
172 196 102
175 197 108
173 197 92
166 190 105
173 197 92
171 194 95
175 198 120
173 196 95
169 193 76
168 191 102
169 192 92
165 189 84
164 187 105
166 189 80
172 195 84
166 189 92
165 188 88
163 186 92
170 194 108
167 191 105
167 190 88
162 185 76
168 192 108
171 193 88
165 188 108
166 190 95
171 193 108
163 186 102
168 191 84
167 191 108
163 186 80
163 187 99
160 183 88
169 192 88
157 181 76
162 185 72
159 182 99
165 188 76
159 181 76
157 180 84
164 187 99
165 188 102
169 192 99
158 180 105
167 190 102
163 185 80
159 182 108
167 191 102
163 186 95
156 179 72
158 180 84
152 174 80
161 183 95
162 185 92
163 185 80
156 177 76
156 179 76
157 180 99
166 188 102
164 187 99
165 186 80
153 175 51
162 184 108
159 181 95
161 182 108
151 173 76
152 173 95
161 183 99
156 178 92
161 182 108
164 184 111
154 176 95
160 182 95
160 182 114
166 188 108
162 183 95
161 182 99
162 183 105
150 171 88
161 182 105
146 167 72
157 178 95
151 170 92
157 177 95
146 166 99
155 175 95
157 177 102
156 177 102
155 175 102
155 174 84
147 166 88
159 178 125
145 165 76
147 166 84
138 158 44
159 179 95
151 171 99
140 160 72
148 168 84
149 168 80
150 170 80
147 166 62
141 161 72
142 162 62
150 171 62
150 170 51
147 166 62
135 156 36
138 159 51
144 165 51
134 154 36
141 162 36
136 157 36
138 159 36
140 162 0
146 165 51
147 168 0
149 170 0
132 152 0
148 171 0
142 163 25
153 174 25
141 160 0
146 167 0
145 165 0
148 169 0
143 165 0
136 157 0
145 165 0
150 171 0
132 153 0
140 161 0
137 157 0
137 157 0
141 161 0
133 153 0
135 155 0
124 144 0
131 151 0
127 146 0
140 159 0
136 155 0
134 153 0
127 145 0
122 143 0
141 161 0
126 146 0
131 151 0
126 145 0
124 143 0
125 144 0
118 137 0
130 149 0
124 142 0
136 155 0
132 152 0
135 155 0
127 146 0
118 137 0
132 153 0
119 137 0
123 143 0
111 130 0
128 145 0
123 142 0
121 139 0
130 149 0
119 138 0
127 147 0
124 144 0
133 152 0
125 143 0
125 145 0
124 144 0
117 135 0
123 142 0
133 153 0
130 150 0
123 143 0
128 148 0
132 152 0
123 143 0
129 149 0
131 150 0
133 152 0
129 149 0
125 144 0
140 161 0
127 146 0
130 149 0
124 144 0
119 138 0
131 150 0
139 159 0
124 143 0
126 148 0
135 156 0
128 147 0
131 151 0
140 160 0
128 148 0
130 151 0
131 150 0
136 156 0
137 159 0
125 145 0
128 149 0
147 167 0
136 157 0
137 157 0
132 153 0
138 158 0
134 155 0
137 157 0
143 163 0
141 162 0
134 153 0
142 162 0
143 163 0
138 160 0
139 159 0
124 143 0
134 155 0
134 152 0
136 157 0
140 161 0
150 171 0
147 166 0
138 158 0
142 163 0
134 155 0
135 155 0
145 167 0
142 164 0
138 159 0
147 168 0
145 167 0
141 162 0
147 167 0
148 169 0
143 162 0
137 159 0
148 169 0
148 169 0
141 161 0
145 166 0
144 165 0
142 162 0
137 157 0
148 168 0
145 165 0
155 176 0
150 172 0
151 171 0
146 168 0
151 173 0
149 170 0
150 170 0
149 169 0
143 164 0
148 169 0
151 173 0
144 165 0
147 166 0
151 172 0
146 167 0
154 175 0
147 168 0
158 180 0
149 170 0
153 172 0
156 178 0
151 171 0
160 181 0
151 173 0
156 178 0
153 173 0
155 177 0
151 172 0
154 176 0
151 171 0
154 175 0
156 176 0
159 181 0
153 174 0
154 174 0
159 179 0
164 185 0
160 180 0
154 176 0
154 174 0
158 180 0
154 176 0
151 173 0
157 177 0
147 170 0
163 184 0
153 175 0
154 175 0
156 178 0
156 177 0
160 181 0
150 170 0
159 180 0
159 182 0
155 175 0
159 181 0
160 181 0
161 183 0
158 179 0
158 179 0
158 179 0
155 177 0
161 183 0
163 183 0
163 186 0
162 183 0
156 178 0
166 189 0
156 177 0
157 178 0
160 180 0
156 176 0
164 185 0
165 187 0
160 181 0
162 183 0
162 186 0
165 187 0
165 186 0
165 188 0
158 179 0
160 181 0
165 185 0
161 182 0
155 176 0
156 177 0
168 191 0
160 181 0
162 185 0
163 185 0
160 181 0
162 183 0
155 176 0
164 186 0
164 186 0
164 186 0
167 189 0
165 187 0
164 184 0
162 183 0
159 180 0
167 188 0
158 179 0
164 183 0
164 186 0
168 189 0
163 186 0
167 189 0
164 185 0
165 187 0
162 185 0
159 179 0
165 186 0
168 190 0
168 191 0
166 187 0
165 186 0
167 188 0
165 186 0
156 177 0
166 188 0
163 185 0
164 186 0
164 186 0
164 185 0
170 191 0
170 193 0
165 188 0
166 189 0
164 184 0
163 185 0
167 188 0
168 191 0
167 189 0
168 189 0
161 183 0
175 198 99
175 198 102
171 195 92
172 195 92
172 195 92
177 200 111
169 193 80
170 194 102
170 193 92
170 193 88
172 195 88
171 194 88
169 192 108
173 196 92
170 193 92
170 194 111
170 193 111
176 199 105
171 194 120
170 194 80
170 193 84
168 191 102
167 190 99
162 185 105
161 184 67
167 190 102
168 191 88
165 189 102
171 195 88
166 190 108
172 195 117
168 191 114
174 196 111
168 191 95
166 190 92
172 195 105
161 183 88
160 184 80
169 192 105
163 187 114
167 190 84
166 190 80
163 186 80
163 185 92
162 185 80
163 187 99
166 189 108
166 189 108
166 189 105
170 193 92
162 185 84
163 186 99
164 187 84
166 189 108
167 190 114
167 191 99
159 181 92
163 186 105
165 188 99
158 180 92
169 192 108
167 190 102
159 181 99
161 184 111
162 184 62
160 183 95
157 180 80
167 189 108
160 182 108
161 184 84
163 185 102
156 179 88
160 183 95
158 180 99
166 187 111
169 190 120
163 185 105
163 184 111
155 177 57
158 180 80
160 182 102
159 181 99
161 183 111
158 179 111
162 184 95
157 179 84
163 184 108
157 177 80
158 179 108
164 185 105
156 177 99
155 175 102
165 186 95
158 177 114
162 182 111
162 182 102
156 176 95
162 182 92
160 181 108
154 175 99
156 176 102
153 172 88
157 177 99
153 174 76
150 170 80
152 172 72
150 170 88
160 180 105
153 172 105
153 173 92
142 163 57
154 175 76
147 166 67
150 170 84
151 171 72
144 164 72
131 150 51
139 159 67
151 171 57
141 162 0
139 158 44
134 155 51
135 154 36
146 166 57
138 159 51
145 166 0
135 156 36
138 158 25
140 162 25
155 175 25
143 165 0
139 161 0
151 173 0
133 154 0
144 167 0
150 171 0
139 159 0
139 162 0
146 166 0
151 172 0
147 168 0
145 166 0
143 163 0
141 162 0
137 159 0
143 164 0
139 159 0
135 156 0
120 141 0
133 154 0
141 162 0
128 148 0
124 143 0
135 156 0
136 156 0
128 148 0
129 149 0
129 148 0
136 157 0
130 150 0
125 145 25
133 154 0
132 152 0
134 154 0
118 137 0
131 151 0
131 151 0
122 142 0
133 152 0
124 144 0
126 146 0
130 148 0
134 154 0
136 156 0
131 150 0
134 154 0
120 140 0
128 146 0
118 138 0
129 149 0
123 143 0
135 155 0
118 138 0
119 139 0
134 153 0
131 151 0
129 150 0
134 153 0
134 154 0
126 145 0
132 152 0
122 143 0
116 135 0
127 146 0
136 155 0
132 152 0
117 136 0
132 151 0
134 154 0
131 152 0
130 149 0
132 152 0
122 142 0
130 148 0
132 153 0
131 151 0
130 151 0
132 152 0
129 151 0
136 157 0
126 146 0
132 153 0
139 158 0
133 153 0
132 153 0
128 149 0
131 151 0
135 156 0
127 147 0
138 157 0
143 165 0
128 148 0
125 145 0
141 161 0
138 157 0
138 156 0
147 168 0
135 156 0
140 160 0
139 159 0
144 164 0
129 148 0
134 152 0
135 156 0
138 159 0
134 155 0
142 164 0
130 151 0
141 160 0
153 173 0
134 155 0
140 161 0
150 171 0
138 158 0
135 155 0
144 164 0
146 167 0
134 154 0
147 168 0
149 169 0
147 168 0
135 156 0
140 160 0
148 169 0
151 172 0
146 167 0
140 161 0
138 158 0
147 168 0
149 170 0
149 170 0
139 160 0
144 164 0
144 165 0
141 162 0
141 162 0
149 169 0
146 168 0
150 172 0
151 173 0
144 165 0
149 170 0
145 166 0
154 173 0
155 175 0
156 177 0
143 164 0
148 170 0
152 174 0
141 161 0
144 166 0
148 170 0
150 172 0
158 180 0
148 169 0
150 170 0
156 178 0
159 181 0
154 174 0
158 179 0
147 169 0
160 183 0
150 171 0
155 176 0
161 184 0
154 175 0
158 179 0
152 175 0
154 175 0
159 181 0
149 171 0
154 174 0
157 180 0
158 179 0
160 183 0
154 176 0
156 178 0
160 182 0
159 180 0
159 180 0
158 181 0
160 181 0
154 176 0
159 180 0
155 177 0
163 184 0
159 180 0
161 183 0
159 179 0
154 176 0
156 177 0
155 175 0
160 182 0
154 177 0
159 181 0
157 178 0
156 177 0
153 174 0
162 183 0
160 181 0
161 184 0
160 181 0
164 186 0
163 185 0
163 184 0
161 183 0
159 180 0
164 186 0
161 183 0
160 182 0
165 187 0
165 186 0
161 181 0
160 181 0
161 182 0
158 178 0
161 184 0
164 187 0
159 182 0
165 186 0
169 191 0
158 179 0
165 188 0
160 182 0
164 186 0
169 189 0
165 188 0
163 185 0
163 185 0
166 187 0
162 184 0
164 185 0
166 189 0
157 178 0
160 182 0
166 188 0
165 187 0
166 187 0
167 188 0
163 185 0
164 186 0
164 184 0
166 188 0
166 186 0
163 184 0
163 186 0
169 191 0
159 181 0
170 192 0
162 183 0
165 185 0
167 189 0
167 188 0
165 188 0
162 182 0
167 188 0
165 188 0
164 186 0
163 184 0
165 187 0
161 182 0
171 194 0
162 185 0
164 186 0
159 181 0
165 186 0
164 184 0
162 184 0
165 187 0
161 183 0
178 200 95
173 195 67
172 195 72
171 194 99
175 198 102
172 195 105
180 202 120
171 194 76
176 199 80
170 193 102
174 198 99
173 196 102
172 195 84
171 194 102
173 196 88
169 192 105
168 191 72
174 197 114
169 192 76
166 189 88
169 192 105
165 188 84
171 194 102
170 193 92
167 189 88
170 193 84
168 192 114
169 192 88
165 189 102
169 192 102
161 184 62
168 191 95
169 192 111
172 194 72
171 194 105
165 189 99
166 189 84
170 193 114
170 194 125
169 192 105
167 190 102
169 192 72
160 184 80
160 183 88
168 191 99
159 182 92
164 187 84
164 186 95
169 192 111
170 193 127
162 185 99
166 189 111
163 186 95
157 179 88
157 180 99
169 192 95
157 181 92
159 182 117
162 186 108
166 189 108
171 193 117
157 180 99
166 189 95
163 185 102
158 179 99
157 180 88
165 186 76
170 192 99
159 181 108
152 175 95
159 181 84
162 184 105
161 182 102
160 182 95
166 187 99
172 194 108
161 183 92
160 182 92
158 180 114
160 183 92
160 182 95
157 178 117
161 183 105
160 182 80
156 177 92
157 179 88
159 182 92
155 176 80
161 182 102
153 175 102
161 181 88
163 183 99
154 175 102
154 174 88
168 188 117
144 165 80
160 181 102
146 166 76
155 176 95
151 173 80
157 178 99
152 172 84
155 175 88
156 175 105
151 171 92
153 173 92
148 170 57
151 171 95
158 177 102
151 170 95
147 168 80
149 169 80
153 173 72
153 173 92
147 168 57
138 157 57
150 169 57
157 178 67
136 155 44
147 167 57
141 161 36
132 151 44
143 165 25
141 162 36
141 162 44
140 160 51
144 164 51
137 159 25
146 167 36
140 160 44
144 165 25
145 166 0
147 168 25
150 171 0
146 168 0
145 166 0
149 170 0
143 164 0
152 174 0
137 158 0
143 164 0
142 164 0
144 165 0
148 169 0
130 151 0
142 163 0
142 164 0
137 157 0
130 149 0
134 155 0
135 155 0
138 159 0
134 154 0
125 145 0
126 145 0
138 158 0
135 156 0
121 140 0
120 140 0
125 144 0
128 147 0
120 140 0
112 132 0
117 137 0
133 153 0
121 142 0
126 147 0
137 156 0
131 151 0
134 153 0
133 153 0
127 147 0
124 144 0
122 141 0
118 138 0
123 143 0
127 145 0
123 143 0
117 137 0
125 145 0
125 145 0
126 146 0
128 148 0
118 136 0
128 148 0
126 146 0
134 153 0
127 147 0
128 148 0
130 150 0
132 152 0
121 141 0
122 142 0
119 139 0
137 156 0
136 156 0
133 152 0
123 142 0
120 140 0
131 152 0
128 147 0
122 143 0
132 153 0
138 158 0
129 150 0
127 148 0
130 150 0
127 146 0
131 151 0
124 144 0
135 156 0
130 149 0
138 159 0
132 152 0
132 152 0
136 155 0
130 151 0
142 163 0
143 163 0
141 164 0
144 165 0
128 149 0
129 147 0
138 158 0
135 156 0
138 158 0
139 159 0
144 164 0
135 156 0
146 168 0
137 158 0
129 149 0
138 157 0
140 160 0
137 158 0
147 168 0
139 161 0
136 159 0
142 164 0
138 160 0
146 167 0
148 168 0
145 166 0
146 166 0
145 166 0
144 166 0
141 162 0
135 157 0
147 168 0
148 170 0
139 160 0
136 155 0
149 170 0
148 168 0
146 168 0
148 169 0
147 168 0
149 171 0
147 169 0
141 161 0
147 168 0
142 162 0
150 171 0
148 169 0
152 174 0
153 174 0
145 167 0
145 167 0
149 172 0
153 177 0
146 167 0
152 173 0
147 168 0
147 170 0
151 173 0
153 174 0
147 168 0
152 173 0
152 173 0
153 174 0
150 171 0
155 176 0
162 185 0
151 173 0
145 166 0
154 176 0
152 173 0
149 170 0
152 174 0
155 176 0
155 176 0
160 181 0
154 174 0
158 179 0
152 174 0
156 178 0
157 179 0
156 177 0
155 177 0
157 178 0
158 178 0
155 176 0
160 181 0
153 174 0
160 181 0
159 183 0
162 184 0
155 175 0
155 176 0
156 177 0
155 175 0
152 173 0
157 177 0
162 184 0
160 180 0
160 182 0
157 179 0
160 181 0
154 175 0
159 180 0
154 174 0
159 181 0
163 185 0
163 184 0
164 184 0
159 180 0
161 183 0
158 180 0
159 180 0
153 174 0
156 177 0
161 180 0
159 181 0
159 180 0
164 185 0
153 175 0
163 184 0
161 184 0
161 181 0
160 181 0
161 183 0
166 187 0
162 183 0
163 184 0
159 180 0
164 186 0
166 188 0
157 178 0
160 181 0
159 181 0
162 183 0
165 187 0
160 182 0
164 186 0
163 186 0
163 186 0
159 180 0
165 187 0
165 185 0
168 190 0
162 184 0
162 184 0
159 182 0
162 183 0
166 187 0
159 181 0
166 188 0
165 186 0
168 191 0
165 187 0
163 185 0
163 184 0
164 186 0
160 182 0
165 188 0
164 187 0
164 187 0
164 185 0
156 176 0
168 190 0
162 184 0
164 185 0
164 185 0
163 184 0
166 188 0
165 185 0
166 189 0
171 193 0
168 190 0
165 186 0
164 186 0
163 185 0
163 186 0
165 187 0
166 188 0
166 188 0
161 182 0
165 187 0
166 188 0
172 194 0
176 198 95
174 197 76
173 196 80
171 193 92
173 197 76
170 194 72
172 195 88
172 195 84
173 197 105
169 193 102
161 185 99
168 191 99
173 196 105
175 198 114
177 201 117
171 195 92
172 195 108
167 190 84
172 195 92
173 196 95
170 193 111
171 194 92
169 191 76
172 195 92
168 191 108
169 193 95
168 191 95
164 188 88
171 194 122
168 191 95
165 188 80
163 186 95
164 188 76
165 189 114
173 196 108
167 190 99
162 185 99
168 190 84
173 196 108
163 186 99
171 194 127
170 194 125
163 187 102
163 186 99
168 191 108
164 187 95
167 189 102
156 178 62
166 188 108
158 180 62
161 184 102
164 187 99
156 179 80
163 185 84
163 186 84
166 189 105
164 188 99
162 185 84
161 184 102
164 186 72
163 186 95
159 181 84
158 181 80
160 182 67
155 178 88
162 184 99
160 182 102
164 186 95
166 189 84
160 182 76
155 178 88
160 182 102
161 183 99
159 181 92
160 182 88
156 177 105
158 181 105
165 187 95
163 185 105
158 179 72
162 183 105
160 182 102
165 187 99
160 181 99
163 184 99
161 182 88
153 174 80
157 178 80
160 181 102
162 181 117
169 189 117
165 186 108
159 180 88
160 180 92
157 179 92
157 176 102
165 185 99
150 171 92
157 177 102
158 179 99
149 170 76
160 180 95
156 176 88
150 170 99
159 180 95
155 174 95
145 165 76
155 174 99
137 156 102
156 175 95
151 170 99
142 163 72
159 179 84
148 168 72
149 171 36
128 148 51
147 168 57
135 156 36
141 161 57
129 150 25
159 179 76
135 154 67
147 169 25
150 171 51
142 161 51
144 164 36
138 159 36
143 163 0
149 170 0
148 169 44
138 158 25
150 172 25
145 166 0
147 169 0
143 165 0
156 178 36
158 179 0
144 166 0
145 166 0
134 156 0
145 166 0
142 163 0
145 166 0
142 163 0
141 162 0
139 159 0
139 160 0
141 162 0
124 144 0
139 160 0
134 154 0
138 158 0
130 150 0
133 153 0
125 145 0
127 147 0
122 141 0
121 141 0
134 154 0
127 148 0
132 152 0
128 148 0
131 152 0
123 143 0
123 142 0
134 154 0
142 162 0
135 154 0
117 137 0
120 139 0
129 150 0
136 156 0
120 140 0
132 152 0
135 154 0
119 138 0
128 148 0
133 153 0
126 146 0
124 145 0
133 153 0
132 153 0
130 150 0
132 153 0
120 141 0
136 157 0
124 144 0
136 156 0
129 147 0
137 157 0
117 136 0
138 158 0
130 150 0
120 139 0
139 159 0
126 146 0
122 142 0
129 150 0
125 144 0
130 150 0
139 160 0
135 156 0
134 155 0
137 156 0
131 150 0
124 143 0
128 148 0
135 157 0
132 153 0
132 153 0
136 157 0
142 161 0
130 151 0
131 151 0
142 162 0
138 158 0
125 145 0
134 155 0
137 158 0
140 162 0
138 159 0
135 156 0
134 155 0
145 165 0
143 164 0
145 166 0
132 153 0
143 163 0
138 159 0
149 169 0
143 164 0
140 160 0
142 164 0
148 170 0
139 160 0
137 159 0
144 164 0
144 164 0
140 161 0
133 154 0
147 168 0
137 157 0
141 161 0
145 167 0
144 166 0
143 163 0
143 164 0
144 166 0
147 170 0
148 169 0
144 164 0
146 168 0
146 168 0
151 172 0
148 170 0
154 175 0
141 160 0
142 163 0
142 163 0
148 169 0
143 164 0
146 166 0
145 166 0
147 168 0
147 169 0
148 169 0
149 170 0
150 171 0
145 165 0
141 164 0
150 171 0
149 169 0
145 165 0
158 179 0
148 169 0
147 167 0
148 169 0
154 175 0
147 168 0
149 170 0
154 174 0
148 169 0
157 180 0
155 174 0
149 171 0
148 169 0
152 174 0
152 174 0
158 180 0
155 177 0
157 179 0
149 171 0
154 176 0
161 183 0
150 171 0
151 171 0
157 178 0
157 179 0
160 182 0
148 168 0
153 176 0
152 173 0
152 173 0
157 178 0
155 178 0
155 177 0
158 179 0
161 181 0
157 177 0
157 177 0
160 181 0
159 181 0
151 172 0
160 183 0
160 181 0
163 184 0
160 181 0
158 180 0
152 173 0
159 180 0
159 178 0
159 181 0
159 179 0
157 179 0
163 185 0
158 180 0
162 183 0
158 180 0
156 177 0
165 188 0
159 180 0
161 184 0
166 189 0
161 183 0
159 182 0
160 182 0
159 179 0
159 180 0
161 182 0
159 182 0
161 182 0
162 184 0
154 175 0
161 183 0
164 187 0
163 184 0
165 187 0
163 185 0
158 179 0
165 187 0
168 190 0
159 180 0
164 185 0
162 183 0
165 187 0
160 182 0
159 182 0
162 183 0
164 187 0
161 183 0
168 189 0
164 186 0
165 187 0
162 184 0
166 189 0
163 184 0
169 190 0
165 186 0
166 188 0
164 186 0
162 184 0
165 187 0
160 183 0
163 184 0
162 184 0
168 189 0
168 190 0
165 187 0
162 185 0
168 191 0
164 187 0
162 184 0
167 189 0
159 179 0
168 190 0
165 187 0
164 185 0
171 193 0
165 188 0
163 185 0
168 190 0
168 190 0
164 186 0
162 183 0
166 186 0
163 185 0
169 191 0
168 189 0
166 188 0
164 185 0
174 197 80
173 196 92
174 197 92
171 195 80
173 196 99
175 197 99
175 198 105
171 194 76
171 194 99
166 189 99
179 202 117
166 188 80
173 197 117
168 191 88
173 196 102
173 197 105
171 193 67
173 196 111
170 193 92
172 194 95
171 194 95
172 195 102
172 196 117
167 190 51
166 190 62
174 197 105
170 193 127
169 192 105
169 193 88
167 190 88
163 185 88
169 193 99
167 190 99
161 184 84
166 190 99
167 191 88
166 189 92
163 186 76
164 187 102
169 192 105
162 185 80
169 191 84
165 186 99
166 190 108
167 190 108
163 187 108
168 191 108
163 187 102
159 182 92
168 191 111
166 189 84
163 187 88
164 187 88
165 188 111
163 187 62
169 193 108
169 192 102
167 190 102
166 188 92
165 188 102
163 186 92
155 178 95
164 186 67
165 188 95
160 182 80
167 189 84
169 192 114
162 184 108
164 186 114
160 182 105
163 185 95
162 183 84
164 186 105
161 182 88
163 186 99
160 182 102
157 178 99
161 183 105
159 181 95
159 180 108
164 185 84
161 181 114
158 180 95
162 183 108
154 176 80
164 185 105
148 170 67
156 176 95
155 177 102
159 179 95
156 177 88
157 178 99
152 172 80
157 177 102
152 173 88
157 177 67
159 178 102
156 177 95
156 176 108
157 177 95
148 169 72
153 173 88
160 181 95
159 179 99
151 171 105
162 182 111
154 173 84
158 178 92
156 178 84
146 166 80
150 169 88
150 169 62
142 163 57
136 156 57
151 171 44
149 169 80
150 170 72
143 165 44
136 157 0
146 167 25
140 161 25
148 169 25
138 159 36
139 159 25
140 161 36
146 167 25
145 166 36
147 168 0
149 171 57
149 170 0
150 171 25
153 175 36
145 165 36
148 168 0
147 169 0
153 175 25
146 167 0
146 168 0
145 167 0
152 174 0
148 170 0
144 164 0
140 161 0
150 172 0
138 159 0
143 164 0
138 158 0
135 155 0
140 161 0
130 150 0
152 173 0
140 161 0
137 157 0
142 163 0
127 147 0
136 156 0
127 147 0
124 144 0
130 150 0
125 144 0
129 149 0
125 145 0
133 152 0
133 153 0
139 161 0
133 152 0
134 153 0
135 155 0
129 149 0
115 135 0
124 144 0
128 147 0
122 143 0
142 164 0
139 159 0
122 141 0
141 163 0
123 143 0
133 152 0
125 144 0
135 154 0
133 153 0
130 149 0
118 138 0
118 138 0
130 150 0
134 153 0
124 144 0
133 152 0
128 148 0
121 141 0
140 159 0
130 150 0
137 157 0
123 144 0
132 152 0
123 142 0
133 154 0
134 155 0
127 147 0
126 146 0
129 150 0
127 147 0
122 142 0
127 147 0
131 151 0
131 152 0
130 150 0
140 160 0
131 150 0
142 161 0
137 158 0
137 156 0
136 156 0
137 158 0
135 157 0
131 151 0
134 155 0
138 159 0
139 158 0
135 156 0
139 159 0
144 165 0
129 148 0
140 160 0
134 154 0
135 155 0
141 163 0
139 160 0
125 145 0
129 151 0
150 171 0
139 158 0
143 164 0
140 160 0
137 160 0
144 165 0
148 169 0
134 154 0
140 161 0
152 173 0
141 162 0
145 166 0
148 170 0
145 166 0
145 168 0
138 158 0
139 161 0
147 169 0
139 159 0
152 173 0
144 166 0
145 167 0
139 160 0
146 166 0
145 167 0
152 173 0
151 171 0
144 166 0
144 164 0
147 168 0
152 173 0
156 177 0
149 169 0
152 174 0
141 162 0
144 166 0
155 178 0
142 162 0
138 159 0
149 171 0
139 161 0
154 175 0
150 171 0
157 178 0
150 171 0
156 178 0
154 174 0
147 168 0
155 174 0
151 173 0
150 172 0
155 176 0
156 177 0
153 175 0
152 175 0
150 171 0
155 177 0
160 182 0
158 180 0
157 180 0
151 173 0
155 176 0
156 178 0
155 177 0
154 176 0
155 178 0
160 181 0
155 177 0
160 182 0
150 172 0
149 171 0
159 181 0
147 168 0
154 175 0
150 171 0
156 178 0
162 184 0
165 186 0
158 181 0
148 169 0
160 181 0
152 174 0
160 180 0
162 184 0
158 179 0
163 184 0
158 179 0
168 189 0
164 186 0
158 180 0
163 184 0
157 179 0
160 180 0
163 185 0
165 186 0
163 185 0
154 175 0
156 178 0
158 179 0
162 186 0
157 179 0
163 185 0
152 173 0
160 182 0
160 181 0
162 183 0
159 181 0
162 185 0
158 180 0
163 187 0
162 183 0
166 188 0
163 184 0
161 182 0
159 179 0
164 185 0
166 188 0
165 186 0
159 182 0
165 186 0
164 186 0
157 178 0
163 184 0
166 187 0
164 186 0
164 187 0
159 180 0
164 185 0
165 186 0
165 187 0
165 187 0
162 184 0
165 187 0
167 189 0
166 187 0
167 188 0
164 185 0
161 183 0
165 187 0
165 187 0
165 187 0
162 185 0
163 185 0
166 187 0
165 186 0
163 183 0
168 189 0
165 188 0
164 186 0
164 185 0
168 189 0
165 185 0
167 190 0
166 188 0
169 192 0
163 184 0
163 185 0
162 183 0
165 187 0
165 187 0
165 187 0
165 188 0
165 187 0
172 194 0
160 181 0
164 185 0
166 188 0
164 187 0
165 187 0
174 197 99
174 197 76
172 195 95
172 195 95
174 197 99
168 191 105
177 200 117
173 196 99
177 200 105
171 193 80
174 197 92
174 196 122
171 194 88
165 186 76
170 194 88
173 195 92
172 195 99
171 194 105
176 199 105
172 195 88
167 190 80
171 194 102
164 189 95
174 197 105
166 189 102
168 191 105
169 193 108
168 191 105
175 199 114
167 191 92
167 190 105
167 190 95
164 188 88
161 184 88
168 191 95
169 192 114
170 193 114
169 193 95
170 193 88
166 190 95
167 190 80
163 186 111
166 189 76
162 185 88
166 189 84
168 191 84
165 188 84
164 187 84
156 178 84
168 191 102
167 189 84
169 192 95
162 185 99
163 186 80
158 181 92
164 187 88
159 182 102
156 179 76
160 183 76
164 186 84
160 183 111
159 182 99
168 190 108
167 189 92
170 193 95
159 181 80
170 192 120
159 180 92
164 186 76
159 182 80
169 191 117
160 181 114
150 171 84
165 187 99
154 177 80
154 176 111
158 180 102
160 182 76
171 192 120
162 184 117
157 178 99
161 183 108
156 177 95
160 181 88
157 179 76
163 185 99
160 181 95
161 181 120
154 175 95
162 183 92
160 181 111
158 179 76
152 172 88
159 179 92
161 182 92
159 179 80
154 174 108
151 172 84
151 173 88
159 180 95
152 173 92
154 175 92
150 170 88
162 183 99
159 179 105
154 173 105
158 179 99
155 175 72
166 186 111
157 178 76
159 178 95
158 178 92
143 163 72
147 167 67
143 163 44
150 170 72
146 167 44
152 173 62
149 169 67
149 169 57
143 164 44
144 165 0
146 167 25
137 158 0
144 165 36
146 167 25
145 167 25
147 168 25
149 170 25
144 165 36
152 173 36
153 176 0
153 175 0
154 175 25
147 169 0
151 173 0
147 169 0
149 170 0
148 169 0
150 171 0
146 168 0
147 167 0
140 163 0
141 163 0
140 161 0
135 156 0
140 161 0
136 157 0
140 162 0
139 160 0
137 158 0
138 159 0
132 153 0
138 158 0
138 158 0
136 156 0
130 151 0
132 152 0
139 159 0
137 158 0
125 146 0
133 153 0
124 144 0
132 151 0
136 157 0
133 153 0
127 146 0
130 150 0
140 161 0
135 156 0
123 142 0
125 144 0
133 153 0
129 148 0
127 147 0
125 145 0
136 156 0
139 160 0
132 150 0
127 146 0
131 152 0
132 152 0
131 152 0
137 158 0
144 165 0
141 162 0
129 149 0
128 149 0
135 156 0
126 145 0
127 146 0
125 145 0
142 162 0
132 153 0
137 157 0
136 157 0
129 149 0
133 154 0
129 149 0
127 148 0
124 144 0
138 158 0
130 149 0
136 157 0
132 152 0
133 153 0
141 163 0
139 159 0
138 158 0
138 158 0
139 161 0
142 162 0
128 148 0
127 148 0
137 156 0
131 153 0
136 156 0
138 158 0
140 160 0
135 156 0
141 162 0
133 155 0
142 161 0
133 155 0
141 162 0
145 167 0
136 157 0
141 162 0
143 164 0
139 161 0
134 154 0
146 167 0
139 160 0
149 170 0
144 164 0
146 166 0
138 159 0
139 159 0
145 165 0
147 167 0
146 168 0
146 165 0
141 161 0
142 163 0
147 168 0
142 163 0
150 170 0
151 173 0
151 172 0
140 162 0
150 170 0
150 171 0
140 160 0
144 165 0
147 169 0
150 170 0
144 164 0
146 167 0
139 161 0
151 172 0
141 161 0
158 179 0
152 173 0
152 175 0
150 171 0
158 180 0
151 172 0
147 168 0
150 170 0
154 175 0
154 175 0
148 169 0
137 159 0
154 176 0
152 173 0
152 173 0
148 169 0
157 179 0
154 176 0
141 164 0
150 173 0
153 175 0
144 165 0
159 180 0
153 174 0
161 182 0
146 168 0
152 173 0
159 180 0
149 170 0
159 179 0
147 169 0
157 179 0
152 172 0
158 179 0
151 173 0
156 178 0
155 176 0
156 177 0
153 175 0
156 178 0
153 175 0
151 171 0
161 183 0
156 177 0
155 175 0
161 182 0
156 177 0
159 181 0
154 176 0
162 183 0
154 175 0
152 173 0
165 187 0
157 178 0
156 178 0
158 178 0
159 179 0
159 181 0
160 183 0
166 187 0
155 178 0
165 186 0
153 175 0
165 188 0
152 173 0
161 184 0
156 177 0
153 174 0
164 186 0
155 176 0
165 187 0
160 182 0
156 178 0
164 185 0
161 182 0
155 177 0
160 182 0
169 192 0
159 180 0
160 182 0
156 175 0
162 183 0
162 185 0
156 179 0
161 183 0
157 178 0
164 186 0
156 177 0
166 187 0
155 176 0
165 188 0
164 186 0
162 182 0
164 187 0
164 186 0
166 186 0
163 184 0
162 183 0
163 186 0
164 185 0
158 180 0
166 188 0
162 184 0
167 189 0
166 189 0
162 184 0
163 184 0
163 185 0
167 189 0
165 187 0
164 184 0
159 181 0
166 187 0
162 183 0
163 184 0
165 188 0
168 191 0
166 188 0
166 188 0
167 189 0
162 184 0
165 186 0
165 185 0
166 189 0
169 190 0
167 190 0
164 186 0
167 189 0
169 191 0
162 185 0
166 190 0
163 183 0
165 189 0
167 189 0
165 188 0
165 187 0
167 189 0
165 187 0
167 189 0
171 194 92
171 194 84
170 193 99
176 198 108
174 197 99
175 198 105
174 196 95
172 195 84
174 197 111
173 196 84
175 198 117
168 192 84
169 193 95
175 198 88
167 191 92
170 193 88
170 193 99
170 194 84
171 195 88
174 197 88
171 195 108
173 197 102
172 195 95
168 191 95
168 191 102
168 191 95
168 191 92
166 191 99
169 191 108
170 192 103
160 184 88
166 189 108
169 192 95
161 183 80
167 191 111
164 189 99
167 190 99
158 182 72
169 192 105
167 190 111
167 190 105
164 187 88
165 187 84
164 188 92
168 191 108
169 192 102
170 193 122
161 184 80
168 191 105
169 192 95
163 185 76
164 187 95
165 187 76
160 182 92
168 190 76
170 192 114
169 192 80
158 180 84
159 181 62
162 185 108
168 191 102
162 185 92
163 186 105
168 191 88
157 180 95
164 185 95
165 187 111
164 187 102
165 187 88
165 186 99
165 188 95
159 180 102
164 185 92
171 193 127
167 189 108
158 180 102
156 178 95
168 191 95
164 186 99
158 180 102
163 185 102
159 180 95
161 182 88
162 183 88
161 182 102
160 180 108
156 177 105
166 188 108
158 179 105
165 186 92
160 179 102
166 186 105
151 171 95
162 182 102
157 179 80
154 175 108
157 177 92
157 177 108
161 181 108
160 180 108
151 171 95
154 176 76
153 173 88
155 175 92
160 180 88
153 173 92
157 177 105
156 176 99
151 171 80
152 173 72
156 177 62
154 174 105
158 178 76
152 173 67
150 170 72
137 157 72
155 175 57
151 172 57
146 167 25
144 166 36
140 161 0
151 171 51
139 161 44
145 166 36
145 165 51
142 164 25
150 171 36
147 169 25
145 167 25
145 166 36
156 178 0
152 174 0
150 172 0
149 171 0
146 167 0
152 174 25
152 173 25
153 175 0
147 170 0
142 163 0
144 167 0
142 162 0
141 162 0
149 172 0
144 165 0
148 169 0
146 167 0
144 164 0
139 161 0
140 160 0
138 158 0
139 160 0
138 158 0
142 163 0
146 167 0
143 163 0
117 138 0
128 148 0
134 154 0
138 159 0
135 155 0
128 148 0
128 149 0
130 151 0
130 150 0
125 145 0
143 164 0
137 158 0
132 152 0
135 154 0
123 143 0
140 161 0
137 157 0
121 142 0
125 145 0
132 152 0
115 135 0
136 158 0
133 153 0
118 138 0
124 144 0
133 153 0
138 158 0
135 155 0
137 158 0
141 162 0
131 151 0
131 152 0
137 158 0
137 158 0
123 143 0
124 145 0
129 149 0
132 152 0
131 151 0
139 159 0
141 161 0
135 155 0
146 167 0
125 144 0
128 148 0
134 155 0
140 160 0
135 156 0
133 154 0
131 152 0
142 163 0
140 160 0
137 156 0
126 146 0
146 168 0
136 156 0
136 157 0
137 157 0
134 154 0
134 155 0
145 165 0
145 166 0
133 154 0
129 149 0
133 154 0
133 154 0
141 162 0
140 160 0
138 158 0
140 162 0
143 163 0
140 161 0
144 165 0
141 162 0
138 158 0
142 162 0
151 173 0
144 166 0
143 164 0
141 161 0
142 164 0
143 164 0
143 164 0
142 164 0
134 155 0
149 169 0
144 164 0
146 168 0
147 168 0
146 167 0
142 163 0
147 167 0
146 166 0
152 174 0
139 161 0
139 160 0
149 169 0
149 171 0
144 166 0
148 169 0
154 175 0
152 173 0
147 168 0
144 166 0
147 168 0
153 173 0
155 176 0
146 168 0
149 169 0
151 172 0
152 173 0
154 176 0
143 165 0
153 175 0
149 172 0
150 172 0
152 174 0
155 177 0
146 167 0
155 177 0
148 170 0
152 173 0
153 175 0
155 176 0
153 174 0
144 165 0
153 175 0
145 165 0
155 176 0
151 173 0
155 177 0
161 183 0
154 176 0
157 179 0
147 169 0
162 181 0
157 178 0
154 176 0
149 170 0
156 178 0
161 182 0
158 180 0
149 169 0
154 175 0
158 180 0
164 184 0
152 172 0
159 182 0
162 185 0
156 179 0
165 186 0
158 179 0
155 176 0
159 180 0
157 178 0
158 179 0
154 174 0
158 180 0
161 182 0
160 182 0
163 185 0
159 181 0
163 186 0
156 177 0
159 181 0
156 177 0
162 183 0
157 178 0
160 182 0
161 183 0
169 191 0
160 180 0
154 175 0
163 185 0
154 175 0
167 190 0
155 177 0
163 185 0
151 173 0
163 185 0
162 184 0
163 184 0
165 187 0
165 188 0
160 182 0
161 183 0
163 185 0
161 183 0
156 177 0
154 176 0
159 180 0
162 183 0
160 180 0
160 182 0
163 185 0
163 184 0
166 188 0
163 185 0
161 182 0
164 188 0
162 185 0
165 187 0
159 180 0
166 187 0
158 181 0
162 184 0
158 180 0
160 183 0
165 187 0
167 188 0
165 187 0
163 185 0
162 184 0
166 188 0
162 183 0
165 186 0
164 187 0
161 184 0
167 188 0
167 190 0
168 190 0
165 188 0
168 191 0
167 189 0
167 189 0
165 187 0
166 189 0
168 189 0
162 183 0
162 184 0
163 186 0
164 186 0
168 190 0
167 189 0
165 188 0
162 182 0
166 189 0
170 192 0
167 187 0
166 188 0
164 186 0
170 193 0
166 187 0
168 191 0
174 197 102
174 198 102
174 196 120
172 196 99
173 197 102
171 193 99
173 196 80
174 196 88
175 197 120
172 195 88
169 192 102
177 199 111
167 191 84
173 197 105
166 189 80
175 198 99
169 192 92
169 192 99
172 195 102
167 191 72
170 193 92
173 196 99
169 192 92
169 193 84
165 188 76
170 193 105
172 195 95
166 189 84
172 195 102
167 190 95
169 193 88
166 189 111
171 193 102
165 188 99
163 186 92
166 189 92
165 189 72
169 192 95
166 189 95
169 192 88
159 183 92
165 189 84
166 189 105
165 188 108
165 188 105
169 191 108
161 185 88
172 194 99
165 189 92
164 187 92
170 193 105
157 179 84
161 184 114
165 187 102
168 191 108
167 189 95
161 184 108
163 185 111
161 183 84
169 191 114
161 184 88
158 180 84
165 187 99
160 182 80
167 189 95
164 186 105
164 187 99
158 180 111
164 186 92
159 181 72
160 183 108
160 183 88
161 183 108
164 185 95
152 174 62
161 183 99
156 177 95
162 183 76
159 181 114
160 182 99
161 183 88
160 181 114
153 174 57
156 178 76
161 182 95
161 183 84
153 175 99
158 179 95
160 181 76
154 175 80
161 182 105
156 176 95
157 178 108
166 186 99
163 183 92
164 185 122
158 179 111
154 175 102
158 177 108
154 174 92
167 187 88
157 178 80
149 169 84
159 178 105
157 178 105
155 174 99
150 171 62
158 179 92
154 174 88
149 169 72
154 174 84
153 174 62
150 170 67
153 175 62
149 169 72
160 182 57
140 160 57
150 171 57
155 177 51
149 171 51
146 167 57
141 162 25
154 175 51
147 169 36
147 168 25
153 174 36
146 168 36
146 168 25
151 172 36
148 169 36
144 165 0
150 171 25
147 170 0
150 172 0
149 172 0
158 181 0
146 168 0
151 174 0
154 175 0
152 174 0
150 172 0
147 169 0
144 166 0
147 169 0
147 168 0
137 158 0
142 162 0
139 160 0
130 150 0
140 161 0
142 162 0
139 159 0
134 155 0
136 157 0
134 154 0
137 156 0
138 158 0
137 157 0
131 151 0
135 156 0
130 151 0
147 168 0
136 156 0
129 151 0
135 157 0
134 154 0
121 140 0
133 154 0
127 148 0
136 155 0
124 144 0
122 142 0
144 164 0
130 150 0
137 158 0
130 151 0
134 155 0
132 153 0
134 154 0
138 158 0
135 155 0
130 150 0
140 161 0
132 152 0
124 143 0
129 150 0
130 150 0
125 145 0
133 153 0
132 153 0
126 146 0
134 155 0
140 160 0
132 152 0
121 142 0
126 147 0
132 153 0
135 155 0
125 146 0
132 151 0
138 158 0
128 149 0
141 161 0
139 160 0
143 164 0
134 154 0
129 147 0
132 154 0
138 159 0
135 155 0
144 164 0
142 163 0
138 160 0
137 159 0
128 149 0
139 158 0
143 164 0
144 166 0
131 153 0
133 154 0
137 158 0
134 155 0
139 160 0
144 165 0
144 165 0
141 162 0
133 153 0
140 161 0
146 167 0
152 174 0
145 167 0
138 159 0
141 162 0
142 163 0
134 155 0
132 153 0
147 167 0
132 152 0
148 170 0
145 167 0
142 163 0
145 165 0
146 168 0
145 166 0
142 163 0
147 168 0
147 168 0
153 174 0
151 173 0
153 174 0
141 163 0
149 171 0
147 167 0
149 169 0
127 147 0
150 172 0
152 175 0
145 167 0
144 165 0
153 175 0
140 160 0
150 170 0
155 177 0
154 175 0
152 173 0
151 173 0
150 172 0
156 177 0
143 163 0
155 176 0
151 171 0
152 173 0
154 176 0
150 173 0
148 170 0
152 174 0
154 174 0
150 172 0
158 180 0
159 180 0
155 177 0
155 176 0
159 180 0
152 173 0
159 179 0
155 177 0
153 174 0
158 180 0
151 172 0
153 175 0
156 178 0
152 173 0
151 171 0
164 186 0
154 176 0
157 178 0
158 178 0
156 177 0
155 176 0
154 175 0
158 181 0
157 179 0
154 175 0
158 180 0
152 174 0
159 181 0
155 176 0
158 180 0
166 188 0
159 183 0
155 176 0
164 187 0
157 178 0
155 177 0
159 180 0
158 180 0
156 177 0
163 184 0
160 182 0
163 186 0
163 185 0
160 183 0
159 181 0
152 173 0
162 185 0
160 181 0
162 183 0
165 187 0
157 178 0
162 184 0
156 177 0
159 181 0
163 185 0
160 181 0
157 178 0
160 182 0
160 182 0
161 182 0
162 183 0
158 180 0
157 179 0
166 187 0
163 185 0
163 187 0
159 180 0
159 179 0
168 191 0
167 187 0
166 187 0
161 182 0
165 187 0
162 184 0
158 180 0
163 185 0
167 189 0
158 179 0
164 186 0
163 184 0
168 190 0
166 187 0
165 188 0
165 187 0
164 185 0
165 187 0
163 185 0
166 188 0
165 187 0
161 183 0
162 184 0
166 189 0
162 185 0
161 182 0
166 188 0
171 194 0
166 187 0
167 189 0
165 187 0
164 186 0
168 189 0
167 187 0
165 189 0
166 187 0
167 190 0
165 185 0
168 190 0
165 187 0
171 194 0
169 190 0
167 188 0
164 185 0
165 187 0
170 192 0
167 188 0
170 191 0
172 195 0
165 188 0
169 190 0
163 185 0
165 187 0
165 189 0
172 195 102
175 198 95
175 197 105
173 196 99
175 198 95
166 189 99
170 193 99
175 198 108
173 196 108
176 199 122
169 193 84
171 194 99
173 195 102
172 195 84
174 197 95
171 194 122
170 193 67
171 194 57
175 198 111
164 187 95
172 196 105
170 192 102
169 193 88
169 193 80
171 195 99
172 195 108
170 194 102
168 191 102
163 186 92
169 191 95
169 192 99
170 193 92
172 196 122
164 187 88
170 194 114
164 187 80
171 194 99
163 186 95
164 187 102
169 191 102
166 189 84
167 190 95
171 194 108
167 190 92
168 192 111
160 183 84
165 188 102
163 186 95
169 192 102
169 192 102
164 186 76
163 186 92
163 186 95
162 185 102
160 183 72
159 182 76
162 185 108
161 184 80
169 191 105
161 184 72
165 187 99
158 181 67
162 184 108
158 181 108
160 181 111
162 185 84
157 179 92
167 189 80
165 187 88
167 190 108
168 190 99
153 175 80
161 183 114
157 179 92
160 183 80
158 179 80
157 180 84
158 181 80
165 187 99
160 182 92
158 178 105
161 182 108
160 181 99
157 178 84
161 184 108
156 176 95
159 180 67
169 191 122
164 184 114
163 184 111
152 173 108
161 181 99
168 189 111
155 176 80
154 174 88
152 173 95
159 180 92
153 174 88
156 176 67
157 178 92
152 173 92
160 181 105
161 182 92
162 182 88
162 182 88
149 170 67
152 173 88
149 169 57
158 178 95
152 173 80
156 176 99
146 166 72
148 168 67
149 170 84
155 176 57
155 176 67
149 170 62
150 170 57
149 170 67
143 165 51
156 178 51
150 170 57
148 170 25
148 169 51
147 169 0
149 170 25
143 165 0
148 169 25
152 173 25
151 173 0
146 168 25
152 172 0
150 171 0
152 173 0
146 167 0
150 173 0
136 157 0
149 170 0
145 166 0
156 177 0
156 177 0
148 169 0
141 161 0
152 174 0
144 166 0
144 165 0
140 161 0
141 162 0
136 158 0
132 154 0
126 147 0
137 157 0
146 166 0
127 148 0
127 148 0
144 164 0
132 153 0
133 153 0
138 159 0
137 158 0
133 153 0
131 152 0
133 155 0
133 153 0
135 155 0
143 163 0
138 158 0
135 156 0
129 150 0
139 161 0
138 158 0
135 155 0
132 152 0
138 159 0
130 149 0
136 156 0
133 154 0
124 144 0
132 153 0
135 157 0
125 145 0
144 164 0
130 151 0
141 163 0
122 142 0
138 159 0
139 160 0
129 149 0
137 159 0
124 145 0
130 150 0
123 144 0
130 151 0
134 155 0
135 155 0
130 151 0
146 166 0
142 162 0
131 151 0
136 157 0
135 155 0
132 152 0
135 156 0
140 160 0
131 153 0
139 161 0
148 170 0
135 157 0
147 167 0
135 156 0
139 160 0
130 151 0
136 157 0
141 162 0
140 161 0
136 157 0
147 168 0
135 156 0
137 158 0
129 150 0
139 159 0
134 154 0
137 157 0
131 152 0
146 168 0
149 171 0
144 165 0
138 159 0
146 167 0
139 161 0
143 163 0
136 157 0
146 168 0
143 165 0
139 160 0
142 163 0
141 162 0
141 163 0
152 174 0
149 171 0
151 172 0
144 165 0
146 167 0
157 177 0
148 169 0
144 163 0
153 175 0
143 166 0
150 172 0
150 170 0
152 175 0
148 170 0
153 174 0
156 177 0
146 167 0
145 166 0
147 169 0
150 172 0
144 165 0
147 168 0
143 164 0
151 173 0
155 177 0
158 180 0
150 171 0
153 176 0
155 177 0
150 172 0
147 167 0
151 173 0
147 169 0
150 173 0
159 180 0
156 178 0
153 176 0
150 171 0
151 172 0
153 175 0
159 180 0
147 169 0
156 178 0
145 165 0
154 175 0
152 172 0
150 172 0
146 168 0
153 173 0
150 171 0
162 184 0
155 177 0
160 182 0
155 175 0
162 184 0
157 177 0
148 169 0
161 182 0
157 179 0
157 177 0
161 182 0
159 180 0
159 180 0
159 180 0
156 178 0
160 181 0
162 184 0
155 178 0
161 182 0
159 180 0
165 185 0
156 177 0
158 180 0
160 183 0
160 182 0
160 182 0
157 179 0
163 184 0
158 179 0
163 184 0
161 183 0
159 181 0
160 182 0
160 182 0
160 181 0
157 178 0
158 181 0
163 185 0
159 182 0
158 180 0
157 179 0
163 185 0
161 183 0
158 178 0
164 186 0
164 187 0
161 185 0
167 189 0
162 183 0
157 177 0
162 185 0
161 183 0
158 180 0
163 186 0
162 184 0
159 181 0
164 185 0
162 184 0
159 180 0
160 182 0
163 186 0
165 186 0
164 185 0
161 182 0
156 179 0
165 188 0
165 188 0
165 185 0
160 181 0
163 186 0
162 185 0
162 185 0
167 190 0
163 185 0
163 186 0
165 185 0
165 187 0
165 187 0
169 190 0
162 183 0
166 187 0
167 190 0
169 192 0
165 187 0
162 182 0
160 182 0
167 189 0
166 188 0
171 193 0
168 190 0
166 189 0
162 183 0
164 186 0
169 192 0
166 189 0
166 189 0
166 187 0
169 190 0
166 189 0
170 192 0
165 186 0
170 192 0
164 186 0
170 190 0
163 185 0
165 187 0
166 189 0
167 188 0
165 187 0
167 189 0
166 189 0
165 186 0
172 195 102
178 200 108
174 197 108
169 191 88
167 191 88
176 200 108
175 198 105
166 189 88
172 195 99
172 195 99
175 197 99
172 195 99
167 190 99
170 193 80
172 195 84
172 196 120
167 189 92
167 190 111
171 194 108
175 198 111
166 189 72
172 195 105
173 196 99
169 192 92
166 189 95
177 200 108
174 197 105
168 192 88
166 189 92
170 193 105
171 194 114
169 193 105
169 192 76
170 193 108
172 195 105
167 190 102
166 188 99
171 194 84
163 186 72
169 193 95
164 187 84
163 186 84
164 187 108
162 185 88
163 185 99
168 191 99
165 187 102
166 189 102
169 192 95
161 183 80
168 191 88
172 195 102
163 185 92
165 187 88
160 182 114
159 181 84
165 187 72
160 181 92
170 192 117
167 189 92
163 185 80
154 176 67
160 183 84
166 188 99
155 177 76
164 187 111
161 183 105
165 186 108
165 187 105
165 188 120
162 184 88
162 182 92
162 185 76
162 185 117
164 186 111
154 175 95
162 183 99
158 179 84
157 179 88
163 184 92
160 181 102
158 179 88
155 176 117
158 179 95
160 181 102
164 185 114
166 186 102
152 173 108
164 185 92
158 178 84
162 183 105
163 185 95
156 177 95
161 182 99
150 170 92
152 173 88
159 179 108
158 179 95
162 182 76
149 169 80
154 174 88
155 175 88
155 176 76
159 179 99
157 177 84
158 178 92
149 169 80
157 177 88
149 170 67
154 173 84
158 179 80
153 173 76
144 167 44
154 176 72
147 169 51
146 167 51
149 170 67
150 171 44
145 167 25
149 170 51
148 169 36
141 163 44
144 166 36
143 165 36
156 177 57
152 173 0
154 177 25
150 172 0
155 177 25
152 172 0
159 181 25
149 170 25
158 179 36
152 173 0
155 177 0
147 168 0
149 173 0
147 169 0
153 176 0
149 171 0
144 167 0
153 175 0
155 177 0
153 174 0
147 169 0
145 168 0
149 170 0
140 161 0
138 159 0
143 164 0
147 168 0
133 154 0
126 147 0
143 163 0
133 154 0
143 164 0
138 158 0
132 153 0
148 169 0
136 156 0
135 156 0
130 151 0
135 156 0
136 157 0
148 169 0
130 150 0
137 159 0
138 158 0
142 162 0
125 146 0
129 149 0
137 159 0
137 157 0
129 151 0
127 147 0
134 155 0
139 159 0
140 161 0
132 152 0
135 157 0
133 153 0
138 159 0
130 149 0
133 153 0
138 158 0
127 147 0
136 157 0
142 163 0
138 158 0
135 155 0
136 158 0
128 149 0
130 151 0
143 164 0
131 151 0
132 153 0
140 161 0
128 148 0
141 161 0
135 155 0
146 168 0
133 152 0
130 151 0
138 159 0
134 155 0
134 154 0
140 161 0
147 169 0
131 151 0
141 163 0
140 161 0
145 166 0
142 164 0
139 160 0
139 161 0
134 156 0
143 164 0
139 160 0
143 163 0
140 160 0
144 165 0
146 167 0
136 157 0
142 161 0
141 162 0
144 167 0
146 169 0
155 176 0
137 157 0
139 161 0
149 171 0
135 155 0
143 164 0
148 170 0
149 170 0
144 165 0
139 162 0
150 172 0
145 167 0
144 164 0
149 170 0
141 160 0
142 163 0
146 170 0
144 165 0
152 173 0
146 168 0
143 165 0
148 171 0
143 165 0
140 161 0
145 166 0
157 179 0
152 174 0
148 167 0
141 163 0
158 179 0
147 169 0
141 162 0
149 171 0
151 174 0
153 175 0
148 168 0
148 168 0
159 181 0
150 173 0
157 179 0
156 178 0
156 178 0
148 170 0
153 175 0
149 170 0
147 169 0
153 176 0
157 178 0
154 176 0
153 174 0
157 179 0
156 178 0
145 164 0
151 173 0
160 183 0
154 175 0
153 173 0
150 171 0
152 173 0
153 175 0
142 164 0
155 177 0
157 178 0
155 176 0
158 180 0
158 180 0
158 180 0
155 176 0
157 178 0
156 177 0
158 179 0
156 177 0
162 184 0
155 177 0
152 172 0
158 179 0
156 177 0
158 180 0
155 177 0
159 181 0
161 182 0
157 179 0
153 174 0
153 174 0
164 187 0
154 176 0
160 182 0
158 181 0
152 173 0
161 183 0
163 185 0
161 183 0
157 180 0
160 181 0
155 176 0
165 187 0
157 178 0
164 187 0
166 188 0
158 179 0
158 180 0
161 183 0
159 181 0
155 176 0
158 179 0
161 182 0
156 177 0
162 184 0
168 191 0
159 179 0
156 178 0
164 186 0
163 185 0
162 184 0
163 184 0
156 176 0
167 190 0
167 189 0
168 191 0
160 182 0
165 186 0
160 182 0
162 183 0
165 187 0
162 186 0
160 182 0
161 184 0
167 189 0
159 181 0
164 185 0
165 187 0
166 188 0
164 185 0
163 185 0
163 185 0
165 186 0
163 185 0
162 184 0
164 186 0
166 189 0
161 183 0
161 181 0
161 184 0
163 185 0
164 186 0
161 183 0
165 189 0
167 189 0
167 188 0
166 188 0
163 184 0
167 189 0
163 184 0
165 187 0
160 182 0
165 186 0
166 187 0
169 191 0
168 189 0
167 189 0
168 190 0
164 186 0
167 189 0
167 189 0
168 191 0
166 190 0
169 193 0
164 186 0
169 191 0
171 194 0
163 185 0
167 190 0
168 189 0
173 195 102
174 197 95
176 199 114
172 195 99
170 193 95
174 197 84
174 196 108
170 193 102
172 195 80
175 198 99
172 195 99
169 192 92
172 195 99
170 193 111
168 191 72
175 198 120
169 193 84
172 195 111
170 193 99
173 195 95
170 194 105
168 191 95
166 189 92
177 200 125
174 198 125
167 190 99
168 192 95
172 195 105
171 194 102
171 194 108
167 189 99
164 186 92
168 191 80
170 193 88
164 187 80
165 188 92
162 185 76
169 192 99
166 188 99
164 187 80
161 184 76
162 186 92
166 189 76
167 190 114
167 189 111
164 187 84
170 193 88
164 187 92
169 191 84
172 196 108
166 189 99
170 193 114
168 191 102
163 186 92
164 187 92
163 186 102
157 179 80
161 183 92
165 188 99
156 178 80
165 187 92
160 181 80
168 190 99
166 188 105
158 181 88
167 189 105
169 191 102
167 189 108
160 182 80
166 188 102
158 181 102
166 188 95
164 185 80
162 183 108
161 182 102
167 189 111
157 179 67
155 177 99
156 177 102
159 181 108
163 184 105
165 186 84
160 181 72
161 182 95
163 185 84
163 184 108
164 185 120
161 182 88
163 184 108
152 172 76
161 181 99
165 185 92
161 182 84
160 181 80
152 173 92
165 185 108
161 181 99
158 180 92
158 179 105
152 173 88
169 190 99
157 178 99
161 181 99
149 170 72
154 175 84
154 175 80
155 176 92
148 169 72
142 163 67
155 176 76
159 180 84
155 175 76
148 168 62
160 181 57
143 164 36
155 176 72
156 177 51
140 162 36
151 172 51
145 166 36
140 161 36
149 171 57
154 176 36
149 170 36
152 174 0
150 172 44
154 176 0
152 175 0
155 175 44
150 172 0
152 173 25
149 171 25
148 170 0
153 176 25
148 169 0
144 166 0
152 174 0
155 177 0
156 177 0
145 166 0
152 174 0
148 170 0
144 165 0
149 171 0
140 161 0
144 166 0
140 162 0
134 156 0
137 158 0
148 169 0
137 158 0
144 165 0
133 153 0
147 167 0
144 165 0
123 144 0
133 154 0
140 161 0
128 148 0
127 147 0
138 160 0
141 161 0
137 158 0
136 156 0
144 164 0
143 163 0
138 158 0
148 168 0
132 152 0
129 149 0
131 152 0
141 161 0
139 160 0
136 156 0
132 152 0
144 165 0
129 150 0
140 160 0
138 159 0
130 150 0
132 153 0
140 160 0
137 158 0
134 155 0
134 155 0
139 159 0
149 170 0
130 151 0
130 151 0
139 160 0
132 152 0
137 158 0
136 156 0
140 161 0
136 155 0
137 158 0
141 162 0
141 161 0
141 161 0
137 158 0
130 151 0
135 155 0
138 158 0
145 166 0
130 152 0
139 159 0
129 148 0
134 155 0
138 160 0
142 164 0
139 160 0
142 163 0
126 147 0
126 147 0
141 161 0
140 161 0
139 160 0
140 161 0
144 165 0
147 169 0
140 161 0
143 166 0
144 166 0
138 160 0
142 164 0
145 166 0
143 165 0
143 165 0
135 157 0
146 168 0
130 150 0
145 165 0
149 170 0
145 166 0
140 162 0
146 168 0
138 159 0
148 169 0
139 159 0
146 166 0
139 160 0
146 167 0
146 166 0
140 162 0
142 164 0
144 164 0
145 167 0
146 169 0
148 168 0
147 168 0
139 161 0
148 170 0
151 172 0
145 168 0
142 163 0
140 161 0
149 169 0
147 170 0
152 174 0
150 172 0
146 167 0
146 168 0
154 176 0
151 172 0
136 158 0
148 170 0
155 176 0
160 181 0
154 175 0
153 175 0
156 175 0
153 175 0
157 180 0
149 170 0
153 175 0
153 174 0
158 180 0
158 181 0
154 175 0
155 178 0
157 178 0
158 178 0
156 177 0
153 174 0
161 184 0
155 176 0
155 176 0
152 172 0
158 179 0
156 179 0
154 176 0
157 179 0
160 182 0
158 179 0
157 179 0
160 180 0
155 178 0
153 175 0
156 179 0
163 184 0
153 174 0
156 178 0
162 183 0
157 178 0
154 176 0
162 185 0
160 181 0
158 180 0
158 180 0
154 176 0
155 176 0
160 183 0
163 185 0
151 173 0
158 180 0
157 180 0
160 182 0
162 184 0
161 184 0
160 182 0
158 180 0
161 182 0
160 182 0
164 186 0
158 179 0
158 180 0
164 187 0
156 178 0
160 183 0
159 181 0
162 184 0
162 183 0
168 190 0
159 180 0
160 183 0
162 186 0
163 184 0
162 182 0
161 184 0
161 183 0
163 185 0
161 181 0
164 185 0
156 178 0
161 183 0
164 186 0
162 183 0
162 182 0
166 187 0
162 184 0
165 186 0
157 179 0
162 184 0
163 185 0
162 183 0
165 186 0
163 186 0
164 184 0
164 187 0
165 187 0
165 188 0
164 187 0
162 185 0
164 185 0
171 194 0
163 186 0
162 185 0
166 189 0
165 186 0
163 185 0
164 186 0
163 185 0
167 189 0
164 186 0
168 190 0
166 188 0
168 191 0
167 188 0
164 187 0
169 191 0
166 189 0
162 184 0
169 191 0
165 189 0
165 188 0
163 184 0
165 187 0
164 186 0
167 189 0
160 181 0
167 189 0
169 191 0
164 186 0
165 187 0
168 190 0
164 184 0
161 182 0
166 188 0
169 191 0
166 188 0
174 196 108
174 197 84
172 194 102
178 201 108
173 196 105
174 197 99
171 194 105
175 198 92
177 200 122
173 195 102
173 196 99
173 195 92
168 191 80
170 193 80
173 195 95
171 194 88
167 191 76
170 193 95
170 193 92
172 195 88
175 198 114
171 194 92
174 196 95
170 193 92
169 191 88
166 189 80
168 192 88
171 194 108
171 193 95
168 190 84
171 195 102
170 193 84
171 194 84
162 185 57
168 191 99
169 193 95
173 197 122
170 194 117
171 194 108
169 192 99
161 183 80
167 190 92
166 189 102
164 187 84
164 187 102
165 188 88
169 192 80
165 189 92
166 188 99
165 187 80
169 191 102
158 181 92
169 192 108
168 190 88
168 190 105
172 195 95
168 190 84
168 190 102
163 185 84
165 187 88
167 189 92
161 183 95
161 184 95
164 186 67
160 182 80
164 186 88
163 185 108
166 187 105
163 185 105
154 176 67
155 177 80
159 182 95
158 179 62
159 181 88
164 185 92
170 191 122
154 176 67
164 186 105
166 187 108
154 177 84
162 183 99
161 181 102
151 173 76
162 183 92
157 179 84
146 166 76
163 183 102
163 184 92
162 183 76
156 177 102
159 180 114
161 182 108
157 178 95
158 179 80
152 174 92
170 191 108
155 176 76
163 184 105
156 177 84
156 176 108
154 175 80
156 176 84
158 180 76
155 176 92
158 178 92
158 178 84
163 184 80
155 176 80
158 178 80
153 174 72
155 176 57
151 171 88
157 178 80
153 173 57
153 174 62
146 166 57
147 168 44
145 166 25
154 175 25
150 172 44
148 169 36
159 180 51
154 176 51
149 171 25
147 168 25
153 175 44
154 176 36
152 174 36
152 174 0
147 169 25
155 178 25
146 168 0
156 178 25
152 173 0
140 162 0
153 175 0
156 179 0
151 173 0
151 173 0
145 168 0
148 169 0
142 163 0
154 175 0
148 170 0
149 170 0
139 161 0
145 166 0
144 166 0
142 162 0
143 165 0
141 162 0
141 162 0
138 159 0
138 159 0
130 151 0
137 157 0
139 160 0
149 170 0
135 156 0
133 153 0
129 150 0
141 161 0
137 158 0
142 163 0
140 161 0
133 154 0
134 155 0
138 158 0
137 157 0
149 169 0
146 167 0
120 141 0
127 147 0
135 156 0
136 157 0
124 144 0
126 147 0
144 165 0
139 159 0
147 168 0
137 158 0
138 158 0
139 160 0
138 159 0
132 152 0
136 157 0
134 155 0
135 157 0
128 148 0
131 153 0
130 152 0
137 159 0
147 167 0
144 165 0
133 154 0
135 156 0
139 161 0
142 163 0
135 155 0
144 166 0
145 165 0
138 159 0
138 158 0
142 164 0
134 155 0
139 160 0
137 158 0
135 154 0
137 157 0
144 165 0
135 156 0
147 169 0
139 161 0
140 162 0
143 165 0
135 156 0
141 161 0
140 161 0
137 159 0
138 160 0
149 170 0
137 159 0
132 154 0
142 164 0
143 165 0
143 164 0
137 157 0
148 169 0
141 162 0
148 171 0
154 177 0
137 157 0
144 164 0
148 169 0
148 169 0
146 167 0
151 172 0
148 170 0
151 171 0
145 165 0
146 169 0
136 157 0
146 167 0
145 167 0
151 173 0
152 175 0
150 170 0
146 168 0
147 168 0
142 164 0
145 165 0
150 172 0
149 171 0
153 175 0
157 179 0
153 175 0
150 172 0
148 170 0
142 164 0
152 173 0
142 163 0
155 177 0
150 172 0
151 171 0
151 173 0
155 176 0
154 176 0
146 169 0
146 168 0
151 172 0
152 174 0
153 174 0
152 173 0
155 176 0
153 175 0
151 173 0
149 171 0
149 172 0
160 182 0
156 178 0
149 170 0
150 172 0
158 180 0
157 177 0
149 170 0
153 175 0
151 172 0
158 179 0
157 180 0
156 177 0
155 176 0
156 177 0
160 181 0
159 181 0
155 178 0
158 179 0
160 183 0
150 171 0
159 181 0
158 180 0
149 171 0
152 173 0
163 185 0
156 178 0
160 181 0
159 181 0
164 187 0
155 177 0
153 173 0
161 185 0
158 180 0
158 180 0
158 179 0
161 183 0
161 182 0
163 184 0
163 185 0
158 179 0
157 179 0
165 187 0
163 185 0
162 184 0
156 176 0
158 181 0
157 179 0
154 176 0
168 190 0
164 185 0
168 191 0
160 181 0
162 184 0
156 179 0
159 181 0
160 182 0
151 173 0
158 181 0
166 188 0
159 179 0
164 188 0
166 187 0
165 188 0
161 182 0
159 180 0
162 184 0
161 183 0
165 188 0
164 186 0
163 184 0
164 186 0
165 187 0
164 186 0
159 182 0
167 189 0
163 184 0
161 183 0
166 189 0
160 182 0
160 182 0
166 188 0
162 183 0
165 188 0
163 185 0
160 181 0
164 186 0
157 178 0
165 187 0
168 188 0
165 187 0
165 188 0
167 189 0
166 189 0
167 189 0
167 188 0
163 186 0
168 190 0
164 187 0
160 182 0
170 193 0
161 183 0
166 188 0
167 190 0
164 185 0
162 185 0
167 189 0
164 187 0
163 186 0
165 188 0
169 191 0
164 185 0
158 180 0
164 187 0
167 189 0
161 183 0
165 187 0
167 190 0
170 192 0
169 191 0
166 188 0
167 190 0
165 186 0
172 195 105
176 199 102
170 193 84
175 198 120
171 193 92
169 192 84
171 195 95
172 195 84
176 199 122
177 200 99
165 188 84
175 197 120
167 189 88
172 195 88
175 198 84
174 197 99
171 193 84
172 195 88
173 196 117
176 199 111
170 194 99
172 194 95
165 187 88
166 189 88
173 196 88
168 191 99
174 197 99
175 198 122
173 197 95
168 192 80
173 196 105
168 190 108
172 195 95
169 192 88
170 193 105
172 194 88
168 191 88
168 191 102
169 192 102
165 187 84
166 189 95
167 190 114
171 193 108
170 193 114
169 191 95
166 189 102
172 195 114
164 187 99
158 180 102
162 184 76
167 189 108
170 192 84
170 192 80
164 187 95
161 184 95
170 192 92
166 188 88
162 184 111
168 191 95
165 187 67
165 189 120
160 182 80
158 181 62
165 186 105
163 185 99
162 184 102
163 185 84
163 185 92
159 181 92
167 188 95
162 183 95
164 186 95
156 178 84
163 185 95
161 183 76
167 189 108
157 178 105
165 186 102
168 190 102
156 177 57
165 187 88
167 187 105
161 183 80
154 176 80
162 183 108
159 181 88
168 188 105
169 189 95
149 170 92
158 178 105
160 181 95
162 183 99
165 186 105
164 184 117
152 174 67
173 194 102
156 177 88
154 176 80
159 180 95
161 183 67
154 175 80
159 180 84
157 178 88
156 177 92
157 177 84
161 181 92
155 176 72
162 183 72
147 168 76
151 171 72
153 174 72
162 184 67
147 168 36
161 183 62
156 177 62
162 182 72
148 169 62
142 164 25
140 161 44
147 168 25
157 178 62
143 165 44
150 171 44
157 178 44
153 175 25
151 173 0
153 174 0
152 173 0
158 179 25
156 178 36
147 170 0
152 174 0
151 173 25
159 181 0
155 177 25
155 178 0
152 175 0
154 176 0
153 175 0
155 178 0
148 171 0
152 173 0
149 171 0
146 167 0
149 169 0
148 168 0
149 171 0
145 166 0
142 164 0
144 166 0
134 155 0
141 163 0
145 165 0
144 165 0
142 163 0
144 166 0
143 164 0
142 164 0
144 164 0
138 159 0
145 166 0
139 160 0
127 147 0
140 161 0
141 162 0
128 149 0
143 164 0
135 156 0
133 154 0
136 156 0
139 160 0
143 165 0
127 147 0
136 156 0
142 162 0
130 151 0
136 157 0
140 161 0
138 160 0
138 159 0
138 159 0
132 153 0
137 158 0
143 163 0
131 152 0
127 148 0
140 161 0
143 164 0
137 157 0
144 166 0
142 163 0
141 162 0
132 152 0
146 167 0
144 165 0
144 165 0
135 155 0
140 161 0
138 158 0
134 155 0
139 159 0
143 165 0
144 166 0
136 157 0
139 161 0
144 165 0
141 161 0
147 169 0
134 154 0
143 165 0
139 159 0
137 158 0
146 167 0
136 157 0
125 144 0
144 166 0
144 166 0
146 167 0
141 160 0
140 161 0
148 169 0
141 162 0
142 164 0
142 163 0
144 166 0
145 167 0
144 166 0
143 165 0
139 160 0
149 171 0
144 166 0
134 156 0
145 166 0
146 168 0
144 166 0
145 166 0
149 170 0
141 162 0
145 167 0
145 165 0
149 171 0
143 164 0
149 172 0
148 169 0
144 165 0
148 171 0
150 172 0
149 171 0
152 174 0
158 181 0
148 169 0
156 178 0
148 169 0
141 162 0
145 167 0
146 167 0
150 170 0
145 166 0
150 170 0
149 171 0
158 178 0
154 176 0
147 169 0
140 161 0
152 174 0
156 177 0
143 164 0
153 175 0
153 176 0
153 173 0
157 178 0
157 178 0
151 172 0
148 170 0
148 169 0
154 176 0
156 178 0
157 179 0
153 174 0
156 178 0
161 183 0
150 172 0
151 173 0
156 178 0
159 181 0
155 177 0
158 179 0
156 178 0
159 181 0
159 181 0
158 180 0
156 178 0
151 171 0
153 175 0
161 183 0
157 179 0
155 177 0
160 182 0
157 178 0
160 181 0
163 185 0
159 182 0
156 178 0
150 172 0
160 182 0
148 169 0
157 178 0
154 176 0
158 181 0
155 178 0
160 183 0
163 185 0
163 186 0
162 185 0
163 184 0
162 182 0
165 187 0
160 180 0
162 183 0
161 183 0
162 184 0
165 187 0
163 184 0
165 185 0
164 186 0
165 187 0
159 181 0
160 182 0
156 178 0
159 181 0
166 188 0
153 173 0
164 185 0
157 178 0
160 182 0
166 187 0
157 179 0
164 185 0
164 186 0
165 186 0
159 181 0
160 181 0
167 189 0
162 184 0
164 185 0
163 185 0
159 182 0
163 184 0
161 184 0
161 182 0
166 190 0
159 180 0
166 188 0
166 188 0
163 185 0
168 190 0
160 182 0
166 189 0
160 181 0
165 187 0
164 185 0
164 186 0
163 184 0
164 185 0
166 188 0
168 191 0
164 186 0
166 187 0
170 192 0
165 187 0
166 188 0
163 186 0
162 182 0
168 191 0
167 190 0
165 187 0
166 189 0
162 185 0
168 188 0
166 188 0
165 188 0
162 185 0
167 188 0
167 189 0
165 188 0
165 187 0
165 186 0
167 190 0
171 194 0
165 187 0
159 180 0
168 191 0
168 189 0
165 187 0
165 186 0
167 189 0
167 190 0
165 187 0
169 191 0
160 184 0
172 195 103
168 191 99
166 190 88
171 194 97
174 197 99
172 195 102
177 199 102
175 198 88
174 196 102
175 197 92
167 190 57
163 186 88
171 194 99
171 194 99
170 193 72
178 201 117
177 199 102
178 201 114
173 195 95
173 196 95
171 193 95
170 193 111
173 196 105
173 196 105
173 196 99
174 196 92
178 200 111
168 190 88
171 194 84
169 192 62
171 194 105
167 190 95
168 191 102
168 191 102
169 192 92
172 195 114
162 185 76
170 192 99
167 190 92
165 186 72
167 189 88
169 192 105
166 189 92
167 189 105
170 193 102
164 187 108
168 192 120
163 186 76
165 189 92
157 180 92
164 187 102
161 183 105
163 186 102
162 185 99
162 184 95
163 186 108
162 184 80
168 190 95
154 177 67
169 191 117
160 184 111
168 190 99
168 190 111
165 188 117
159 180 99
158 179 72
166 189 80
166 187 80
162 184 102
161 183 105
160 182 111
161 183 108
160 181 72
169 190 99
158 180 80
155 177 72
159 181 76
162 183 102
161 183 105
161 182 99
158 180 95
165 186 102
160 182 111
160 182 95
165 187 88
164 186 84
161 182 99
158 178 84
166 187 117
163 184 80
155 175 95
162 183 95
155 176 99
159 180 108
155 176 84
152 172 92
158 179 84
166 186 111
153 174 92
162 183 88
157 177 76
163 183 108
158 178 72
155 176 72
147 168 67
158 180 67
164 185 105
168 189 88
159 180 80
158 179 62
159 180 72
153 174 44
149 170 57
149 169 67
159 180 62
153 174 51
157 177 67
142 163 67
149 171 25
153 174 62
151 172 44
152 174 44
156 177 44
158 179 36
153 175 0
152 173 36
160 183 25
156 178 25
144 165 36
152 174 0
154 177 0
149 171 25
154 176 0
154 176 25
157 178 36
152 174 0
155 177 0
151 172 0
160 183 0
148 169 0
156 179 0
145 166 0
148 171 0
145 166 0
146 168 0
144 166 0
141 164 0
141 163 0
137 158 0
144 167 0
148 170 0
144 165 0
149 171 0
133 153 0
143 164 0
138 160 0
151 172 0
136 157 0
142 164 0
140 161 0
143 164 0
141 161 0
141 162 0
145 166 0
141 162 0
132 153 0
138 158 0
140 160 0
139 160 0
143 165 0
138 158 0
129 150 0
128 149 0
132 152 0
132 152 0
138 159 0
143 164 0
144 165 0
142 164 0
133 154 0
140 162 0
142 163 0
139 159 0
127 147 0
127 148 0
140 160 0
146 168 0
141 161 0
132 153 0
136 158 0
137 158 0
136 158 0
141 162 0
136 157 0
146 168 0
139 160 0
141 162 0
149 169 0
131 152 0
138 159 0
147 169 0
154 175 0
150 171 0
144 165 0
140 162 0
147 168 0
142 163 0
137 159 0
143 166 0
136 158 0
154 175 0
147 167 0
135 155 0
140 161 0
143 165 0
142 164 0
149 171 0
147 168 0
138 159 0
149 170 0
147 168 0
144 165 0
137 158 0
144 166 0
146 166 0
145 166 0
141 163 0
148 169 0
142 163 0
147 169 0
141 163 0
146 167 0
147 168 0
148 169 0
149 171 0
142 163 0
152 174 0
147 168 0
145 169 0
140 161 0
147 170 0
146 167 0
147 169 0
149 170 0
147 167 0
149 171 0
142 163 0
148 169 0
153 175 0
148 171 0
152 174 0
154 174 0
145 166 0
153 175 0
154 176 0
154 175 0
149 170 0
147 168 0
152 174 0
152 175 0
153 175 0
148 169 0
157 180 0
155 175 0
159 182 0
151 173 0
150 173 0
151 172 0
154 177 0
154 175 0
151 173 0
154 176 0
154 175 0
148 169 0
153 176 0
146 167 0
161 183 0
151 173 0
154 177 0
154 176 0
159 181 0
153 173 0
154 175 0
155 177 0
157 180 0
159 180 0
158 180 0
155 178 0
147 168 0
155 177 0
160 183 0
155 174 0
159 181 0
154 176 0
156 179 0
157 180 0
159 182 0
157 179 0
164 186 0
160 184 0
164 187 0
152 174 0
163 186 0
158 179 0
162 185 0
155 176 0
160 182 0
159 182 0
161 182 0
159 182 0
154 175 0
161 182 0
158 180 0
163 185 0
155 175 0
152 174 0
152 174 0
158 181 0
157 180 0
160 182 0
156 177 0
162 185 0
165 186 0
159 181 0
162 184 0
164 185 0
163 186 0
162 185 0
162 184 0
164 184 0
160 183 0
157 179 0
163 185 0
164 187 0
162 184 0
157 179 0
156 178 0
160 183 0
164 186 0
170 193 0
162 184 0
164 186 0
161 182 0
162 184 0
164 186 0
164 187 0
161 183 0
168 190 0
161 183 0
162 185 0
163 184 0
160 182 0
163 185 0
162 183 0
161 182 0
164 184 0
165 188 0
163 184 0
163 185 0
159 181 0
164 187 0
163 185 0
166 189 0
161 183 0
166 190 0
167 189 0
167 189 0
165 188 0
167 188 0
164 185 0
165 188 0
165 188 0
168 189 0
163 184 0
168 191 0
165 187 0
161 184 0
165 188 0
167 190 0
168 191 0
164 186 0
168 189 0
168 189 0
166 189 0
165 187 0
168 190 0
166 188 0
165 187 0
171 193 0
165 186 0
164 187 0
163 185 0
169 192 0
166 189 0
162 184 0
171 193 0
170 192 0
164 185 0
165 186 0
164 186 0
165 188 78
177 199 99
171 194 92
175 197 113
173 195 88
169 192 90
168 191 88
172 195 95
173 196 102
175 198 111
169 192 92
174 196 95
173 195 105
172 195 99
173 196 105
172 195 105
167 190 84
171 194 102
174 197 111
166 189 84
170 193 99
169 192 80
170 193 105
173 196 122
172 196 117
169 192 95
176 199 120
170 193 99
171 194 99
167 190 80
165 187 99
173 196 102
169 192 72
171 193 108
167 190 127
169 191 105
173 195 84
164 187 84
169 191 105
165 188 102
169 191 95
171 194 99
164 187 95
161 183 105
163 186 84
163 185 95
168 190 88
166 188 92
169 192 102
167 190 105
167 189 72
162 184 67
162 185 102
171 194 105
162 184 88
166 188 99
164 187 88
170 193 76
168 190 105
157 179 76
169 190 92
161 183 99
159 180 76
164 186 99
160 182 92
164 186 95
160 183 111
165 187 88
162 184 84
162 184 76
170 192 102
154 176 62
155 177 88
158 180 102
167 189 105
173 195 111
154 175 99
162 184 105
167 188 99
162 183 102
172 193 105
159 181 67
158 179 88
161 182 92
167 188 117
166 186 95
157 178 102
163 185 99
163 185 95
156 177 80
158 179 84
157 179 76
158 179 99
159 179 80
168 190 105
160 182 84
157 177 84
155 176 67
160 181 95
159 179 84
157 178 76
161 182 95
156 176 80
152 172 80
163 183 84
151 172 80
153 174 76
158 178 99
161 183 84
161 183 57
161 182 76
159 180 67
156 176 76
144 165 44
157 179 62
157 178 67
152 173 62
161 182 62
162 183 51
148 169 44
153 174 25
149 170 51
150 172 25
156 178 25
144 166 25
156 178 25
156 179 25
154 176 25
156 178 0
155 178 0
151 173 25
153 176 25
156 179 0
157 179 0
154 176 0
158 180 0
158 179 0
153 176 0
151 172 0
155 176 0
149 169 0
144 166 0
138 160 0
143 165 0
155 177 0
144 165 0
144 165 0
149 170 0
139 160 0
152 174 0
140 162 0
145 167 0
142 163 0
140 161 0
139 161 0
138 160 0
137 158 0
140 161 0
144 165 0
143 163 0
143 165 0
142 162 0
143 163 0
145 165 0
137 158 0
143 165 0
138 159 0
138 159 0
129 149 0
132 152 0
142 162 0
136 158 0
133 154 0
142 163 0
137 158 0
140 160 0
131 151 0
142 164 0
147 168 0
137 159 0
141 164 0
139 159 0
140 162 0
142 161 0
131 152 0
145 166 0
136 157 0
136 156 0
148 170 0
134 156 0
133 154 0
135 156 0
135 156 0
144 164 0
145 165 0
141 161 0
145 166 0
141 163 0
139 161 0
146 167 0
148 169 0
138 159 0
141 163 0
146 168 0
143 164 0
137 158 0
141 162 0
149 170 0
143 165 0
140 163 0
148 169 0
135 158 0
143 165 0
143 164 0
146 167 0
138 158 0
148 169 0
143 164 0
143 163 0
155 176 0
136 157 0
139 160 0
134 155 0
143 164 0
148 170 0
146 167 0
142 164 0
149 172 0
149 171 0
144 165 0
138 159 0
143 165 0
142 166 0
146 167 0
148 169 0
146 168 0
144 165 0
145 166 0
147 170 0
147 168 0
145 168 0
151 172 0
150 172 0
151 174 0
149 172 0
152 174 0
154 177 0
153 173 0
154 177 0
154 177 0
149 172 0
151 172 0
147 168 0
151 174 0
144 166 0
153 174 0
154 175 0
145 166 0
149 171 0
150 172 0
151 173 0
145 168 0
156 177 0
141 163 0
147 169 0
156 177 0
153 174 0
157 177 0
150 171 0
162 185 0
156 179 0
164 185 0
160 182 0
155 176 0
153 174 0
158 180 0
153 176 0
154 176 0
158 180 0
155 177 0
158 179 0
159 181 0
156 178 0
153 175 0
154 175 0
156 178 0
151 172 0
158 179 0
156 177 0
155 177 0
156 178 0
154 175 0
155 177 0
155 177 0
150 171 0
156 178 0
164 187 0
155 176 0
155 176 0
162 185 0
166 189 0
158 181 0
160 181 0
159 180 0
158 180 0
149 170 0
163 185 0
151 173 0
166 188 0
159 180 0
163 184 0
155 176 0
159 181 0
159 181 0
160 181 0
155 177 0
161 183 0
159 182 0
160 183 0
167 188 0
163 185 0
159 179 0
159 182 0
161 182 0
162 184 0
161 182 0
161 183 0
156 180 0
156 178 0
165 187 0
159 181 0
159 180 0
162 184 0
160 181 0
164 185 0
162 184 0
159 181 0
164 187 0
161 184 0
165 187 0
160 182 0
169 191 0
162 184 0
163 185 0
159 181 0
163 185 0
162 183 0
164 185 0
164 187 0
165 187 0
160 182 0
163 185 0
163 184 0
162 185 0
163 184 0
165 185 0
160 181 0
168 191 0
165 188 0
165 186 0
168 192 0
165 187 0
164 185 0
163 184 0
163 184 0
163 186 0
168 190 0
168 190 0
161 183 0
163 184 0
166 188 0
167 189 0
164 185 0
162 183 0
167 189 0
168 191 0
162 183 0
164 186 0
167 189 0
168 190 0
169 191 0
164 185 0
164 186 0
169 191 0
164 185 0
166 188 0
168 191 0
163 185 0
167 190 0
168 190 0
168 191 0
168 190 0
167 190 0
172 194 0
166 189 0
170 192 0
169 192 0
166 189 0
165 186 0
168 190 0
173 195 88
173 196 113
175 198 102
176 198 99
177 200 102
173 195 99
164 188 84
173 196 108
175 198 114
172 195 105
171 195 102
170 193 99
172 194 80
173 196 99
173 195 92
174 197 105
170 191 99
171 194 88
174 197 95
173 195 125
169 192 92
172 194 99
174 197 99
169 192 80
172 195 84
175 198 117
172 195 95
172 194 108
169 192 99
170 192 95
171 193 84
168 191 99
167 189 92
174 197 99
171 193 105
169 192 108
173 197 99
168 191 84
170 193 95
168 192 102
170 193 102
164 187 105
168 191 92
169 191 95
158 180 105
166 188 88
167 189 102
170 192 105
170 193 99
166 188 95
162 185 95
173 195 88
166 188 102
163 187 95
164 187 108
168 190 108
164 186 92
163 185 99
169 191 125
167 189 95
163 185 84
170 193 114
169 190 111
161 183 95
164 186 102
166 188 117
162 184 99
158 179 84
159 182 92
161 183 88
164 185 105
162 183 99
166 188 111
156 178 80
171 192 99
164 187 105
164 186 92
158 180 95
154 175 99
160 182 95
163 185 95
153 175 80
158 178 88
161 182 84
160 181 80
160 180 88
164 185 84
154 175 72
158 179 72
161 182 88
165 185 92
155 175 84
161 181 108
153 174 72
164 185 95
160 181 80
159 180 92
161 182 92
150 170 51
161 182 99
161 182 88
162 183 108
157 177 84
156 177 76
156 177 76
158 178 80
160 181 76
157 179 62
154 175 62
152 173 57
156 177 67
159 180 72
151 172 51
162 183 62
159 180 67
158 178 76
156 177 44
153 175 51
152 174 51
153 175 25
152 175 0
153 175 51
149 171 25
156 178 25
148 170 44
158 180 0
153 175 25
152 174 36
156 178 25
158 179 0
151 173 0
155 177 0
158 181 25
154 177 0
154 178 25
152 175 0
152 175 0
153 176 0
154 176 0
156 179 0
148 170 0
152 175 0
148 170 0
155 177 0
151 173 0
145 166 0
144 165 0
155 177 0
136 157 0
145 167 0
152 172 0
145 167 0
140 162 0
149 170 0
142 164 0
140 161 0
139 160 0
142 163 0
136 157 0
140 162 0
139 160 0
134 156 0
131 152 0
138 159 0
135 156 0
151 173 0
140 160 0
138 158 0
141 161 0
138 159 0
134 154 0
134 155 0
145 166 0
141 161 0
139 160 0
138 158 0
135 155 0
139 161 0
132 154 0
135 156 0
136 158 0
137 158 0
143 164 0
139 159 0
137 159 0
139 160 0
146 167 0
137 158 0
135 157 0
145 168 0
142 163 0
135 156 0
142 164 0
130 150 0
142 164 0
144 166 0
145 166 0
143 163 0
136 156 0
144 165 0
145 167 0
146 168 0
139 159 0
144 166 0
140 161 0
145 165 0
139 160 0
141 162 0
134 154 0
146 168 0
146 168 0
152 173 0
147 169 0
150 171 0
137 158 0
142 162 0
136 156 0
152 173 0
155 177 0
145 166 0
140 161 0
147 168 0
145 168 0
140 162 0
147 167 0
150 173 0
156 179 0
152 174 0
146 168 0
145 166 0
146 167 0
148 170 0
152 174 0
150 171 0
151 174 0
147 169 0
149 169 0
146 167 0
144 165 0
143 165 0
145 167 0
145 166 0
146 167 0
156 177 0
149 171 0
155 177 0
142 164 0
147 167 0
146 166 0
147 170 0
146 168 0
153 174 0
148 171 0
154 176 0
149 172 0
155 177 0
150 171 0
157 179 0
154 176 0
145 167 0
155 177 0
147 168 0
156 178 0
152 175 0
155 177 0
152 174 0
158 180 0
154 177 0
160 183 0
156 180 0
158 179 0
155 176 0
154 177 0
153 175 0
158 180 0
160 183 0
155 176 0
152 174 0
156 176 0
155 176 0
154 175 0
152 175 0
155 175 0
147 167 0
158 180 0
160 182 0
158 178 0
154 175 0
159 182 0
159 182 0
156 178 0
157 179 0
155 178 0
161 183 0
157 180 0
157 179 0
155 177 0
158 180 0
163 185 0
158 181 0
150 171 0
160 183 0
159 180 0
161 183 0
157 178 0
157 180 0
167 189 0
161 184 0
157 178 0
166 189 0
158 180 0
163 186 0
157 179 0
158 181 0
160 183 0
158 180 0
157 180 0
155 176 0
163 184 0
160 182 0
162 185 0
156 178 0
167 189 0
162 184 0
161 182 0
160 182 0
163 186 0
161 183 0
159 181 0
165 187 0
158 179 0
162 183 0
163 185 0
159 180 0
157 178 0
163 185 0
161 183 0
162 184 0
170 192 0
163 184 0
164 187 0
161 182 0
169 191 0
163 186 0
164 186 0
169 191 0
163 186 0
163 183 0
166 190 0
168 191 0
166 188 0
164 186 0
164 186 0
162 184 0
163 186 0
157 180 0
167 189 0
164 187 0
162 185 0
166 189 0
165 187 0
165 186 0
168 191 0
169 191 0
166 187 0
163 186 0
167 189 0
168 190 0
163 185 0
162 184 0
168 189 0
166 187 0
168 189 0
161 183 0
162 184 0
164 187 0
163 186 0
169 192 0
164 187 0
170 192 0
167 187 0
159 181 0
167 190 0
165 187 0
161 182 0
166 187 0
167 190 0
166 188 0
168 189 0
162 184 0
166 188 0
170 192 0
169 192 0
168 190 0
165 187 0
166 189 0
165 188 0
167 189 0
167 189 0
169 192 0
172 194 86
178 200 102
175 198 102
174 197 88
170 193 74
179 201 114
171 195 88
176 198 125
173 195 84
175 197 95
179 201 117
172 195 102
172 196 111
173 195 76
170 193 108
166 189 95
175 197 99
168 191 108
174 196 92
171 194 99
175 197 111
169 191 80
168 191 76
171 194 95
171 194 72
171 194 99
171 193 80
171 194 57
173 196 108
166 189 88
172 195 102
168 191 92
168 190 95
168 189 80
168 191 95
172 194 117
170 193 105
169 191 88
164 186 92
169 193 111
172 194 95
168 191 102
166 189 84
171 194 111
172 195 102
168 191 80
165 187 80
171 193 95
165 187 88
165 187 80
167 189 88
169 190 92
166 188 62
168 190 111
165 188 102
161 183 95
168 190 108
169 190 102
169 190 122
167 188 72
168 190 95
162 184 114
166 189 108
164 186 88
165 188 102
167 188 92
168 190 108
165 188 99
166 187 95
168 189 105
167 187 114
160 182 105
161 182 99
164 185 80
161 183 92
165 187 84
167 189 84
160 180 80
160 181 95
164 185 102
172 193 117
161 183 80
154 175 72
166 187 102
162 183 88
163 184 105
163 185 108
165 187 99
160 181 80
168 189 111
157 179 72
158 180 72
168 188 102
162 183 84
160 181 67
160 181 108
159 180 88
151 172 80
167 189 108
153 174 84
159 180 88
158 179 67
163 184 88
166 186 108
166 188 76
153 174 76
161 181 92
151 172 76
153 173 88
160 181 62
155 177 76
164 185 51
158 178 88
154 176 36
148 170 44
148 170 44
151 173 36
151 172 51
156 178 51
144 166 36
156 177 44
156 177 51
148 171 36
152 174 0
152 175 36
156 179 0
151 174 0
158 181 0
157 179 25
162 184 0
160 183 0
156 178 0
155 177 0
148 170 0
159 182 0
156 178 0
147 169 0
156 177 0
155 176 0
149 170 0
151 173 0
157 179 0
146 169 0
150 170 0
147 169 0
149 171 0
148 171 0
145 166 0
149 170 0
147 167 0
152 173 0
147 168 0
142 165 0
139 161 0
146 167 0
146 167 0
136 157 0
147 168 0
132 153 0
150 172 0
146 168 0
136 158 0
144 166 0
139 161 0
141 162 0
136 157 0
143 164 0
137 158 0
142 164 0
139 160 0
140 162 0
138 159 0
144 164 0
136 157 0
142 164 0
131 152 0
142 163 0
144 167 0
136 157 0
142 163 0
143 165 0
137 158 0
133 155 0
127 148 0
144 165 0
144 166 0
144 165 0
138 160 0
142 164 0
143 165 0
136 158 0
139 160 0
145 167 0
151 172 0
140 160 0
145 166 0
135 156 0
134 156 0
149 172 0
138 159 0
140 161 0
149 170 0
143 165 0
144 164 0
139 161 0
140 161 0
149 171 0
144 166 0
147 168 0
147 168 0
144 165 0
144 166 0
134 156 0
132 153 0
141 161 0
146 168 0
145 169 0
151 173 0
141 162 0
151 172 0
146 167 0
147 168 0
144 166 0
147 169 0
143 165 0
150 172 0
142 165 0
129 150 0
141 163 0
148 168 0
149 170 0
144 166 0
152 174 0
146 168 0
142 163 0
147 168 0
146 168 0
146 168 0
155 177 0
152 175 0
151 172 0
143 165 0
152 174 0
152 174 0
155 177 0
151 172 0
144 165 0
147 169 0
152 174 0
152 173 0
149 171 0
152 173 0
146 168 0
162 184 0
152 174 0
149 172 0
146 166 0
157 180 0
145 166 0
146 168 0
153 175 0
152 173 0
150 171 0
150 172 0
148 170 0
154 176 0
152 173 0
151 173 0
151 173 0
151 174 0
156 178 0
161 183 0
157 179 0
152 174 0
156 177 0
147 169 0
159 181 0
164 186 0
157 180 0
157 179 0
156 176 0
149 170 0
159 181 0
154 176 0
161 182 0
155 177 0
155 176 0
154 176 0
155 176 0
152 175 0
154 176 0
152 174 0
155 177 0
160 182 0
149 169 0
159 181 0
157 178 0
159 182 0
161 182 0
155 178 0
164 185 0
152 174 0
156 177 0
158 181 0
161 183 0
157 178 0
157 179 0
161 183 0
160 182 0
163 185 0
161 181 0
155 177 0
160 182 0
153 174 0
163 184 0
163 187 0
162 185 0
161 184 0
162 184 0
159 181 0
158 180 0
157 178 0
163 185 0
160 182 0
157 179 0
161 184 0
160 181 0
164 187 0
160 181 0
161 183 0
160 182 0
164 186 0
159 180 0
163 186 0
164 187 0
161 184 0
162 185 0
168 190 0
163 186 0
160 183 0
159 182 0
163 185 0
165 187 0
167 190 0
163 185 0
164 186 0
162 184 0
159 181 0
165 187 0
166 189 0
166 188 0
162 183 0
164 186 0
163 185 0
164 186 0
160 183 0
165 188 0
162 183 0
165 186 0
164 187 0
168 190 0
168 190 0
165 188 0
162 185 0
166 189 0
167 190 0
164 186 0
163 185 0
162 185 0
164 186 0
168 190 0
165 188 0
168 191 0
167 191 0
171 192 0
167 190 0
167 189 0
163 185 0
166 189 0
165 186 0
171 194 0
166 189 0
169 192 0
164 187 0
164 187 0
169 190 0
168 191 0
172 195 0
165 189 0
165 188 0
167 189 0
168 190 0
167 189 0
170 191 0
166 188 0
168 190 0
163 186 0
167 189 0
170 192 0
166 189 0
